( File: 60 shades.bmp )
( 01-23-2015 at 08:44:29 )
( PicLaser Lite ver.1.1.03)
( GRBL Gcode )
( FeedRate = 3000 )
( Pixel Resolution = 0.1500 )
( Max. Laser Value 255.0000 )
( Min. Laser Value .0000 )
( Engraving Angle = 45 degrees )

G21
F1800
M05
G01 X0.00 Y0.00
M03 S255.0000
Y27.0000
X46.0500
Y0.0000
X0.0000
Y27.0000
X46.0500
Y0.0000
X0.0000
M05
M03
X0 Y0.15 S251
X0 Y0.3 S251
X0.15 Y0.15 S0
X0.3 Y0 S251
X0.45 Y0 S251
X0.3 Y0.15 S0
X0.15 Y0.3 S0
X0 Y0.45 S251
X0 Y0.6 S251
X0.15 Y0.45 S0
X0.3 Y0.3 S0
X0.45 Y0.15 S0
X0.6 Y0 S251
X0.75 Y0 S251
X0.6 Y0.15 S0
X0.45 Y0.3 S0
X0.3 Y0.45 S0
X0.15 Y0.6 S0
X0 Y0.75 S251
X0 Y0.9 S251
X0.15 Y0.75 S0
X0.3 Y0.6 S0
X0.45 Y0.45 S0
X0.6 Y0.3 S0
X0.75 Y0.15 S0
X0.9 Y0 S251
X1.05 Y0 S251
X0.9 Y0.15 S0
X0.75 Y0.3 S0
X0.6 Y0.45 S0
X0.45 Y0.6 S0
X0.3 Y0.75 S0
X0.15 Y0.9 S0
X0 Y1.05 S251
X0 Y1.2 S251
X0.15 Y1.05 S0
X0.3 Y0.9 S0
X0.45 Y0.75 S0
X0.6 Y0.6 S0
X0.75 Y0.45 S0
X0.9 Y0.3 S0
X1.05 Y0.15 S0
X1.2 Y0 S251
X1.35 Y0 S251
X1.2 Y0.15 S0
X1.05 Y0.3 S0
X0.9 Y0.45 S0
X0.75 Y0.6 S0
X0.6 Y0.75 S0
X0.45 Y0.9 S0
X0.3 Y1.05 S0
X0.15 Y1.2 S0
X0 Y1.35 S251
X0 Y1.5 S251
X0.15 Y1.35 S0
X0.3 Y1.2 S0
X0.45 Y1.05 S0
X0.6 Y0.9 S0
X0.75 Y0.75 S0
X0.9 Y0.6 S0
X1.05 Y0.45 S0
X1.2 Y0.3 S0
X1.35 Y0.15 S0
X1.5 Y0 S251
X1.65 Y0 S251
X1.5 Y0.15 S0
X1.35 Y0.3 S0
X1.2 Y0.45 S0
X1.05 Y0.6 S0
X0.9 Y0.75 S0
X0.75 Y0.9 S0
X0.6 Y1.05 S0
X0.45 Y1.2 S0
X0.3 Y1.35 S0
X0.15 Y1.5 S0
X0 Y1.65 S251
X0 Y1.8 S251
X0.15 Y1.65 S0
X0.3 Y1.5 S0
X0.45 Y1.35 S0
X0.6 Y1.2 S0
X0.75 Y1.05 S0
X0.9 Y0.9 S0
X1.05 Y0.75 S0
X1.2 Y0.6 S0
X1.35 Y0.45 S0
X1.5 Y0.3 S0
X1.65 Y0.15 S0
X1.8 Y0 S251
X1.95 Y0 S251
X1.8 Y0.15 S0
X1.65 Y0.3 S0
X1.5 Y0.45 S0
X1.35 Y0.6 S0
X1.2 Y0.75 S0
X1.05 Y0.9 S0
X0.9 Y1.05 S0
X0.75 Y1.2 S0
X0.6 Y1.35 S0
X0.45 Y1.5 S0
X0.3 Y1.65 S0
X0.15 Y1.8 S0
X0 Y1.95 S251
X0 Y2.1 S251
X0.15 Y1.95 S0
X0.3 Y1.8 S0
X0.45 Y1.65 S0
X0.6 Y1.5 S0
X0.75 Y1.35 S0
X0.9 Y1.2 S0
X1.05 Y1.05 S0
X1.2 Y0.9 S0
X1.35 Y0.75 S0
X1.5 Y0.6 S0
X1.65 Y0.45 S0
X1.8 Y0.3 S0
X1.95 Y0.15 S0
X2.1 Y0 S251
X2.25 Y0 S251
X2.1 Y0.15 S0
X1.95 Y0.3 S0
X1.8 Y0.45 S0
X1.65 Y0.6 S0
X1.5 Y0.75 S0
X1.35 Y0.9 S0
X1.2 Y1.05 S0
X1.05 Y1.2 S0
X0.9 Y1.35 S0
X0.75 Y1.5 S0
X0.6 Y1.65 S0
X0.45 Y1.8 S0
X0.3 Y1.95 S0
X0.15 Y2.1 S0
X0 Y2.25 S251
X0 Y2.4 S251
X0.15 Y2.25 S0
X0.3 Y2.1 S0
X0.45 Y1.95 S0
X0.6 Y1.8 S0
X0.75 Y1.65 S0
X0.9 Y1.5 S0
X1.05 Y1.35 S0
X1.2 Y1.2 S0
X1.35 Y1.05 S0
X1.5 Y0.9 S0
X1.65 Y0.75 S0
X1.8 Y0.6 S0
X1.95 Y0.45 S0
X2.1 Y0.3 S0
X2.25 Y0.15 S0
X2.4 Y0 S251
X2.55 Y0 S251
X2.4 Y0.15 S0
X2.25 Y0.3 S0
X2.1 Y0.45 S0
X1.95 Y0.6 S0
X1.8 Y0.75 S0
X1.65 Y0.9 S0
X1.5 Y1.05 S0
X1.35 Y1.2 S0
X1.2 Y1.35 S0
X1.05 Y1.5 S0
X0.9 Y1.65 S0
X0.75 Y1.8 S0
X0.6 Y1.95 S0
X0.45 Y2.1 S0
X0.3 Y2.25 S0
X0.15 Y2.4 S0
X0 Y2.55 S251
X0 Y2.7 S251
X0.15 Y2.55 S0
X0.3 Y2.4 S0
X0.45 Y2.25 S0
X0.6 Y2.1 S0
X0.75 Y1.95 S0
X0.9 Y1.8 S0
X1.05 Y1.65 S0
X1.2 Y1.5 S0
X1.35 Y1.35 S0
X1.5 Y1.2 S0
X1.65 Y1.05 S0
X1.8 Y0.9 S0
X1.95 Y0.75 S0
X2.1 Y0.6 S0
X2.25 Y0.45 S0
X2.4 Y0.3 S0
X2.55 Y0.15 S0
X2.7 Y0 S251
X2.85 Y0 S251
X2.7 Y0.15 S0
X2.55 Y0.3 S0
X2.4 Y0.45 S0
X2.25 Y0.6 S0
X2.1 Y0.75 S0
X1.95 Y0.9 S0
X1.8 Y1.05 S0
X1.65 Y1.2 S0
X1.5 Y1.35 S0
X1.35 Y1.5 S0
X1.2 Y1.65 S0
X1.05 Y1.8 S0
X0.9 Y1.95 S0
X0.75 Y2.1 S0
X0.6 Y2.25 S0
X0.45 Y2.4 S0
X0.3 Y2.55 S0
X0.15 Y2.7 S0
X0 Y2.85 S251
X0 Y3 S251
X0.15 Y2.85 S0
X0.3 Y2.7 S0
X0.45 Y2.55 S0
X0.6 Y2.4 S0
X0.75 Y2.25 S0
X0.9 Y2.1 S0
X1.05 Y1.95 S0
X1.2 Y1.8 S0
X1.35 Y1.65 S0
X1.5 Y1.5 S0
X1.65 Y1.35 S0
X1.8 Y1.2 S0
X1.95 Y1.05 S0
X2.1 Y0.9 S0
X2.25 Y0.75 S0
X2.4 Y0.6 S0
X2.55 Y0.45 S0
X2.7 Y0.3 S0
X2.85 Y0.15 S0
X3 Y0 S251
X3.15 Y0 S251
X3 Y0.15 S0
X2.85 Y0.3 S0
X2.7 Y0.45 S0
X2.55 Y0.6 S0
X2.4 Y0.75 S0
X2.25 Y0.9 S0
X2.1 Y1.05 S0
X1.95 Y1.2 S0
X1.8 Y1.35 S0
X1.65 Y1.5 S0
X1.5 Y1.65 S0
X1.35 Y1.8 S0
X1.2 Y1.95 S0
X1.05 Y2.1 S0
X0.9 Y2.25 S0
X0.75 Y2.4 S0
X0.6 Y2.55 S0
X0.45 Y2.7 S0
X0.3 Y2.85 S0
X0.15 Y3 S0
X0 Y3.15 S251
X0 Y3.3 S251
X0.15 Y3.15 S0
X0.3 Y3 S0
X0.45 Y2.85 S0
X0.6 Y2.7 S0
X0.75 Y2.55 S0
X0.9 Y2.4 S0
X1.05 Y2.25 S0
X1.2 Y2.1 S0
X1.35 Y1.95 S0
X1.5 Y1.8 S0
X1.65 Y1.65 S0
X1.8 Y1.5 S0
X1.95 Y1.35 S0
X2.1 Y1.2 S0
X2.25 Y1.05 S0
X2.4 Y0.9 S0
X2.55 Y0.75 S0
X2.7 Y0.6 S0
X2.85 Y0.45 S0
X3 Y0.3 S0
X3.15 Y0.15 S0
X3.3 Y0 S251
X3.45 Y0 S251
X3.3 Y0.15 S0
X3.15 Y0.3 S0
X3 Y0.45 S0
X2.85 Y0.6 S0
X2.7 Y0.75 S0
X2.55 Y0.9 S0
X2.4 Y1.05 S0
X2.25 Y1.2 S0
X2.1 Y1.35 S0
X1.95 Y1.5 S0
X1.8 Y1.65 S0
X1.65 Y1.8 S0
X1.5 Y1.95 S0
X1.35 Y2.1 S0
X1.2 Y2.25 S0
X1.05 Y2.4 S0
X0.9 Y2.55 S0
X0.75 Y2.7 S0
X0.6 Y2.85 S0
X0.45 Y3 S0
X0.3 Y3.15 S0
X0.15 Y3.3 S0
X0 Y3.45 S251
X0 Y3.6 S251
X0.15 Y3.45 S0
X0.3 Y3.3 S0
X0.45 Y3.15 S0
X0.6 Y3 S0
X0.75 Y2.85 S0
X0.9 Y2.7 S0
X1.05 Y2.55 S0
X1.2 Y2.4 S0
X1.35 Y2.25 S0
X1.5 Y2.1 S0
X1.65 Y1.95 S0
X1.8 Y1.8 S0
X1.95 Y1.65 S0
X2.1 Y1.5 S0
X2.25 Y1.35 S0
X2.4 Y1.2 S0
X2.55 Y1.05 S0
X2.7 Y0.9 S0
X2.85 Y0.75 S0
X3 Y0.6 S0
X3.15 Y0.45 S0
X3.3 Y0.3 S0
X3.45 Y0.15 S0
X3.6 Y0 S251
X3.75 Y0 S251
X3.6 Y0.15 S0
X3.45 Y0.3 S0
X3.3 Y0.45 S0
X3.15 Y0.6 S0
X3 Y0.75 S0
X2.85 Y0.9 S0
X2.7 Y1.05 S0
X2.55 Y1.2 S0
X2.4 Y1.35 S0
X2.25 Y1.5 S0
X2.1 Y1.65 S0
X1.95 Y1.8 S0
X1.8 Y1.95 S0
X1.65 Y2.1 S0
X1.5 Y2.25 S0
X1.35 Y2.4 S0
X1.2 Y2.55 S0
X1.05 Y2.7 S0
X0.9 Y2.85 S0
X0.75 Y3 S0
X0.6 Y3.15 S0
X0.45 Y3.3 S0
X0.3 Y3.45 S0
X0.15 Y3.6 S0
X0 Y3.75 S251
X0 Y3.9 S251
X0.15 Y3.75 S0
X0.3 Y3.6 S0
X0.45 Y3.45 S0
X0.6 Y3.3 S0
X0.75 Y3.15 S0
X0.9 Y3 S0
X1.05 Y2.85 S0
X1.2 Y2.7 S0
X1.35 Y2.55 S0
X1.5 Y2.4 S0
X1.65 Y2.25 S0
X1.8 Y2.1 S0
X1.95 Y1.95 S0
X2.1 Y1.8 S0
X2.25 Y1.65 S0
X2.4 Y1.5 S0
X2.55 Y1.35 S0
X2.7 Y1.2 S0
X2.85 Y1.05 S0
X3 Y0.9 S0
X3.15 Y0.75 S0
X3.3 Y0.6 S0
X3.45 Y0.45 S0
X3.6 Y0.3 S0
X3.75 Y0.15 S0
X3.9 Y0 S251
X4.05 Y0 S251
X3.9 Y0.15 S0
X3.75 Y0.3 S0
X3.6 Y0.45 S0
X3.45 Y0.6 S0
X3.3 Y0.75 S0
X3.15 Y0.9 S0
X3 Y1.05 S0
X2.85 Y1.2 S0
X2.7 Y1.35 S0
X2.55 Y1.5 S0
X2.4 Y1.65 S0
X2.25 Y1.8 S0
X2.1 Y1.95 S0
X1.95 Y2.1 S0
X1.8 Y2.25 S0
X1.65 Y2.4 S0
X1.5 Y2.55 S0
X1.35 Y2.7 S0
X1.2 Y2.85 S0
X1.05 Y3 S0
X0.9 Y3.15 S0
X0.75 Y3.3 S0
X0.6 Y3.45 S0
X0.45 Y3.6 S0
X0.3 Y3.75 S0
X0.15 Y3.9 S0
X0 Y4.05 S251
X0 Y4.2 S251
X0.15 Y4.05 S0
X0.3 Y3.9 S0
X0.45 Y3.75 S0
X0.6 Y3.6 S0
X0.75 Y3.45 S0
X0.9 Y3.3 S0
X1.05 Y3.15 S0
X1.2 Y3 S0
X1.35 Y2.85 S0
X1.5 Y2.7 S0
X1.65 Y2.55 S0
X1.8 Y2.4 S0
X1.95 Y2.25 S0
X2.1 Y2.1 S0
X2.25 Y1.95 S0
X2.4 Y1.8 S0
X2.55 Y1.65 S0
X2.7 Y1.5 S0
X2.85 Y1.35 S0
X3 Y1.2 S0
X3.15 Y1.05 S0
X3.3 Y0.9 S0
X3.45 Y0.75 S0
X3.6 Y0.6 S0
X3.75 Y0.45 S0
X3.9 Y0.3 S0
X4.05 Y0.15 S0
X4.2 Y0 S251
X4.35 Y0 S251
X4.2 Y0.15 S0
X4.05 Y0.3 S0
X3.9 Y0.45 S0
X3.75 Y0.6 S0
X3.6 Y0.75 S0
X3.45 Y0.9 S0
X3.3 Y1.05 S0
X3.15 Y1.2 S0
X3 Y1.35 S0
X2.85 Y1.5 S0
X2.7 Y1.65 S0
X2.55 Y1.8 S0
X2.4 Y1.95 S0
X2.25 Y2.1 S0
X2.1 Y2.25 S0
X1.95 Y2.4 S0
X1.8 Y2.55 S0
X1.65 Y2.7 S0
X1.5 Y2.85 S0
X1.35 Y3 S0
X1.2 Y3.15 S0
X1.05 Y3.3 S0
X0.9 Y3.45 S0
X0.75 Y3.6 S0
X0.6 Y3.75 S0
X0.45 Y3.9 S0
X0.3 Y4.05 S0
X0.15 Y4.2 S0
X0 Y4.35 S251
X0 Y4.5 S251
X0.15 Y4.35 S0
X0.3 Y4.2 S0
X0.45 Y4.05 S0
X0.6 Y3.9 S0
X0.75 Y3.75 S0
X0.9 Y3.6 S0
X1.05 Y3.45 S0
X1.2 Y3.3 S0
X1.35 Y3.15 S0
X1.5 Y3 S0
X1.65 Y2.85 S0
X1.8 Y2.7 S0
X1.95 Y2.55 S0
X2.1 Y2.4 S0
X2.25 Y2.25 S0
X2.4 Y2.1 S0
X2.55 Y1.95 S0
X2.7 Y1.8 S0
X2.85 Y1.65 S0
X3 Y1.5 S0
X3.15 Y1.35 S0
X3.3 Y1.2 S0
X3.45 Y1.05 S0
X3.6 Y0.9 S0
X3.75 Y0.75 S0
X3.9 Y0.6 S0
X4.05 Y0.45 S0
X4.2 Y0.3 S0
X4.35 Y0.15 S0
X4.5 Y0 S251
X4.65 Y0 S251
X4.5 Y0.15 S0
X4.35 Y0.3 S0
X4.2 Y0.45 S0
X4.05 Y0.6 S0
X3.9 Y0.75 S0
X3.75 Y0.9 S0
X3.6 Y1.05 S0
X3.45 Y1.2 S0
X3.3 Y1.35 S0
X3.15 Y1.5 S0
X3 Y1.65 S0
X2.85 Y1.8 S0
X2.7 Y1.95 S0
X2.55 Y2.1 S0
X2.4 Y2.25 S0
X2.25 Y2.4 S0
X2.1 Y2.55 S0
X1.95 Y2.7 S0
X1.8 Y2.85 S0
X1.65 Y3 S0
X1.5 Y3.15 S0
X1.35 Y3.3 S0
X1.2 Y3.45 S0
X1.05 Y3.6 S0
X0.9 Y3.75 S0
X0.75 Y3.9 S0
X0.6 Y4.05 S0
X0.45 Y4.2 S0
X0.3 Y4.35 S0
X0.15 Y4.5 S251
X0 Y4.65 S251
X0 Y4.8 S251
X0.15 Y4.65 S50
X0.3 Y4.5 S251
X0.45 Y4.35 S0
X0.6 Y4.2 S0
X0.75 Y4.05 S0
X0.9 Y3.9 S0
X1.05 Y3.75 S0
X1.2 Y3.6 S0
X1.35 Y3.45 S0
X1.5 Y3.3 S0
X1.65 Y3.15 S0
X1.8 Y3 S0
X1.95 Y2.85 S0
X2.1 Y2.7 S0
X2.25 Y2.55 S0
X2.4 Y2.4 S0
X2.55 Y2.25 S0
X2.7 Y2.1 S0
X2.85 Y1.95 S0
X3 Y1.8 S0
X3.15 Y1.65 S0
X3.3 Y1.5 S0
X3.45 Y1.35 S0
X3.6 Y1.2 S0
X3.75 Y1.05 S0
X3.9 Y0.9 S0
X4.05 Y0.75 S0
X4.2 Y0.6 S0
X4.35 Y0.45 S0
X4.5 Y0.3 S0
X4.65 Y0.15 S0
X4.8 Y0 S251
X4.95 Y0 S251
X4.8 Y0.15 S251
X4.65 Y0.3 S0
X4.5 Y0.45 S0
X4.35 Y0.6 S0
X4.2 Y0.75 S0
X4.05 Y0.9 S0
X3.9 Y1.05 S0
X3.75 Y1.2 S0
X3.6 Y1.35 S0
X3.45 Y1.5 S0
X3.3 Y1.65 S0
X3.15 Y1.8 S0
X3 Y1.95 S0
X2.85 Y2.1 S0
X2.7 Y2.25 S0
X2.55 Y2.4 S0
X2.4 Y2.55 S0
X2.25 Y2.7 S0
X2.1 Y2.85 S0
X1.95 Y3 S0
X1.8 Y3.15 S0
X1.65 Y3.3 S0
X1.5 Y3.45 S0
X1.35 Y3.6 S0
X1.2 Y3.75 S0
X1.05 Y3.9 S0
X0.9 Y4.05 S0
X0.75 Y4.2 S0
X0.6 Y4.35 S0
X0.45 Y4.5 S251
X0.3 Y4.65 S50
X0.15 Y4.8 S50
X0 Y4.95 S251
X0 Y5.1 S251
X0.15 Y4.95 S50
X0.3 Y4.8 S50
X0.45 Y4.65 S50
X0.6 Y4.5 S251
X0.75 Y4.35 S0
X0.9 Y4.2 S0
X1.05 Y4.05 S0
X1.2 Y3.9 S0
X1.35 Y3.75 S0
X1.5 Y3.6 S0
X1.65 Y3.45 S0
X1.8 Y3.3 S0
X1.95 Y3.15 S0
X2.1 Y3 S0
X2.25 Y2.85 S0
X2.4 Y2.7 S0
X2.55 Y2.55 S0
X2.7 Y2.4 S0
X2.85 Y2.25 S0
X3 Y2.1 S0
X3.15 Y1.95 S0
X3.3 Y1.8 S0
X3.45 Y1.65 S0
X3.6 Y1.5 S0
X3.75 Y1.35 S0
X3.9 Y1.2 S0
X4.05 Y1.05 S0
X4.2 Y0.9 S0
X4.35 Y0.75 S0
X4.5 Y0.6 S0
X4.65 Y0.45 S0
X4.8 Y0.3 S251
X4.95 Y0.15 S5
X5.1 Y0 S251
X5.25 Y0 S251
X5.1 Y0.15 S5
X4.95 Y0.3 S5
X4.8 Y0.45 S251
X4.65 Y0.6 S0
X4.5 Y0.75 S0
X4.35 Y0.9 S0
X4.2 Y1.05 S0
X4.05 Y1.2 S0
X3.9 Y1.35 S0
X3.75 Y1.5 S0
X3.6 Y1.65 S0
X3.45 Y1.8 S0
X3.3 Y1.95 S0
X3.15 Y2.1 S0
X3 Y2.25 S0
X2.85 Y2.4 S0
X2.7 Y2.55 S0
X2.55 Y2.7 S0
X2.4 Y2.85 S0
X2.25 Y3 S0
X2.1 Y3.15 S0
X1.95 Y3.3 S0
X1.8 Y3.45 S0
X1.65 Y3.6 S0
X1.5 Y3.75 S0
X1.35 Y3.9 S0
X1.2 Y4.05 S0
X1.05 Y4.2 S0
X0.9 Y4.35 S0
X0.75 Y4.5 S251
X0.6 Y4.65 S50
X0.45 Y4.8 S50
X0.3 Y4.95 S50
X0.15 Y5.1 S50
X0 Y5.25 S251
X0 Y5.4 S251
X0.15 Y5.25 S50
X0.3 Y5.1 S50
X0.45 Y4.95 S50
X0.6 Y4.8 S50
X0.75 Y4.65 S50
X0.9 Y4.5 S251
X1.05 Y4.35 S0
X1.2 Y4.2 S0
X1.35 Y4.05 S0
X1.5 Y3.9 S0
X1.65 Y3.75 S0
X1.8 Y3.6 S0
X1.95 Y3.45 S0
X2.1 Y3.3 S0
X2.25 Y3.15 S0
X2.4 Y3 S0
X2.55 Y2.85 S0
X2.7 Y2.7 S0
X2.85 Y2.55 S0
X3 Y2.4 S0
X3.15 Y2.25 S0
X3.3 Y2.1 S0
X3.45 Y1.95 S0
X3.6 Y1.8 S0
X3.75 Y1.65 S0
X3.9 Y1.5 S0
X4.05 Y1.35 S0
X4.2 Y1.2 S0
X4.35 Y1.05 S0
X4.5 Y0.9 S0
X4.65 Y0.75 S0
X4.8 Y0.6 S251
X4.95 Y0.45 S5
X5.1 Y0.3 S5
X5.25 Y0.15 S5
X5.4 Y0 S251
X5.55 Y0 S251
X5.4 Y0.15 S5
X5.25 Y0.3 S5
X5.1 Y0.45 S5
X4.95 Y0.6 S5
X4.8 Y0.75 S251
X4.65 Y0.9 S0
X4.5 Y1.05 S0
X4.35 Y1.2 S0
X4.2 Y1.35 S0
X4.05 Y1.5 S0
X3.9 Y1.65 S0
X3.75 Y1.8 S0
X3.6 Y1.95 S0
X3.45 Y2.1 S0
X3.3 Y2.25 S0
X3.15 Y2.4 S0
X3 Y2.55 S0
X2.85 Y2.7 S0
X2.7 Y2.85 S0
X2.55 Y3 S0
X2.4 Y3.15 S0
X2.25 Y3.3 S0
X2.1 Y3.45 S0
X1.95 Y3.6 S0
X1.8 Y3.75 S0
X1.65 Y3.9 S0
X1.5 Y4.05 S0
X1.35 Y4.2 S0
X1.2 Y4.35 S0
X1.05 Y4.5 S251
X0.9 Y4.65 S50
X0.75 Y4.8 S50
X0.6 Y4.95 S50
X0.45 Y5.1 S50
X0.3 Y5.25 S50
X0.15 Y5.4 S50
X0 Y5.55 S251
X0 Y5.7 S251
X0.15 Y5.55 S50
X0.3 Y5.4 S50
X0.45 Y5.25 S50
X0.6 Y5.1 S50
X0.75 Y4.95 S50
X0.9 Y4.8 S50
X1.05 Y4.65 S50
X1.2 Y4.5 S251
X1.35 Y4.35 S0
X1.5 Y4.2 S0
X1.65 Y4.05 S0
X1.8 Y3.9 S0
X1.95 Y3.75 S0
X2.1 Y3.6 S0
X2.25 Y3.45 S0
X2.4 Y3.3 S0
X2.55 Y3.15 S0
X2.7 Y3 S0
X2.85 Y2.85 S0
X3 Y2.7 S0
X3.15 Y2.55 S0
X3.3 Y2.4 S0
X3.45 Y2.25 S0
X3.6 Y2.1 S0
X3.75 Y1.95 S0
X3.9 Y1.8 S0
X4.05 Y1.65 S0
X4.2 Y1.5 S0
X4.35 Y1.35 S0
X4.5 Y1.2 S0
X4.65 Y1.05 S0
X4.8 Y0.9 S251
X4.95 Y0.75 S5
X5.1 Y0.6 S5
X5.25 Y0.45 S5
X5.4 Y0.3 S5
X5.55 Y0.15 S5
X5.7 Y0 S251
X5.85 Y0 S251
X5.7 Y0.15 S5
X5.55 Y0.3 S5
X5.4 Y0.45 S5
X5.25 Y0.6 S5
X5.1 Y0.75 S5
X4.95 Y0.9 S5
X4.8 Y1.05 S251
X4.65 Y1.2 S0
X4.5 Y1.35 S0
X4.35 Y1.5 S0
X4.2 Y1.65 S0
X4.05 Y1.8 S0
X3.9 Y1.95 S0
X3.75 Y2.1 S0
X3.6 Y2.25 S0
X3.45 Y2.4 S0
X3.3 Y2.55 S0
X3.15 Y2.7 S0
X3 Y2.85 S0
X2.85 Y3 S0
X2.7 Y3.15 S0
X2.55 Y3.3 S0
X2.4 Y3.45 S0
X2.25 Y3.6 S0
X2.1 Y3.75 S0
X1.95 Y3.9 S0
X1.8 Y4.05 S0
X1.65 Y4.2 S0
X1.5 Y4.35 S0
X1.35 Y4.5 S251
X1.2 Y4.65 S50
X1.05 Y4.8 S50
X0.9 Y4.95 S50
X0.75 Y5.1 S50
X0.6 Y5.25 S50
X0.45 Y5.4 S50
X0.3 Y5.55 S50
X0.15 Y5.7 S50
X0 Y5.85 S251
X0 Y6 S251
X0.15 Y5.85 S50
X0.3 Y5.7 S50
X0.45 Y5.55 S50
X0.6 Y5.4 S50
X0.75 Y5.25 S50
X0.9 Y5.1 S50
X1.05 Y4.95 S50
X1.2 Y4.8 S50
X1.35 Y4.65 S50
X1.5 Y4.5 S251
X1.65 Y4.35 S0
X1.8 Y4.2 S0
X1.95 Y4.05 S0
X2.1 Y3.9 S0
X2.25 Y3.75 S0
X2.4 Y3.6 S0
X2.55 Y3.45 S0
X2.7 Y3.3 S0
X2.85 Y3.15 S0
X3 Y3 S0
X3.15 Y2.85 S0
X3.3 Y2.7 S0
X3.45 Y2.55 S0
X3.6 Y2.4 S0
X3.75 Y2.25 S0
X3.9 Y2.1 S0
X4.05 Y1.95 S0
X4.2 Y1.8 S0
X4.35 Y1.65 S0
X4.5 Y1.5 S0
X4.65 Y1.35 S0
X4.8 Y1.2 S251
X4.95 Y1.05 S5
X5.1 Y0.9 S5
X5.25 Y0.75 S5
X5.4 Y0.6 S5
X5.55 Y0.45 S5
X5.7 Y0.3 S5
X5.85 Y0.15 S5
X6 Y0 S251
X6.15 Y0 S251
X6 Y0.15 S5
X5.85 Y0.3 S5
X5.7 Y0.45 S5
X5.55 Y0.6 S5
X5.4 Y0.75 S5
X5.25 Y0.9 S5
X5.1 Y1.05 S5
X4.95 Y1.2 S5
X4.8 Y1.35 S251
X4.65 Y1.5 S0
X4.5 Y1.65 S0
X4.35 Y1.8 S0
X4.2 Y1.95 S0
X4.05 Y2.1 S0
X3.9 Y2.25 S0
X3.75 Y2.4 S0
X3.6 Y2.55 S0
X3.45 Y2.7 S0
X3.3 Y2.85 S0
X3.15 Y3 S0
X3 Y3.15 S0
X2.85 Y3.3 S0
X2.7 Y3.45 S0
X2.55 Y3.6 S0
X2.4 Y3.75 S0
X2.25 Y3.9 S0
X2.1 Y4.05 S0
X1.95 Y4.2 S0
X1.8 Y4.35 S0
X1.65 Y4.5 S251
X1.5 Y4.65 S50
X1.35 Y4.8 S50
X1.2 Y4.95 S50
X1.05 Y5.1 S50
X0.9 Y5.25 S50
X0.75 Y5.4 S50
X0.6 Y5.55 S50
X0.45 Y5.7 S50
X0.3 Y5.85 S50
X0.15 Y6 S50
X0 Y6.15 S251
X0 Y6.3 S251
X0.15 Y6.15 S50
X0.3 Y6 S50
X0.45 Y5.85 S50
X0.6 Y5.7 S50
X0.75 Y5.55 S50
X0.9 Y5.4 S50
X1.05 Y5.25 S50
X1.2 Y5.1 S50
X1.35 Y4.95 S50
X1.5 Y4.8 S50
X1.65 Y4.65 S50
X1.8 Y4.5 S251
X1.95 Y4.35 S0
X2.1 Y4.2 S0
X2.25 Y4.05 S0
X2.4 Y3.9 S0
X2.55 Y3.75 S0
X2.7 Y3.6 S0
X2.85 Y3.45 S0
X3 Y3.3 S0
X3.15 Y3.15 S0
X3.3 Y3 S0
X3.45 Y2.85 S0
X3.6 Y2.7 S0
X3.75 Y2.55 S0
X3.9 Y2.4 S0
X4.05 Y2.25 S0
X4.2 Y2.1 S0
X4.35 Y1.95 S0
X4.5 Y1.8 S0
X4.65 Y1.65 S0
X4.8 Y1.5 S251
X4.95 Y1.35 S5
X5.1 Y1.2 S5
X5.25 Y1.05 S5
X5.4 Y0.9 S5
X5.55 Y0.75 S5
X5.7 Y0.6 S5
X5.85 Y0.45 S5
X6 Y0.3 S5
X6.15 Y0.15 S5
X6.3 Y0 S251
X6.45 Y0 S251
X6.3 Y0.15 S5
X6.15 Y0.3 S5
X6 Y0.45 S5
X5.85 Y0.6 S5
X5.7 Y0.75 S5
X5.55 Y0.9 S5
X5.4 Y1.05 S5
X5.25 Y1.2 S5
X5.1 Y1.35 S5
X4.95 Y1.5 S5
X4.8 Y1.65 S251
X4.65 Y1.8 S0
X4.5 Y1.95 S0
X4.35 Y2.1 S0
X4.2 Y2.25 S0
X4.05 Y2.4 S0
X3.9 Y2.55 S0
X3.75 Y2.7 S0
X3.6 Y2.85 S0
X3.45 Y3 S0
X3.3 Y3.15 S0
X3.15 Y3.3 S0
X3 Y3.45 S0
X2.85 Y3.6 S0
X2.7 Y3.75 S0
X2.55 Y3.9 S0
X2.4 Y4.05 S0
X2.25 Y4.2 S0
X2.1 Y4.35 S0
X1.95 Y4.5 S251
X1.8 Y4.65 S50
X1.65 Y4.8 S50
X1.5 Y4.95 S50
X1.35 Y5.1 S50
X1.2 Y5.25 S50
X1.05 Y5.4 S50
X0.9 Y5.55 S50
X0.75 Y5.7 S50
X0.6 Y5.85 S50
X0.45 Y6 S50
X0.3 Y6.15 S50
X0.15 Y6.3 S50
X0 Y6.45 S251
X0 Y6.6 S251
X0.15 Y6.45 S50
X0.3 Y6.3 S50
X0.45 Y6.15 S50
X0.6 Y6 S50
X0.75 Y5.85 S50
X0.9 Y5.7 S50
X1.05 Y5.55 S50
X1.2 Y5.4 S50
X1.35 Y5.25 S50
X1.5 Y5.1 S50
X1.65 Y4.95 S50
X1.8 Y4.8 S50
X1.95 Y4.65 S50
X2.1 Y4.5 S251
X2.25 Y4.35 S0
X2.4 Y4.2 S0
X2.55 Y4.05 S0
X2.7 Y3.9 S0
X2.85 Y3.75 S0
X3 Y3.6 S0
X3.15 Y3.45 S0
X3.3 Y3.3 S0
X3.45 Y3.15 S0
X3.6 Y3 S0
X3.75 Y2.85 S0
X3.9 Y2.7 S0
X4.05 Y2.55 S0
X4.2 Y2.4 S0
X4.35 Y2.25 S0
X4.5 Y2.1 S0
X4.65 Y1.95 S0
X4.8 Y1.8 S251
X4.95 Y1.65 S5
X5.1 Y1.5 S5
X5.25 Y1.35 S5
X5.4 Y1.2 S5
X5.55 Y1.05 S5
X5.7 Y0.9 S5
X5.85 Y0.75 S5
X6 Y0.6 S5
X6.15 Y0.45 S5
X6.3 Y0.3 S5
X6.45 Y0.15 S5
X6.6 Y0 S251
X6.75 Y0 S251
X6.6 Y0.15 S5
X6.45 Y0.3 S5
X6.3 Y0.45 S5
X6.15 Y0.6 S5
X6 Y0.75 S5
X5.85 Y0.9 S5
X5.7 Y1.05 S5
X5.55 Y1.2 S5
X5.4 Y1.35 S5
X5.25 Y1.5 S5
X5.1 Y1.65 S5
X4.95 Y1.8 S5
X4.8 Y1.95 S251
X4.65 Y2.1 S0
X4.5 Y2.25 S0
X4.35 Y2.4 S0
X4.2 Y2.55 S0
X4.05 Y2.7 S0
X3.9 Y2.85 S0
X3.75 Y3 S0
X3.6 Y3.15 S0
X3.45 Y3.3 S0
X3.3 Y3.45 S0
X3.15 Y3.6 S0
X3 Y3.75 S0
X2.85 Y3.9 S0
X2.7 Y4.05 S0
X2.55 Y4.2 S0
X2.4 Y4.35 S0
X2.25 Y4.5 S251
X2.1 Y4.65 S50
X1.95 Y4.8 S50
X1.8 Y4.95 S50
X1.65 Y5.1 S50
X1.5 Y5.25 S50
X1.35 Y5.4 S50
X1.2 Y5.55 S50
X1.05 Y5.7 S50
X0.9 Y5.85 S50
X0.75 Y6 S50
X0.6 Y6.15 S50
X0.45 Y6.3 S50
X0.3 Y6.45 S50
X0.15 Y6.6 S50
X0 Y6.75 S251
X0 Y6.9 S251
X0.15 Y6.75 S50
X0.3 Y6.6 S50
X0.45 Y6.45 S50
X0.6 Y6.3 S50
X0.75 Y6.15 S50
X0.9 Y6 S50
X1.05 Y5.85 S50
X1.2 Y5.7 S50
X1.35 Y5.55 S50
X1.5 Y5.4 S50
X1.65 Y5.25 S50
X1.8 Y5.1 S50
X1.95 Y4.95 S50
X2.1 Y4.8 S50
X2.25 Y4.65 S50
X2.4 Y4.5 S251
X2.55 Y4.35 S0
X2.7 Y4.2 S0
X2.85 Y4.05 S0
X3 Y3.9 S0
X3.15 Y3.75 S0
X3.3 Y3.6 S0
X3.45 Y3.45 S0
X3.6 Y3.3 S0
X3.75 Y3.15 S0
X3.9 Y3 S0
X4.05 Y2.85 S0
X4.2 Y2.7 S0
X4.35 Y2.55 S0
X4.5 Y2.4 S0
X4.65 Y2.25 S0
X4.8 Y2.1 S251
X4.95 Y1.95 S5
X5.1 Y1.8 S5
X5.25 Y1.65 S5
X5.4 Y1.5 S5
X5.55 Y1.35 S5
X5.7 Y1.2 S5
X5.85 Y1.05 S5
X6 Y0.9 S5
X6.15 Y0.75 S5
X6.3 Y0.6 S5
X6.45 Y0.45 S5
X6.6 Y0.3 S5
X6.75 Y0.15 S5
X6.9 Y0 S251
X7.05 Y0 S251
X6.9 Y0.15 S5
X6.75 Y0.3 S5
X6.6 Y0.45 S5
X6.45 Y0.6 S5
X6.3 Y0.75 S5
X6.15 Y0.9 S5
X6 Y1.05 S5
X5.85 Y1.2 S5
X5.7 Y1.35 S5
X5.55 Y1.5 S5
X5.4 Y1.65 S5
X5.25 Y1.8 S5
X5.1 Y1.95 S5
X4.95 Y2.1 S5
X4.8 Y2.25 S251
X4.65 Y2.4 S0
X4.5 Y2.55 S0
X4.35 Y2.7 S0
X4.2 Y2.85 S0
X4.05 Y3 S0
X3.9 Y3.15 S0
X3.75 Y3.3 S0
X3.6 Y3.45 S0
X3.45 Y3.6 S0
X3.3 Y3.75 S0
X3.15 Y3.9 S0
X3 Y4.05 S0
X2.85 Y4.2 S0
X2.7 Y4.35 S0
X2.55 Y4.5 S251
X2.4 Y4.65 S50
X2.25 Y4.8 S50
X2.1 Y4.95 S50
X1.95 Y5.1 S50
X1.8 Y5.25 S50
X1.65 Y5.4 S50
X1.5 Y5.55 S50
X1.35 Y5.7 S50
X1.2 Y5.85 S50
X1.05 Y6 S50
X0.9 Y6.15 S50
X0.75 Y6.3 S50
X0.6 Y6.45 S50
X0.45 Y6.6 S50
X0.3 Y6.75 S50
X0.15 Y6.9 S50
X0 Y7.05 S251
X0 Y7.2 S251
X0.15 Y7.05 S50
X0.3 Y6.9 S50
X0.45 Y6.75 S50
X0.6 Y6.6 S50
X0.75 Y6.45 S50
X0.9 Y6.3 S50
X1.05 Y6.15 S50
X1.2 Y6 S50
X1.35 Y5.85 S50
X1.5 Y5.7 S50
X1.65 Y5.55 S50
X1.8 Y5.4 S50
X1.95 Y5.25 S50
X2.1 Y5.1 S50
X2.25 Y4.95 S50
X2.4 Y4.8 S50
X2.55 Y4.65 S50
X2.7 Y4.5 S251
X2.85 Y4.35 S0
X3 Y4.2 S0
X3.15 Y4.05 S0
X3.3 Y3.9 S0
X3.45 Y3.75 S0
X3.6 Y3.6 S0
X3.75 Y3.45 S0
X3.9 Y3.3 S0
X4.05 Y3.15 S0
X4.2 Y3 S0
X4.35 Y2.85 S0
X4.5 Y2.7 S0
X4.65 Y2.55 S0
X4.8 Y2.4 S251
X4.95 Y2.25 S5
X5.1 Y2.1 S5
X5.25 Y1.95 S5
X5.4 Y1.8 S5
X5.55 Y1.65 S5
X5.7 Y1.5 S5
X5.85 Y1.35 S5
X6 Y1.2 S5
X6.15 Y1.05 S5
X6.3 Y0.9 S5
X6.45 Y0.75 S5
X6.6 Y0.6 S5
X6.75 Y0.45 S5
X6.9 Y0.3 S5
X7.05 Y0.15 S5
X7.2 Y0 S251
X7.35 Y0 S251
X7.2 Y0.15 S5
X7.05 Y0.3 S5
X6.9 Y0.45 S5
X6.75 Y0.6 S5
X6.6 Y0.75 S5
X6.45 Y0.9 S5
X6.3 Y1.05 S5
X6.15 Y1.2 S5
X6 Y1.35 S5
X5.85 Y1.5 S5
X5.7 Y1.65 S5
X5.55 Y1.8 S5
X5.4 Y1.95 S5
X5.25 Y2.1 S5
X5.1 Y2.25 S5
X4.95 Y2.4 S5
X4.8 Y2.55 S251
X4.65 Y2.7 S0
X4.5 Y2.85 S0
X4.35 Y3 S0
X4.2 Y3.15 S0
X4.05 Y3.3 S0
X3.9 Y3.45 S0
X3.75 Y3.6 S0
X3.6 Y3.75 S0
X3.45 Y3.9 S0
X3.3 Y4.05 S0
X3.15 Y4.2 S0
X3 Y4.35 S0
X2.85 Y4.5 S251
X2.7 Y4.65 S50
X2.55 Y4.8 S50
X2.4 Y4.95 S50
X2.25 Y5.1 S50
X2.1 Y5.25 S50
X1.95 Y5.4 S50
X1.8 Y5.55 S50
X1.65 Y5.7 S50
X1.5 Y5.85 S50
X1.35 Y6 S50
X1.2 Y6.15 S50
X1.05 Y6.3 S50
X0.9 Y6.45 S50
X0.75 Y6.6 S50
X0.6 Y6.75 S50
X0.45 Y6.9 S50
X0.3 Y7.05 S50
X0.15 Y7.2 S50
X0 Y7.35 S251
X0 Y7.5 S251
X0.15 Y7.35 S50
X0.3 Y7.2 S50
X0.45 Y7.05 S50
X0.6 Y6.9 S50
X0.75 Y6.75 S50
X0.9 Y6.6 S50
X1.05 Y6.45 S50
X1.2 Y6.3 S50
X1.35 Y6.15 S50
X1.5 Y6 S50
X1.65 Y5.85 S50
X1.8 Y5.7 S50
X1.95 Y5.55 S50
X2.1 Y5.4 S50
X2.25 Y5.25 S50
X2.4 Y5.1 S50
X2.55 Y4.95 S50
X2.7 Y4.8 S50
X2.85 Y4.65 S50
X3 Y4.5 S251
X3.15 Y4.35 S0
X3.3 Y4.2 S0
X3.45 Y4.05 S0
X3.6 Y3.9 S0
X3.75 Y3.75 S0
X3.9 Y3.6 S0
X4.05 Y3.45 S0
X4.2 Y3.3 S0
X4.35 Y3.15 S0
X4.5 Y3 S0
X4.65 Y2.85 S0
X4.8 Y2.7 S251
X4.95 Y2.55 S5
X5.1 Y2.4 S5
X5.25 Y2.25 S5
X5.4 Y2.1 S5
X5.55 Y1.95 S5
X5.7 Y1.8 S5
X5.85 Y1.65 S5
X6 Y1.5 S5
X6.15 Y1.35 S5
X6.3 Y1.2 S5
X6.45 Y1.05 S5
X6.6 Y0.9 S5
X6.75 Y0.75 S5
X6.9 Y0.6 S5
X7.05 Y0.45 S5
X7.2 Y0.3 S5
X7.35 Y0.15 S5
X7.5 Y0 S251
X7.65 Y0 S251
X7.5 Y0.15 S5
X7.35 Y0.3 S5
X7.2 Y0.45 S5
X7.05 Y0.6 S5
X6.9 Y0.75 S5
X6.75 Y0.9 S5
X6.6 Y1.05 S5
X6.45 Y1.2 S5
X6.3 Y1.35 S5
X6.15 Y1.5 S5
X6 Y1.65 S5
X5.85 Y1.8 S5
X5.7 Y1.95 S5
X5.55 Y2.1 S5
X5.4 Y2.25 S5
X5.25 Y2.4 S5
X5.1 Y2.55 S5
X4.95 Y2.7 S5
X4.8 Y2.85 S251
X4.65 Y3 S0
X4.5 Y3.15 S0
X4.35 Y3.3 S0
X4.2 Y3.45 S0
X4.05 Y3.6 S0
X3.9 Y3.75 S0
X3.75 Y3.9 S0
X3.6 Y4.05 S0
X3.45 Y4.2 S0
X3.3 Y4.35 S0
X3.15 Y4.5 S251
X3 Y4.65 S50
X2.85 Y4.8 S50
X2.7 Y4.95 S50
X2.55 Y5.1 S50
X2.4 Y5.25 S50
X2.25 Y5.4 S50
X2.1 Y5.55 S50
X1.95 Y5.7 S50
X1.8 Y5.85 S50
X1.65 Y6 S50
X1.5 Y6.15 S50
X1.35 Y6.3 S50
X1.2 Y6.45 S50
X1.05 Y6.6 S50
X0.9 Y6.75 S50
X0.75 Y6.9 S50
X0.6 Y7.05 S50
X0.45 Y7.2 S50
X0.3 Y7.35 S50
X0.15 Y7.5 S50
X0 Y7.65 S251
X0 Y7.8 S251
X0.15 Y7.65 S50
X0.3 Y7.5 S50
X0.45 Y7.35 S50
X0.6 Y7.2 S50
X0.75 Y7.05 S50
X0.9 Y6.9 S50
X1.05 Y6.75 S50
X1.2 Y6.6 S50
X1.35 Y6.45 S50
X1.5 Y6.3 S50
X1.65 Y6.15 S50
X1.8 Y6 S50
X1.95 Y5.85 S50
X2.1 Y5.7 S50
X2.25 Y5.55 S50
X2.4 Y5.4 S50
X2.55 Y5.25 S50
X2.7 Y5.1 S50
X2.85 Y4.95 S50
X3 Y4.8 S50
X3.15 Y4.65 S50
X3.3 Y4.5 S251
X3.45 Y4.35 S0
X3.6 Y4.2 S0
X3.75 Y4.05 S0
X3.9 Y3.9 S0
X4.05 Y3.75 S0
X4.2 Y3.6 S0
X4.35 Y3.45 S0
X4.5 Y3.3 S0
X4.65 Y3.15 S0
X4.8 Y3 S251
X4.95 Y2.85 S5
X5.1 Y2.7 S5
X5.25 Y2.55 S5
X5.4 Y2.4 S5
X5.55 Y2.25 S5
X5.7 Y2.1 S5
X5.85 Y1.95 S5
X6 Y1.8 S5
X6.15 Y1.65 S5
X6.3 Y1.5 S5
X6.45 Y1.35 S5
X6.6 Y1.2 S5
X6.75 Y1.05 S5
X6.9 Y0.9 S5
X7.05 Y0.75 S5
X7.2 Y0.6 S5
X7.35 Y0.45 S5
X7.5 Y0.3 S5
X7.65 Y0.15 S5
X7.8 Y0 S251
X7.95 Y0 S251
X7.8 Y0.15 S5
X7.65 Y0.3 S5
X7.5 Y0.45 S5
X7.35 Y0.6 S5
X7.2 Y0.75 S5
X7.05 Y0.9 S5
X6.9 Y1.05 S5
X6.75 Y1.2 S5
X6.6 Y1.35 S5
X6.45 Y1.5 S5
X6.3 Y1.65 S5
X6.15 Y1.8 S5
X6 Y1.95 S5
X5.85 Y2.1 S5
X5.7 Y2.25 S5
X5.55 Y2.4 S5
X5.4 Y2.55 S5
X5.25 Y2.7 S5
X5.1 Y2.85 S5
X4.95 Y3 S5
X4.8 Y3.15 S251
X4.65 Y3.3 S0
X4.5 Y3.45 S0
X4.35 Y3.6 S0
X4.2 Y3.75 S0
X4.05 Y3.9 S0
X3.9 Y4.05 S0
X3.75 Y4.2 S0
X3.6 Y4.35 S0
X3.45 Y4.5 S251
X3.3 Y4.65 S50
X3.15 Y4.8 S50
X3 Y4.95 S50
X2.85 Y5.1 S50
X2.7 Y5.25 S50
X2.55 Y5.4 S50
X2.4 Y5.55 S50
X2.25 Y5.7 S50
X2.1 Y5.85 S50
X1.95 Y6 S50
X1.8 Y6.15 S50
X1.65 Y6.3 S50
X1.5 Y6.45 S50
X1.35 Y6.6 S50
X1.2 Y6.75 S50
X1.05 Y6.9 S50
X0.9 Y7.05 S50
X0.75 Y7.2 S50
X0.6 Y7.35 S50
X0.45 Y7.5 S50
X0.3 Y7.65 S50
X0.15 Y7.8 S50
X0 Y7.95 S251
X0 Y8.1 S251
X0.15 Y7.95 S50
X0.3 Y7.8 S50
X0.45 Y7.65 S50
X0.6 Y7.5 S50
X0.75 Y7.35 S50
X0.9 Y7.2 S50
X1.05 Y7.05 S50
X1.2 Y6.9 S50
X1.35 Y6.75 S50
X1.5 Y6.6 S50
X1.65 Y6.45 S50
X1.8 Y6.3 S50
X1.95 Y6.15 S50
X2.1 Y6 S50
X2.25 Y5.85 S50
X2.4 Y5.7 S50
X2.55 Y5.55 S50
X2.7 Y5.4 S50
X2.85 Y5.25 S50
X3 Y5.1 S50
X3.15 Y4.95 S50
X3.3 Y4.8 S50
X3.45 Y4.65 S50
X3.6 Y4.5 S251
X3.75 Y4.35 S0
X3.9 Y4.2 S0
X4.05 Y4.05 S0
X4.2 Y3.9 S0
X4.35 Y3.75 S0
X4.5 Y3.6 S0
X4.65 Y3.45 S0
X4.8 Y3.3 S251
X4.95 Y3.15 S5
X5.1 Y3 S5
X5.25 Y2.85 S5
X5.4 Y2.7 S5
X5.55 Y2.55 S5
X5.7 Y2.4 S5
X5.85 Y2.25 S5
X6 Y2.1 S5
X6.15 Y1.95 S5
X6.3 Y1.8 S5
X6.45 Y1.65 S5
X6.6 Y1.5 S5
X6.75 Y1.35 S5
X6.9 Y1.2 S5
X7.05 Y1.05 S5
X7.2 Y0.9 S5
X7.35 Y0.75 S5
X7.5 Y0.6 S5
X7.65 Y0.45 S5
X7.8 Y0.3 S5
X7.95 Y0.15 S5
X8.1 Y0 S251
X8.25 Y0 S251
X8.1 Y0.15 S5
X7.95 Y0.3 S5
X7.8 Y0.45 S5
X7.65 Y0.6 S5
X7.5 Y0.75 S5
X7.35 Y0.9 S5
X7.2 Y1.05 S5
X7.05 Y1.2 S5
X6.9 Y1.35 S5
X6.75 Y1.5 S5
X6.6 Y1.65 S5
X6.45 Y1.8 S5
X6.3 Y1.95 S5
X6.15 Y2.1 S5
X6 Y2.25 S5
X5.85 Y2.4 S5
X5.7 Y2.55 S5
X5.55 Y2.7 S5
X5.4 Y2.85 S5
X5.25 Y3 S5
X5.1 Y3.15 S5
X4.95 Y3.3 S5
X4.8 Y3.45 S251
X4.65 Y3.6 S0
X4.5 Y3.75 S0
X4.35 Y3.9 S0
X4.2 Y4.05 S0
X4.05 Y4.2 S0
X3.9 Y4.35 S0
X3.75 Y4.5 S251
X3.6 Y4.65 S50
X3.45 Y4.8 S50
X3.3 Y4.95 S50
X3.15 Y5.1 S50
X3 Y5.25 S50
X2.85 Y5.4 S50
X2.7 Y5.55 S50
X2.55 Y5.7 S50
X2.4 Y5.85 S50
X2.25 Y6 S50
X2.1 Y6.15 S50
X1.95 Y6.3 S50
X1.8 Y6.45 S50
X1.65 Y6.6 S50
X1.5 Y6.75 S50
X1.35 Y6.9 S50
X1.2 Y7.05 S50
X1.05 Y7.2 S50
X0.9 Y7.35 S50
X0.75 Y7.5 S50
X0.6 Y7.65 S50
X0.45 Y7.8 S50
X0.3 Y7.95 S50
X0.15 Y8.1 S50
X0 Y8.25 S251
X0 Y8.4 S251
X0.15 Y8.25 S50
X0.3 Y8.1 S50
X0.45 Y7.95 S50
X0.6 Y7.8 S50
X0.75 Y7.65 S50
X0.9 Y7.5 S50
X1.05 Y7.35 S50
X1.2 Y7.2 S50
X1.35 Y7.05 S50
X1.5 Y6.9 S50
X1.65 Y6.75 S50
X1.8 Y6.6 S50
X1.95 Y6.45 S50
X2.1 Y6.3 S50
X2.25 Y6.15 S50
X2.4 Y6 S50
X2.55 Y5.85 S50
X2.7 Y5.7 S50
X2.85 Y5.55 S50
X3 Y5.4 S50
X3.15 Y5.25 S50
X3.3 Y5.1 S50
X3.45 Y4.95 S50
X3.6 Y4.8 S50
X3.75 Y4.65 S50
X3.9 Y4.5 S251
X4.05 Y4.35 S0
X4.2 Y4.2 S0
X4.35 Y4.05 S0
X4.5 Y3.9 S0
X4.65 Y3.75 S0
X4.8 Y3.6 S251
X4.95 Y3.45 S5
X5.1 Y3.3 S5
X5.25 Y3.15 S5
X5.4 Y3 S5
X5.55 Y2.85 S5
X5.7 Y2.7 S5
X5.85 Y2.55 S5
X6 Y2.4 S5
X6.15 Y2.25 S5
X6.3 Y2.1 S5
X6.45 Y1.95 S5
X6.6 Y1.8 S5
X6.75 Y1.65 S5
X6.9 Y1.5 S5
X7.05 Y1.35 S5
X7.2 Y1.2 S5
X7.35 Y1.05 S5
X7.5 Y0.9 S5
X7.65 Y0.75 S5
X7.8 Y0.6 S5
X7.95 Y0.45 S5
X8.1 Y0.3 S5
X8.25 Y0.15 S5
X8.4 Y0 S251
X8.55 Y0 S251
X8.4 Y0.15 S5
X8.25 Y0.3 S5
X8.1 Y0.45 S5
X7.95 Y0.6 S5
X7.8 Y0.75 S5
X7.65 Y0.9 S5
X7.5 Y1.05 S5
X7.35 Y1.2 S5
X7.2 Y1.35 S5
X7.05 Y1.5 S5
X6.9 Y1.65 S5
X6.75 Y1.8 S5
X6.6 Y1.95 S5
X6.45 Y2.1 S5
X6.3 Y2.25 S5
X6.15 Y2.4 S5
X6 Y2.55 S5
X5.85 Y2.7 S5
X5.7 Y2.85 S5
X5.55 Y3 S5
X5.4 Y3.15 S5
X5.25 Y3.3 S5
X5.1 Y3.45 S5
X4.95 Y3.6 S5
X4.8 Y3.75 S251
X4.65 Y3.9 S0
X4.5 Y4.05 S0
X4.35 Y4.2 S0
X4.2 Y4.35 S0
X4.05 Y4.5 S251
X3.9 Y4.65 S50
X3.75 Y4.8 S50
X3.6 Y4.95 S50
X3.45 Y5.1 S50
X3.3 Y5.25 S50
X3.15 Y5.4 S50
X3 Y5.55 S50
X2.85 Y5.7 S50
X2.7 Y5.85 S50
X2.55 Y6 S50
X2.4 Y6.15 S50
X2.25 Y6.3 S50
X2.1 Y6.45 S50
X1.95 Y6.6 S50
X1.8 Y6.75 S50
X1.65 Y6.9 S50
X1.5 Y7.05 S50
X1.35 Y7.2 S50
X1.2 Y7.35 S50
X1.05 Y7.5 S50
X0.9 Y7.65 S50
X0.75 Y7.8 S50
X0.6 Y7.95 S50
X0.45 Y8.1 S50
X0.3 Y8.25 S50
X0.15 Y8.4 S50
X0 Y8.55 S251
X0 Y8.7 S251
X0.15 Y8.55 S50
X0.3 Y8.4 S50
X0.45 Y8.25 S50
X0.6 Y8.1 S50
X0.75 Y7.95 S50
X0.9 Y7.8 S50
X1.05 Y7.65 S50
X1.2 Y7.5 S50
X1.35 Y7.35 S50
X1.5 Y7.2 S50
X1.65 Y7.05 S50
X1.8 Y6.9 S50
X1.95 Y6.75 S50
X2.1 Y6.6 S50
X2.25 Y6.45 S50
X2.4 Y6.3 S50
X2.55 Y6.15 S50
X2.7 Y6 S50
X2.85 Y5.85 S50
X3 Y5.7 S50
X3.15 Y5.55 S50
X3.3 Y5.4 S50
X3.45 Y5.25 S50
X3.6 Y5.1 S50
X3.75 Y4.95 S50
X3.9 Y4.8 S50
X4.05 Y4.65 S50
X4.2 Y4.5 S251
X4.35 Y4.35 S0
X4.5 Y4.2 S0
X4.65 Y4.05 S0
X4.8 Y3.9 S251
X4.95 Y3.75 S5
X5.1 Y3.6 S5
X5.25 Y3.45 S5
X5.4 Y3.3 S5
X5.55 Y3.15 S5
X5.7 Y3 S5
X5.85 Y2.85 S5
X6 Y2.7 S5
X6.15 Y2.55 S5
X6.3 Y2.4 S5
X6.45 Y2.25 S5
X6.6 Y2.1 S5
X6.75 Y1.95 S5
X6.9 Y1.8 S5
X7.05 Y1.65 S5
X7.2 Y1.5 S5
X7.35 Y1.35 S5
X7.5 Y1.2 S5
X7.65 Y1.05 S5
X7.8 Y0.9 S5
X7.95 Y0.75 S5
X8.1 Y0.6 S5
X8.25 Y0.45 S5
X8.4 Y0.3 S5
X8.55 Y0.15 S5
X8.7 Y0 S251
X8.85 Y0 S251
X8.7 Y0.15 S5
X8.55 Y0.3 S5
X8.4 Y0.45 S5
X8.25 Y0.6 S5
X8.1 Y0.75 S5
X7.95 Y0.9 S5
X7.8 Y1.05 S5
X7.65 Y1.2 S5
X7.5 Y1.35 S5
X7.35 Y1.5 S5
X7.2 Y1.65 S5
X7.05 Y1.8 S5
X6.9 Y1.95 S5
X6.75 Y2.1 S5
X6.6 Y2.25 S5
X6.45 Y2.4 S5
X6.3 Y2.55 S5
X6.15 Y2.7 S5
X6 Y2.85 S5
X5.85 Y3 S5
X5.7 Y3.15 S5
X5.55 Y3.3 S5
X5.4 Y3.45 S5
X5.25 Y3.6 S5
X5.1 Y3.75 S5
X4.95 Y3.9 S5
X4.8 Y4.05 S251
X4.65 Y4.2 S0
X4.5 Y4.35 S0
X4.35 Y4.5 S251
X4.2 Y4.65 S50
X4.05 Y4.8 S50
X3.9 Y4.95 S50
X3.75 Y5.1 S50
X3.6 Y5.25 S50
X3.45 Y5.4 S50
X3.3 Y5.55 S50
X3.15 Y5.7 S50
X3 Y5.85 S50
X2.85 Y6 S50
X2.7 Y6.15 S50
X2.55 Y6.3 S50
X2.4 Y6.45 S50
X2.25 Y6.6 S50
X2.1 Y6.75 S50
X1.95 Y6.9 S50
X1.8 Y7.05 S50
X1.65 Y7.2 S50
X1.5 Y7.35 S50
X1.35 Y7.5 S50
X1.2 Y7.65 S50
X1.05 Y7.8 S50
X0.9 Y7.95 S50
X0.75 Y8.1 S50
X0.6 Y8.25 S50
X0.45 Y8.4 S50
X0.3 Y8.55 S50
X0.15 Y8.7 S50
X0 Y8.85 S251
X0 Y9 S251
X0.15 Y8.85 S50
X0.3 Y8.7 S50
X0.45 Y8.55 S50
X0.6 Y8.4 S50
X0.75 Y8.25 S50
X0.9 Y8.1 S50
X1.05 Y7.95 S50
X1.2 Y7.8 S50
X1.35 Y7.65 S50
X1.5 Y7.5 S50
X1.65 Y7.35 S50
X1.8 Y7.2 S50
X1.95 Y7.05 S50
X2.1 Y6.9 S50
X2.25 Y6.75 S50
X2.4 Y6.6 S50
X2.55 Y6.45 S50
X2.7 Y6.3 S50
X2.85 Y6.15 S50
X3 Y6 S50
X3.15 Y5.85 S50
X3.3 Y5.7 S50
X3.45 Y5.55 S50
X3.6 Y5.4 S50
X3.75 Y5.25 S50
X3.9 Y5.1 S50
X4.05 Y4.95 S50
X4.2 Y4.8 S50
X4.35 Y4.65 S50
X4.5 Y4.5 S251
X4.65 Y4.35 S0
X4.8 Y4.2 S251
X4.95 Y4.05 S5
X5.1 Y3.9 S5
X5.25 Y3.75 S5
X5.4 Y3.6 S5
X5.55 Y3.45 S5
X5.7 Y3.3 S5
X5.85 Y3.15 S5
X6 Y3 S5
X6.15 Y2.85 S5
X6.3 Y2.7 S5
X6.45 Y2.55 S5
X6.6 Y2.4 S5
X6.75 Y2.25 S5
X6.9 Y2.1 S5
X7.05 Y1.95 S5
X7.2 Y1.8 S5
X7.35 Y1.65 S5
X7.5 Y1.5 S5
X7.65 Y1.35 S5
X7.8 Y1.2 S5
X7.95 Y1.05 S5
X8.1 Y0.9 S5
X8.25 Y0.75 S5
X8.4 Y0.6 S5
X8.55 Y0.45 S5
X8.7 Y0.3 S5
X8.85 Y0.15 S5
X9 Y0 S251
X9.15 Y0 S251
X9 Y0.15 S5
X8.85 Y0.3 S5
X8.7 Y0.45 S5
X8.55 Y0.6 S5
X8.4 Y0.75 S5
X8.25 Y0.9 S5
X8.1 Y1.05 S5
X7.95 Y1.2 S5
X7.8 Y1.35 S5
X7.65 Y1.5 S5
X7.5 Y1.65 S5
X7.35 Y1.8 S5
X7.2 Y1.95 S5
X7.05 Y2.1 S5
X6.9 Y2.25 S5
X6.75 Y2.4 S5
X6.6 Y2.55 S5
X6.45 Y2.7 S5
X6.3 Y2.85 S5
X6.15 Y3 S5
X6 Y3.15 S5
X5.85 Y3.3 S5
X5.7 Y3.45 S5
X5.55 Y3.6 S5
X5.4 Y3.75 S5
X5.25 Y3.9 S5
X5.1 Y4.05 S5
X4.95 Y4.2 S5
X4.8 Y4.35 S251
X4.65 Y4.5 S251
X4.5 Y4.65 S50
X4.35 Y4.8 S50
X4.2 Y4.95 S50
X4.05 Y5.1 S50
X3.9 Y5.25 S50
X3.75 Y5.4 S50
X3.6 Y5.55 S50
X3.45 Y5.7 S50
X3.3 Y5.85 S50
X3.15 Y6 S50
X3 Y6.15 S50
X2.85 Y6.3 S50
X2.7 Y6.45 S50
X2.55 Y6.6 S50
X2.4 Y6.75 S50
X2.25 Y6.9 S50
X2.1 Y7.05 S50
X1.95 Y7.2 S50
X1.8 Y7.35 S50
X1.65 Y7.5 S50
X1.5 Y7.65 S50
X1.35 Y7.8 S50
X1.2 Y7.95 S50
X1.05 Y8.1 S50
X0.9 Y8.25 S50
X0.75 Y8.4 S50
X0.6 Y8.55 S50
X0.45 Y8.7 S50
X0.3 Y8.85 S50
X0.15 Y9 S251
X0 Y9.15 S251
X0 Y9.3 S251
X0.15 Y9.15 S100
X0.3 Y9 S251
X0.45 Y8.85 S50
X0.6 Y8.7 S50
X0.75 Y8.55 S50
X0.9 Y8.4 S50
X1.05 Y8.25 S50
X1.2 Y8.1 S50
X1.35 Y7.95 S50
X1.5 Y7.8 S50
X1.65 Y7.65 S50
X1.8 Y7.5 S50
X1.95 Y7.35 S50
X2.1 Y7.2 S50
X2.25 Y7.05 S50
X2.4 Y6.9 S50
X2.55 Y6.75 S50
X2.7 Y6.6 S50
X2.85 Y6.45 S50
X3 Y6.3 S50
X3.15 Y6.15 S50
X3.3 Y6 S50
X3.45 Y5.85 S50
X3.6 Y5.7 S50
X3.75 Y5.55 S50
X3.9 Y5.4 S50
X4.05 Y5.25 S50
X4.2 Y5.1 S50
X4.35 Y4.95 S50
X4.5 Y4.8 S50
X4.65 Y4.65 S50
X4.8 Y4.5 S251
X4.95 Y4.35 S5
X5.1 Y4.2 S5
X5.25 Y4.05 S5
X5.4 Y3.9 S5
X5.55 Y3.75 S5
X5.7 Y3.6 S5
X5.85 Y3.45 S5
X6 Y3.3 S5
X6.15 Y3.15 S5
X6.3 Y3 S5
X6.45 Y2.85 S5
X6.6 Y2.7 S5
X6.75 Y2.55 S5
X6.9 Y2.4 S5
X7.05 Y2.25 S5
X7.2 Y2.1 S5
X7.35 Y1.95 S5
X7.5 Y1.8 S5
X7.65 Y1.65 S5
X7.8 Y1.5 S5
X7.95 Y1.35 S5
X8.1 Y1.2 S5
X8.25 Y1.05 S5
X8.4 Y0.9 S5
X8.55 Y0.75 S5
X8.7 Y0.6 S5
X8.85 Y0.45 S5
X9 Y0.3 S5
X9.15 Y0.15 S5
X9.3 Y0 S251
X9.45 Y0 S251
X9.3 Y0.15 S251
X9.15 Y0.3 S5
X9 Y0.45 S5
X8.85 Y0.6 S5
X8.7 Y0.75 S5
X8.55 Y0.9 S5
X8.4 Y1.05 S5
X8.25 Y1.2 S5
X8.1 Y1.35 S5
X7.95 Y1.5 S5
X7.8 Y1.65 S5
X7.65 Y1.8 S5
X7.5 Y1.95 S5
X7.35 Y2.1 S5
X7.2 Y2.25 S5
X7.05 Y2.4 S5
X6.9 Y2.55 S5
X6.75 Y2.7 S5
X6.6 Y2.85 S5
X6.45 Y3 S5
X6.3 Y3.15 S5
X6.15 Y3.3 S5
X6 Y3.45 S5
X5.85 Y3.6 S5
X5.7 Y3.75 S5
X5.55 Y3.9 S5
X5.4 Y4.05 S5
X5.25 Y4.2 S5
X5.1 Y4.35 S5
X4.95 Y4.5 S251
X4.8 Y4.65 S251
X4.65 Y4.8 S50
X4.5 Y4.95 S50
X4.35 Y5.1 S50
X4.2 Y5.25 S50
X4.05 Y5.4 S50
X3.9 Y5.55 S50
X3.75 Y5.7 S50
X3.6 Y5.85 S50
X3.45 Y6 S50
X3.3 Y6.15 S50
X3.15 Y6.3 S50
X3 Y6.45 S50
X2.85 Y6.6 S50
X2.7 Y6.75 S50
X2.55 Y6.9 S50
X2.4 Y7.05 S50
X2.25 Y7.2 S50
X2.1 Y7.35 S50
X1.95 Y7.5 S50
X1.8 Y7.65 S50
X1.65 Y7.8 S50
X1.5 Y7.95 S50
X1.35 Y8.1 S50
X1.2 Y8.25 S50
X1.05 Y8.4 S50
X0.9 Y8.55 S50
X0.75 Y8.7 S50
X0.6 Y8.85 S50
X0.45 Y9 S251
X0.3 Y9.15 S100
X0.15 Y9.3 S100
X0 Y9.45 S251
X0 Y9.6 S251
X0.15 Y9.45 S100
X0.3 Y9.3 S100
X0.45 Y9.15 S100
X0.6 Y9 S251
X0.75 Y8.85 S50
X0.9 Y8.7 S50
X1.05 Y8.55 S50
X1.2 Y8.4 S50
X1.35 Y8.25 S50
X1.5 Y8.1 S50
X1.65 Y7.95 S50
X1.8 Y7.8 S50
X1.95 Y7.65 S50
X2.1 Y7.5 S50
X2.25 Y7.35 S50
X2.4 Y7.2 S50
X2.55 Y7.05 S50
X2.7 Y6.9 S50
X2.85 Y6.75 S50
X3 Y6.6 S50
X3.15 Y6.45 S50
X3.3 Y6.3 S50
X3.45 Y6.15 S50
X3.6 Y6 S50
X3.75 Y5.85 S50
X3.9 Y5.7 S50
X4.05 Y5.55 S50
X4.2 Y5.4 S50
X4.35 Y5.25 S50
X4.5 Y5.1 S50
X4.65 Y4.95 S50
X4.8 Y4.8 S251
X4.95 Y4.65 S55
X5.1 Y4.5 S251
X5.25 Y4.35 S5
X5.4 Y4.2 S5
X5.55 Y4.05 S5
X5.7 Y3.9 S5
X5.85 Y3.75 S5
X6 Y3.6 S5
X6.15 Y3.45 S5
X6.3 Y3.3 S5
X6.45 Y3.15 S5
X6.6 Y3 S5
X6.75 Y2.85 S5
X6.9 Y2.7 S5
X7.05 Y2.55 S5
X7.2 Y2.4 S5
X7.35 Y2.25 S5
X7.5 Y2.1 S5
X7.65 Y1.95 S5
X7.8 Y1.8 S5
X7.95 Y1.65 S5
X8.1 Y1.5 S5
X8.25 Y1.35 S5
X8.4 Y1.2 S5
X8.55 Y1.05 S5
X8.7 Y0.9 S5
X8.85 Y0.75 S5
X9 Y0.6 S5
X9.15 Y0.45 S5
X9.3 Y0.3 S251
X9.45 Y0.15 S11
X9.6 Y0 S251
X9.75 Y0 S251
X9.6 Y0.15 S11
X9.45 Y0.3 S11
X9.3 Y0.45 S251
X9.15 Y0.6 S5
X9 Y0.75 S5
X8.85 Y0.9 S5
X8.7 Y1.05 S5
X8.55 Y1.2 S5
X8.4 Y1.35 S5
X8.25 Y1.5 S5
X8.1 Y1.65 S5
X7.95 Y1.8 S5
X7.8 Y1.95 S5
X7.65 Y2.1 S5
X7.5 Y2.25 S5
X7.35 Y2.4 S5
X7.2 Y2.55 S5
X7.05 Y2.7 S5
X6.9 Y2.85 S5
X6.75 Y3 S5
X6.6 Y3.15 S5
X6.45 Y3.3 S5
X6.3 Y3.45 S5
X6.15 Y3.6 S5
X6 Y3.75 S5
X5.85 Y3.9 S5
X5.7 Y4.05 S5
X5.55 Y4.2 S5
X5.4 Y4.35 S5
X5.25 Y4.5 S251
X5.1 Y4.65 S55
X4.95 Y4.8 S55
X4.8 Y4.95 S251
X4.65 Y5.1 S50
X4.5 Y5.25 S50
X4.35 Y5.4 S50
X4.2 Y5.55 S50
X4.05 Y5.7 S50
X3.9 Y5.85 S50
X3.75 Y6 S50
X3.6 Y6.15 S50
X3.45 Y6.3 S50
X3.3 Y6.45 S50
X3.15 Y6.6 S50
X3 Y6.75 S50
X2.85 Y6.9 S50
X2.7 Y7.05 S50
X2.55 Y7.2 S50
X2.4 Y7.35 S50
X2.25 Y7.5 S50
X2.1 Y7.65 S50
X1.95 Y7.8 S50
X1.8 Y7.95 S50
X1.65 Y8.1 S50
X1.5 Y8.25 S50
X1.35 Y8.4 S50
X1.2 Y8.55 S50
X1.05 Y8.7 S50
X0.9 Y8.85 S50
X0.75 Y9 S251
X0.6 Y9.15 S100
X0.45 Y9.3 S100
X0.3 Y9.45 S100
X0.15 Y9.6 S100
X0 Y9.75 S251
X0 Y9.9 S251
X0.15 Y9.75 S100
X0.3 Y9.6 S100
X0.45 Y9.45 S100
X0.6 Y9.3 S100
X0.75 Y9.15 S100
X0.9 Y9 S251
X1.05 Y8.85 S50
X1.2 Y8.7 S50
X1.35 Y8.55 S50
X1.5 Y8.4 S50
X1.65 Y8.25 S50
X1.8 Y8.1 S50
X1.95 Y7.95 S50
X2.1 Y7.8 S50
X2.25 Y7.65 S50
X2.4 Y7.5 S50
X2.55 Y7.35 S50
X2.7 Y7.2 S50
X2.85 Y7.05 S50
X3 Y6.9 S50
X3.15 Y6.75 S50
X3.3 Y6.6 S50
X3.45 Y6.45 S50
X3.6 Y6.3 S50
X3.75 Y6.15 S50
X3.9 Y6 S50
X4.05 Y5.85 S50
X4.2 Y5.7 S50
X4.35 Y5.55 S50
X4.5 Y5.4 S50
X4.65 Y5.25 S50
X4.8 Y5.1 S251
X4.95 Y4.95 S55
X5.1 Y4.8 S55
X5.25 Y4.65 S55
X5.4 Y4.5 S251
X5.55 Y4.35 S5
X5.7 Y4.2 S5
X5.85 Y4.05 S5
X6 Y3.9 S5
X6.15 Y3.75 S5
X6.3 Y3.6 S5
X6.45 Y3.45 S5
X6.6 Y3.3 S5
X6.75 Y3.15 S5
X6.9 Y3 S5
X7.05 Y2.85 S5
X7.2 Y2.7 S5
X7.35 Y2.55 S5
X7.5 Y2.4 S5
X7.65 Y2.25 S5
X7.8 Y2.1 S5
X7.95 Y1.95 S5
X8.1 Y1.8 S5
X8.25 Y1.65 S5
X8.4 Y1.5 S5
X8.55 Y1.35 S5
X8.7 Y1.2 S5
X8.85 Y1.05 S5
X9 Y0.9 S5
X9.15 Y0.75 S5
X9.3 Y0.6 S251
X9.45 Y0.45 S11
X9.6 Y0.3 S11
X9.75 Y0.15 S11
X9.9 Y0 S251
X10.05 Y0 S251
X9.9 Y0.15 S11
X9.75 Y0.3 S11
X9.6 Y0.45 S11
X9.45 Y0.6 S11
X9.3 Y0.75 S251
X9.15 Y0.9 S5
X9 Y1.05 S5
X8.85 Y1.2 S5
X8.7 Y1.35 S5
X8.55 Y1.5 S5
X8.4 Y1.65 S5
X8.25 Y1.8 S5
X8.1 Y1.95 S5
X7.95 Y2.1 S5
X7.8 Y2.25 S5
X7.65 Y2.4 S5
X7.5 Y2.55 S5
X7.35 Y2.7 S5
X7.2 Y2.85 S5
X7.05 Y3 S5
X6.9 Y3.15 S5
X6.75 Y3.3 S5
X6.6 Y3.45 S5
X6.45 Y3.6 S5
X6.3 Y3.75 S5
X6.15 Y3.9 S5
X6 Y4.05 S5
X5.85 Y4.2 S5
X5.7 Y4.35 S5
X5.55 Y4.5 S251
X5.4 Y4.65 S55
X5.25 Y4.8 S55
X5.1 Y4.95 S55
X4.95 Y5.1 S55
X4.8 Y5.25 S251
X4.65 Y5.4 S50
X4.5 Y5.55 S50
X4.35 Y5.7 S50
X4.2 Y5.85 S50
X4.05 Y6 S50
X3.9 Y6.15 S50
X3.75 Y6.3 S50
X3.6 Y6.45 S50
X3.45 Y6.6 S50
X3.3 Y6.75 S50
X3.15 Y6.9 S50
X3 Y7.05 S50
X2.85 Y7.2 S50
X2.7 Y7.35 S50
X2.55 Y7.5 S50
X2.4 Y7.65 S50
X2.25 Y7.8 S50
X2.1 Y7.95 S50
X1.95 Y8.1 S50
X1.8 Y8.25 S50
X1.65 Y8.4 S50
X1.5 Y8.55 S50
X1.35 Y8.7 S50
X1.2 Y8.85 S50
X1.05 Y9 S251
X0.9 Y9.15 S100
X0.75 Y9.3 S100
X0.6 Y9.45 S100
X0.45 Y9.6 S100
X0.3 Y9.75 S100
X0.15 Y9.9 S100
X0 Y10.05 S251
X0 Y10.2 S251
X0.15 Y10.05 S100
X0.3 Y9.9 S100
X0.45 Y9.75 S100
X0.6 Y9.6 S100
X0.75 Y9.45 S100
X0.9 Y9.3 S100
X1.05 Y9.15 S100
X1.2 Y9 S251
X1.35 Y8.85 S50
X1.5 Y8.7 S50
X1.65 Y8.55 S50
X1.8 Y8.4 S50
X1.95 Y8.25 S50
X2.1 Y8.1 S50
X2.25 Y7.95 S50
X2.4 Y7.8 S50
X2.55 Y7.65 S50
X2.7 Y7.5 S50
X2.85 Y7.35 S50
X3 Y7.2 S50
X3.15 Y7.05 S50
X3.3 Y6.9 S50
X3.45 Y6.75 S50
X3.6 Y6.6 S50
X3.75 Y6.45 S50
X3.9 Y6.3 S50
X4.05 Y6.15 S50
X4.2 Y6 S50
X4.35 Y5.85 S50
X4.5 Y5.7 S50
X4.65 Y5.55 S50
X4.8 Y5.4 S251
X4.95 Y5.25 S55
X5.1 Y5.1 S55
X5.25 Y4.95 S55
X5.4 Y4.8 S55
X5.55 Y4.65 S55
X5.7 Y4.5 S251
X5.85 Y4.35 S5
X6 Y4.2 S5
X6.15 Y4.05 S5
X6.3 Y3.9 S5
X6.45 Y3.75 S5
X6.6 Y3.6 S5
X6.75 Y3.45 S5
X6.9 Y3.3 S5
X7.05 Y3.15 S5
X7.2 Y3 S5
X7.35 Y2.85 S5
X7.5 Y2.7 S5
X7.65 Y2.55 S5
X7.8 Y2.4 S5
X7.95 Y2.25 S5
X8.1 Y2.1 S5
X8.25 Y1.95 S5
X8.4 Y1.8 S5
X8.55 Y1.65 S5
X8.7 Y1.5 S5
X8.85 Y1.35 S5
X9 Y1.2 S5
X9.15 Y1.05 S5
X9.3 Y0.9 S251
X9.45 Y0.75 S11
X9.6 Y0.6 S11
X9.75 Y0.45 S11
X9.9 Y0.3 S11
X10.05 Y0.15 S11
X10.2 Y0 S251
X10.35 Y0 S251
X10.2 Y0.15 S11
X10.05 Y0.3 S11
X9.9 Y0.45 S11
X9.75 Y0.6 S11
X9.6 Y0.75 S11
X9.45 Y0.9 S11
X9.3 Y1.05 S251
X9.15 Y1.2 S5
X9 Y1.35 S5
X8.85 Y1.5 S5
X8.7 Y1.65 S5
X8.55 Y1.8 S5
X8.4 Y1.95 S5
X8.25 Y2.1 S5
X8.1 Y2.25 S5
X7.95 Y2.4 S5
X7.8 Y2.55 S5
X7.65 Y2.7 S5
X7.5 Y2.85 S5
X7.35 Y3 S5
X7.2 Y3.15 S5
X7.05 Y3.3 S5
X6.9 Y3.45 S5
X6.75 Y3.6 S5
X6.6 Y3.75 S5
X6.45 Y3.9 S5
X6.3 Y4.05 S5
X6.15 Y4.2 S5
X6 Y4.35 S5
X5.85 Y4.5 S251
X5.7 Y4.65 S55
X5.55 Y4.8 S55
X5.4 Y4.95 S55
X5.25 Y5.1 S55
X5.1 Y5.25 S55
X4.95 Y5.4 S55
X4.8 Y5.55 S251
X4.65 Y5.7 S50
X4.5 Y5.85 S50
X4.35 Y6 S50
X4.2 Y6.15 S50
X4.05 Y6.3 S50
X3.9 Y6.45 S50
X3.75 Y6.6 S50
X3.6 Y6.75 S50
X3.45 Y6.9 S50
X3.3 Y7.05 S50
X3.15 Y7.2 S50
X3 Y7.35 S50
X2.85 Y7.5 S50
X2.7 Y7.65 S50
X2.55 Y7.8 S50
X2.4 Y7.95 S50
X2.25 Y8.1 S50
X2.1 Y8.25 S50
X1.95 Y8.4 S50
X1.8 Y8.55 S50
X1.65 Y8.7 S50
X1.5 Y8.85 S50
X1.35 Y9 S251
X1.2 Y9.15 S100
X1.05 Y9.3 S100
X0.9 Y9.45 S100
X0.75 Y9.6 S100
X0.6 Y9.75 S100
X0.45 Y9.9 S100
X0.3 Y10.05 S100
X0.15 Y10.2 S100
X0 Y10.35 S251
X0 Y10.5 S251
X0.15 Y10.35 S100
X0.3 Y10.2 S100
X0.45 Y10.05 S100
X0.6 Y9.9 S100
X0.75 Y9.75 S100
X0.9 Y9.6 S100
X1.05 Y9.45 S100
X1.2 Y9.3 S100
X1.35 Y9.15 S100
X1.5 Y9 S251
X1.65 Y8.85 S50
X1.8 Y8.7 S50
X1.95 Y8.55 S50
X2.1 Y8.4 S50
X2.25 Y8.25 S50
X2.4 Y8.1 S50
X2.55 Y7.95 S50
X2.7 Y7.8 S50
X2.85 Y7.65 S50
X3 Y7.5 S50
X3.15 Y7.35 S50
X3.3 Y7.2 S50
X3.45 Y7.05 S50
X3.6 Y6.9 S50
X3.75 Y6.75 S50
X3.9 Y6.6 S50
X4.05 Y6.45 S50
X4.2 Y6.3 S50
X4.35 Y6.15 S50
X4.5 Y6 S50
X4.65 Y5.85 S50
X4.8 Y5.7 S251
X4.95 Y5.55 S55
X5.1 Y5.4 S55
X5.25 Y5.25 S55
X5.4 Y5.1 S55
X5.55 Y4.95 S55
X5.7 Y4.8 S55
X5.85 Y4.65 S55
X6 Y4.5 S251
X6.15 Y4.35 S5
X6.3 Y4.2 S5
X6.45 Y4.05 S5
X6.6 Y3.9 S5
X6.75 Y3.75 S5
X6.9 Y3.6 S5
X7.05 Y3.45 S5
X7.2 Y3.3 S5
X7.35 Y3.15 S5
X7.5 Y3 S5
X7.65 Y2.85 S5
X7.8 Y2.7 S5
X7.95 Y2.55 S5
X8.1 Y2.4 S5
X8.25 Y2.25 S5
X8.4 Y2.1 S5
X8.55 Y1.95 S5
X8.7 Y1.8 S5
X8.85 Y1.65 S5
X9 Y1.5 S5
X9.15 Y1.35 S5
X9.3 Y1.2 S251
X9.45 Y1.05 S11
X9.6 Y0.9 S11
X9.75 Y0.75 S11
X9.9 Y0.6 S11
X10.05 Y0.45 S11
X10.2 Y0.3 S11
X10.35 Y0.15 S11
X10.5 Y0 S251
X10.65 Y0 S251
X10.5 Y0.15 S11
X10.35 Y0.3 S11
X10.2 Y0.45 S11
X10.05 Y0.6 S11
X9.9 Y0.75 S11
X9.75 Y0.9 S11
X9.6 Y1.05 S11
X9.45 Y1.2 S11
X9.3 Y1.35 S251
X9.15 Y1.5 S5
X9 Y1.65 S5
X8.85 Y1.8 S5
X8.7 Y1.95 S5
X8.55 Y2.1 S5
X8.4 Y2.25 S5
X8.25 Y2.4 S5
X8.1 Y2.55 S5
X7.95 Y2.7 S5
X7.8 Y2.85 S5
X7.65 Y3 S5
X7.5 Y3.15 S5
X7.35 Y3.3 S5
X7.2 Y3.45 S5
X7.05 Y3.6 S5
X6.9 Y3.75 S5
X6.75 Y3.9 S5
X6.6 Y4.05 S5
X6.45 Y4.2 S5
X6.3 Y4.35 S5
X6.15 Y4.5 S251
X6 Y4.65 S55
X5.85 Y4.8 S55
X5.7 Y4.95 S55
X5.55 Y5.1 S55
X5.4 Y5.25 S55
X5.25 Y5.4 S55
X5.1 Y5.55 S55
X4.95 Y5.7 S55
X4.8 Y5.85 S251
X4.65 Y6 S50
X4.5 Y6.15 S50
X4.35 Y6.3 S50
X4.2 Y6.45 S50
X4.05 Y6.6 S50
X3.9 Y6.75 S50
X3.75 Y6.9 S50
X3.6 Y7.05 S50
X3.45 Y7.2 S50
X3.3 Y7.35 S50
X3.15 Y7.5 S50
X3 Y7.65 S50
X2.85 Y7.8 S50
X2.7 Y7.95 S50
X2.55 Y8.1 S50
X2.4 Y8.25 S50
X2.25 Y8.4 S50
X2.1 Y8.55 S50
X1.95 Y8.7 S50
X1.8 Y8.85 S50
X1.65 Y9 S251
X1.5 Y9.15 S100
X1.35 Y9.3 S100
X1.2 Y9.45 S100
X1.05 Y9.6 S100
X0.9 Y9.75 S100
X0.75 Y9.9 S100
X0.6 Y10.05 S100
X0.45 Y10.2 S100
X0.3 Y10.35 S100
X0.15 Y10.5 S100
X0 Y10.65 S251
X0 Y10.8 S251
X0.15 Y10.65 S100
X0.3 Y10.5 S100
X0.45 Y10.35 S100
X0.6 Y10.2 S100
X0.75 Y10.05 S100
X0.9 Y9.9 S100
X1.05 Y9.75 S100
X1.2 Y9.6 S100
X1.35 Y9.45 S100
X1.5 Y9.3 S100
X1.65 Y9.15 S100
X1.8 Y9 S251
X1.95 Y8.85 S50
X2.1 Y8.7 S50
X2.25 Y8.55 S50
X2.4 Y8.4 S50
X2.55 Y8.25 S50
X2.7 Y8.1 S50
X2.85 Y7.95 S50
X3 Y7.8 S50
X3.15 Y7.65 S50
X3.3 Y7.5 S50
X3.45 Y7.35 S50
X3.6 Y7.2 S50
X3.75 Y7.05 S50
X3.9 Y6.9 S50
X4.05 Y6.75 S50
X4.2 Y6.6 S50
X4.35 Y6.45 S50
X4.5 Y6.3 S50
X4.65 Y6.15 S50
X4.8 Y6 S251
X4.95 Y5.85 S55
X5.1 Y5.7 S55
X5.25 Y5.55 S55
X5.4 Y5.4 S55
X5.55 Y5.25 S55
X5.7 Y5.1 S55
X5.85 Y4.95 S55
X6 Y4.8 S55
X6.15 Y4.65 S55
X6.3 Y4.5 S251
X6.45 Y4.35 S5
X6.6 Y4.2 S5
X6.75 Y4.05 S5
X6.9 Y3.9 S5
X7.05 Y3.75 S5
X7.2 Y3.6 S5
X7.35 Y3.45 S5
X7.5 Y3.3 S5
X7.65 Y3.15 S5
X7.8 Y3 S5
X7.95 Y2.85 S5
X8.1 Y2.7 S5
X8.25 Y2.55 S5
X8.4 Y2.4 S5
X8.55 Y2.25 S5
X8.7 Y2.1 S5
X8.85 Y1.95 S5
X9 Y1.8 S5
X9.15 Y1.65 S5
X9.3 Y1.5 S251
X9.45 Y1.35 S11
X9.6 Y1.2 S11
X9.75 Y1.05 S11
X9.9 Y0.9 S11
X10.05 Y0.75 S11
X10.2 Y0.6 S11
X10.35 Y0.45 S11
X10.5 Y0.3 S11
X10.65 Y0.15 S11
X10.8 Y0 S251
X10.95 Y0 S251
X10.8 Y0.15 S11
X10.65 Y0.3 S11
X10.5 Y0.45 S11
X10.35 Y0.6 S11
X10.2 Y0.75 S11
X10.05 Y0.9 S11
X9.9 Y1.05 S11
X9.75 Y1.2 S11
X9.6 Y1.35 S11
X9.45 Y1.5 S11
X9.3 Y1.65 S251
X9.15 Y1.8 S5
X9 Y1.95 S5
X8.85 Y2.1 S5
X8.7 Y2.25 S5
X8.55 Y2.4 S5
X8.4 Y2.55 S5
X8.25 Y2.7 S5
X8.1 Y2.85 S5
X7.95 Y3 S5
X7.8 Y3.15 S5
X7.65 Y3.3 S5
X7.5 Y3.45 S5
X7.35 Y3.6 S5
X7.2 Y3.75 S5
X7.05 Y3.9 S5
X6.9 Y4.05 S5
X6.75 Y4.2 S5
X6.6 Y4.35 S5
X6.45 Y4.5 S251
X6.3 Y4.65 S55
X6.15 Y4.8 S55
X6 Y4.95 S55
X5.85 Y5.1 S55
X5.7 Y5.25 S55
X5.55 Y5.4 S55
X5.4 Y5.55 S55
X5.25 Y5.7 S55
X5.1 Y5.85 S55
X4.95 Y6 S55
X4.8 Y6.15 S251
X4.65 Y6.3 S50
X4.5 Y6.45 S50
X4.35 Y6.6 S50
X4.2 Y6.75 S50
X4.05 Y6.9 S50
X3.9 Y7.05 S50
X3.75 Y7.2 S50
X3.6 Y7.35 S50
X3.45 Y7.5 S50
X3.3 Y7.65 S50
X3.15 Y7.8 S50
X3 Y7.95 S50
X2.85 Y8.1 S50
X2.7 Y8.25 S50
X2.55 Y8.4 S50
X2.4 Y8.55 S50
X2.25 Y8.7 S50
X2.1 Y8.85 S50
X1.95 Y9 S251
X1.8 Y9.15 S100
X1.65 Y9.3 S100
X1.5 Y9.45 S100
X1.35 Y9.6 S100
X1.2 Y9.75 S100
X1.05 Y9.9 S100
X0.9 Y10.05 S100
X0.75 Y10.2 S100
X0.6 Y10.35 S100
X0.45 Y10.5 S100
X0.3 Y10.65 S100
X0.15 Y10.8 S100
X0 Y10.95 S251
X0 Y11.1 S251
X0.15 Y10.95 S100
X0.3 Y10.8 S100
X0.45 Y10.65 S100
X0.6 Y10.5 S100
X0.75 Y10.35 S100
X0.9 Y10.2 S100
X1.05 Y10.05 S100
X1.2 Y9.9 S100
X1.35 Y9.75 S100
X1.5 Y9.6 S100
X1.65 Y9.45 S100
X1.8 Y9.3 S100
X1.95 Y9.15 S100
X2.1 Y9 S251
X2.25 Y8.85 S50
X2.4 Y8.7 S50
X2.55 Y8.55 S50
X2.7 Y8.4 S50
X2.85 Y8.25 S50
X3 Y8.1 S50
X3.15 Y7.95 S50
X3.3 Y7.8 S50
X3.45 Y7.65 S50
X3.6 Y7.5 S50
X3.75 Y7.35 S50
X3.9 Y7.2 S50
X4.05 Y7.05 S50
X4.2 Y6.9 S50
X4.35 Y6.75 S50
X4.5 Y6.6 S50
X4.65 Y6.45 S50
X4.8 Y6.3 S251
X4.95 Y6.15 S55
X5.1 Y6 S55
X5.25 Y5.85 S55
X5.4 Y5.7 S55
X5.55 Y5.55 S55
X5.7 Y5.4 S55
X5.85 Y5.25 S55
X6 Y5.1 S55
X6.15 Y4.95 S55
X6.3 Y4.8 S55
X6.45 Y4.65 S55
X6.6 Y4.5 S251
X6.75 Y4.35 S5
X6.9 Y4.2 S5
X7.05 Y4.05 S5
X7.2 Y3.9 S5
X7.35 Y3.75 S5
X7.5 Y3.6 S5
X7.65 Y3.45 S5
X7.8 Y3.3 S5
X7.95 Y3.15 S5
X8.1 Y3 S5
X8.25 Y2.85 S5
X8.4 Y2.7 S5
X8.55 Y2.55 S5
X8.7 Y2.4 S5
X8.85 Y2.25 S5
X9 Y2.1 S5
X9.15 Y1.95 S5
X9.3 Y1.8 S251
X9.45 Y1.65 S11
X9.6 Y1.5 S11
X9.75 Y1.35 S11
X9.9 Y1.2 S11
X10.05 Y1.05 S11
X10.2 Y0.9 S11
X10.35 Y0.75 S11
X10.5 Y0.6 S11
X10.65 Y0.45 S11
X10.8 Y0.3 S11
X10.95 Y0.15 S11
X11.1 Y0 S251
X11.25 Y0 S251
X11.1 Y0.15 S11
X10.95 Y0.3 S11
X10.8 Y0.45 S11
X10.65 Y0.6 S11
X10.5 Y0.75 S11
X10.35 Y0.9 S11
X10.2 Y1.05 S11
X10.05 Y1.2 S11
X9.9 Y1.35 S11
X9.75 Y1.5 S11
X9.6 Y1.65 S11
X9.45 Y1.8 S11
X9.3 Y1.95 S251
X9.15 Y2.1 S5
X9 Y2.25 S5
X8.85 Y2.4 S5
X8.7 Y2.55 S5
X8.55 Y2.7 S5
X8.4 Y2.85 S5
X8.25 Y3 S5
X8.1 Y3.15 S5
X7.95 Y3.3 S5
X7.8 Y3.45 S5
X7.65 Y3.6 S5
X7.5 Y3.75 S5
X7.35 Y3.9 S5
X7.2 Y4.05 S5
X7.05 Y4.2 S5
X6.9 Y4.35 S5
X6.75 Y4.5 S251
X6.6 Y4.65 S55
X6.45 Y4.8 S55
X6.3 Y4.95 S55
X6.15 Y5.1 S55
X6 Y5.25 S55
X5.85 Y5.4 S55
X5.7 Y5.55 S55
X5.55 Y5.7 S55
X5.4 Y5.85 S55
X5.25 Y6 S55
X5.1 Y6.15 S55
X4.95 Y6.3 S55
X4.8 Y6.45 S251
X4.65 Y6.6 S50
X4.5 Y6.75 S50
X4.35 Y6.9 S50
X4.2 Y7.05 S50
X4.05 Y7.2 S50
X3.9 Y7.35 S50
X3.75 Y7.5 S50
X3.6 Y7.65 S50
X3.45 Y7.8 S50
X3.3 Y7.95 S50
X3.15 Y8.1 S50
X3 Y8.25 S50
X2.85 Y8.4 S50
X2.7 Y8.55 S50
X2.55 Y8.7 S50
X2.4 Y8.85 S50
X2.25 Y9 S251
X2.1 Y9.15 S100
X1.95 Y9.3 S100
X1.8 Y9.45 S100
X1.65 Y9.6 S100
X1.5 Y9.75 S100
X1.35 Y9.9 S100
X1.2 Y10.05 S100
X1.05 Y10.2 S100
X0.9 Y10.35 S100
X0.75 Y10.5 S100
X0.6 Y10.65 S100
X0.45 Y10.8 S100
X0.3 Y10.95 S100
X0.15 Y11.1 S100
X0 Y11.25 S251
X0 Y11.4 S251
X0.15 Y11.25 S100
X0.3 Y11.1 S100
X0.45 Y10.95 S100
X0.6 Y10.8 S100
X0.75 Y10.65 S100
X0.9 Y10.5 S100
X1.05 Y10.35 S100
X1.2 Y10.2 S100
X1.35 Y10.05 S100
X1.5 Y9.9 S100
X1.65 Y9.75 S100
X1.8 Y9.6 S100
X1.95 Y9.45 S100
X2.1 Y9.3 S100
X2.25 Y9.15 S100
X2.4 Y9 S251
X2.55 Y8.85 S50
X2.7 Y8.7 S50
X2.85 Y8.55 S50
X3 Y8.4 S50
X3.15 Y8.25 S50
X3.3 Y8.1 S50
X3.45 Y7.95 S50
X3.6 Y7.8 S50
X3.75 Y7.65 S50
X3.9 Y7.5 S50
X4.05 Y7.35 S50
X4.2 Y7.2 S50
X4.35 Y7.05 S50
X4.5 Y6.9 S50
X4.65 Y6.75 S50
X4.8 Y6.6 S251
X4.95 Y6.45 S55
X5.1 Y6.3 S55
X5.25 Y6.15 S55
X5.4 Y6 S55
X5.55 Y5.85 S55
X5.7 Y5.7 S55
X5.85 Y5.55 S55
X6 Y5.4 S55
X6.15 Y5.25 S55
X6.3 Y5.1 S55
X6.45 Y4.95 S55
X6.6 Y4.8 S55
X6.75 Y4.65 S55
X6.9 Y4.5 S251
X7.05 Y4.35 S5
X7.2 Y4.2 S5
X7.35 Y4.05 S5
X7.5 Y3.9 S5
X7.65 Y3.75 S5
X7.8 Y3.6 S5
X7.95 Y3.45 S5
X8.1 Y3.3 S5
X8.25 Y3.15 S5
X8.4 Y3 S5
X8.55 Y2.85 S5
X8.7 Y2.7 S5
X8.85 Y2.55 S5
X9 Y2.4 S5
X9.15 Y2.25 S5
X9.3 Y2.1 S251
X9.45 Y1.95 S11
X9.6 Y1.8 S11
X9.75 Y1.65 S11
X9.9 Y1.5 S11
X10.05 Y1.35 S11
X10.2 Y1.2 S11
X10.35 Y1.05 S11
X10.5 Y0.9 S11
X10.65 Y0.75 S11
X10.8 Y0.6 S11
X10.95 Y0.45 S11
X11.1 Y0.3 S11
X11.25 Y0.15 S11
X11.4 Y0 S251
X11.55 Y0 S251
X11.4 Y0.15 S11
X11.25 Y0.3 S11
X11.1 Y0.45 S11
X10.95 Y0.6 S11
X10.8 Y0.75 S11
X10.65 Y0.9 S11
X10.5 Y1.05 S11
X10.35 Y1.2 S11
X10.2 Y1.35 S11
X10.05 Y1.5 S11
X9.9 Y1.65 S11
X9.75 Y1.8 S11
X9.6 Y1.95 S11
X9.45 Y2.1 S11
X9.3 Y2.25 S251
X9.15 Y2.4 S5
X9 Y2.55 S5
X8.85 Y2.7 S5
X8.7 Y2.85 S5
X8.55 Y3 S5
X8.4 Y3.15 S5
X8.25 Y3.3 S5
X8.1 Y3.45 S5
X7.95 Y3.6 S5
X7.8 Y3.75 S5
X7.65 Y3.9 S5
X7.5 Y4.05 S5
X7.35 Y4.2 S5
X7.2 Y4.35 S5
X7.05 Y4.5 S251
X6.9 Y4.65 S55
X6.75 Y4.8 S55
X6.6 Y4.95 S55
X6.45 Y5.1 S55
X6.3 Y5.25 S55
X6.15 Y5.4 S55
X6 Y5.55 S55
X5.85 Y5.7 S55
X5.7 Y5.85 S55
X5.55 Y6 S55
X5.4 Y6.15 S55
X5.25 Y6.3 S55
X5.1 Y6.45 S55
X4.95 Y6.6 S55
X4.8 Y6.75 S251
X4.65 Y6.9 S50
X4.5 Y7.05 S50
X4.35 Y7.2 S50
X4.2 Y7.35 S50
X4.05 Y7.5 S50
X3.9 Y7.65 S50
X3.75 Y7.8 S50
X3.6 Y7.95 S50
X3.45 Y8.1 S50
X3.3 Y8.25 S50
X3.15 Y8.4 S50
X3 Y8.55 S50
X2.85 Y8.7 S50
X2.7 Y8.85 S50
X2.55 Y9 S251
X2.4 Y9.15 S100
X2.25 Y9.3 S100
X2.1 Y9.45 S100
X1.95 Y9.6 S100
X1.8 Y9.75 S100
X1.65 Y9.9 S100
X1.5 Y10.05 S100
X1.35 Y10.2 S100
X1.2 Y10.35 S100
X1.05 Y10.5 S100
X0.9 Y10.65 S100
X0.75 Y10.8 S100
X0.6 Y10.95 S100
X0.45 Y11.1 S100
X0.3 Y11.25 S100
X0.15 Y11.4 S100
X0 Y11.55 S251
X0 Y11.7 S251
X0.15 Y11.55 S100
X0.3 Y11.4 S100
X0.45 Y11.25 S100
X0.6 Y11.1 S100
X0.75 Y10.95 S100
X0.9 Y10.8 S100
X1.05 Y10.65 S100
X1.2 Y10.5 S100
X1.35 Y10.35 S100
X1.5 Y10.2 S100
X1.65 Y10.05 S100
X1.8 Y9.9 S100
X1.95 Y9.75 S100
X2.1 Y9.6 S100
X2.25 Y9.45 S100
X2.4 Y9.3 S100
X2.55 Y9.15 S100
X2.7 Y9 S251
X2.85 Y8.85 S50
X3 Y8.7 S50
X3.15 Y8.55 S50
X3.3 Y8.4 S50
X3.45 Y8.25 S50
X3.6 Y8.1 S50
X3.75 Y7.95 S50
X3.9 Y7.8 S50
X4.05 Y7.65 S50
X4.2 Y7.5 S50
X4.35 Y7.35 S50
X4.5 Y7.2 S50
X4.65 Y7.05 S50
X4.8 Y6.9 S251
X4.95 Y6.75 S55
X5.1 Y6.6 S55
X5.25 Y6.45 S55
X5.4 Y6.3 S55
X5.55 Y6.15 S55
X5.7 Y6 S55
X5.85 Y5.85 S55
X6 Y5.7 S55
X6.15 Y5.55 S55
X6.3 Y5.4 S55
X6.45 Y5.25 S55
X6.6 Y5.1 S55
X6.75 Y4.95 S55
X6.9 Y4.8 S55
X7.05 Y4.65 S55
X7.2 Y4.5 S251
X7.35 Y4.35 S5
X7.5 Y4.2 S5
X7.65 Y4.05 S5
X7.8 Y3.9 S5
X7.95 Y3.75 S5
X8.1 Y3.6 S5
X8.25 Y3.45 S5
X8.4 Y3.3 S5
X8.55 Y3.15 S5
X8.7 Y3 S5
X8.85 Y2.85 S5
X9 Y2.7 S5
X9.15 Y2.55 S5
X9.3 Y2.4 S251
X9.45 Y2.25 S11
X9.6 Y2.1 S11
X9.75 Y1.95 S11
X9.9 Y1.8 S11
X10.05 Y1.65 S11
X10.2 Y1.5 S11
X10.35 Y1.35 S11
X10.5 Y1.2 S11
X10.65 Y1.05 S11
X10.8 Y0.9 S11
X10.95 Y0.75 S11
X11.1 Y0.6 S11
X11.25 Y0.45 S11
X11.4 Y0.3 S11
X11.55 Y0.15 S11
X11.7 Y0 S251
X11.85 Y0 S251
X11.7 Y0.15 S11
X11.55 Y0.3 S11
X11.4 Y0.45 S11
X11.25 Y0.6 S11
X11.1 Y0.75 S11
X10.95 Y0.9 S11
X10.8 Y1.05 S11
X10.65 Y1.2 S11
X10.5 Y1.35 S11
X10.35 Y1.5 S11
X10.2 Y1.65 S11
X10.05 Y1.8 S11
X9.9 Y1.95 S11
X9.75 Y2.1 S11
X9.6 Y2.25 S11
X9.45 Y2.4 S11
X9.3 Y2.55 S251
X9.15 Y2.7 S5
X9 Y2.85 S5
X8.85 Y3 S5
X8.7 Y3.15 S5
X8.55 Y3.3 S5
X8.4 Y3.45 S5
X8.25 Y3.6 S5
X8.1 Y3.75 S5
X7.95 Y3.9 S5
X7.8 Y4.05 S5
X7.65 Y4.2 S5
X7.5 Y4.35 S5
X7.35 Y4.5 S251
X7.2 Y4.65 S55
X7.05 Y4.8 S55
X6.9 Y4.95 S55
X6.75 Y5.1 S55
X6.6 Y5.25 S55
X6.45 Y5.4 S55
X6.3 Y5.55 S55
X6.15 Y5.7 S55
X6 Y5.85 S55
X5.85 Y6 S55
X5.7 Y6.15 S55
X5.55 Y6.3 S55
X5.4 Y6.45 S55
X5.25 Y6.6 S55
X5.1 Y6.75 S55
X4.95 Y6.9 S55
X4.8 Y7.05 S251
X4.65 Y7.2 S50
X4.5 Y7.35 S50
X4.35 Y7.5 S50
X4.2 Y7.65 S50
X4.05 Y7.8 S50
X3.9 Y7.95 S50
X3.75 Y8.1 S50
X3.6 Y8.25 S50
X3.45 Y8.4 S50
X3.3 Y8.55 S50
X3.15 Y8.7 S50
X3 Y8.85 S50
X2.85 Y9 S251
X2.7 Y9.15 S100
X2.55 Y9.3 S100
X2.4 Y9.45 S100
X2.25 Y9.6 S100
X2.1 Y9.75 S100
X1.95 Y9.9 S100
X1.8 Y10.05 S100
X1.65 Y10.2 S100
X1.5 Y10.35 S100
X1.35 Y10.5 S100
X1.2 Y10.65 S100
X1.05 Y10.8 S100
X0.9 Y10.95 S100
X0.75 Y11.1 S100
X0.6 Y11.25 S100
X0.45 Y11.4 S100
X0.3 Y11.55 S100
X0.15 Y11.7 S100
X0 Y11.85 S251
X0 Y12 S251
X0.15 Y11.85 S100
X0.3 Y11.7 S100
X0.45 Y11.55 S100
X0.6 Y11.4 S100
X0.75 Y11.25 S100
X0.9 Y11.1 S100
X1.05 Y10.95 S100
X1.2 Y10.8 S100
X1.35 Y10.65 S100
X1.5 Y10.5 S100
X1.65 Y10.35 S100
X1.8 Y10.2 S100
X1.95 Y10.05 S100
X2.1 Y9.9 S100
X2.25 Y9.75 S100
X2.4 Y9.6 S100
X2.55 Y9.45 S100
X2.7 Y9.3 S100
X2.85 Y9.15 S100
X3 Y9 S251
X3.15 Y8.85 S50
X3.3 Y8.7 S50
X3.45 Y8.55 S50
X3.6 Y8.4 S50
X3.75 Y8.25 S50
X3.9 Y8.1 S50
X4.05 Y7.95 S50
X4.2 Y7.8 S50
X4.35 Y7.65 S50
X4.5 Y7.5 S50
X4.65 Y7.35 S50
X4.8 Y7.2 S251
X4.95 Y7.05 S55
X5.1 Y6.9 S55
X5.25 Y6.75 S55
X5.4 Y6.6 S55
X5.55 Y6.45 S55
X5.7 Y6.3 S55
X5.85 Y6.15 S55
X6 Y6 S55
X6.15 Y5.85 S55
X6.3 Y5.7 S55
X6.45 Y5.55 S55
X6.6 Y5.4 S55
X6.75 Y5.25 S55
X6.9 Y5.1 S55
X7.05 Y4.95 S55
X7.2 Y4.8 S55
X7.35 Y4.65 S55
X7.5 Y4.5 S251
X7.65 Y4.35 S5
X7.8 Y4.2 S5
X7.95 Y4.05 S5
X8.1 Y3.9 S5
X8.25 Y3.75 S5
X8.4 Y3.6 S5
X8.55 Y3.45 S5
X8.7 Y3.3 S5
X8.85 Y3.15 S5
X9 Y3 S5
X9.15 Y2.85 S5
X9.3 Y2.7 S251
X9.45 Y2.55 S11
X9.6 Y2.4 S11
X9.75 Y2.25 S11
X9.9 Y2.1 S11
X10.05 Y1.95 S11
X10.2 Y1.8 S11
X10.35 Y1.65 S11
X10.5 Y1.5 S11
X10.65 Y1.35 S11
X10.8 Y1.2 S11
X10.95 Y1.05 S11
X11.1 Y0.9 S11
X11.25 Y0.75 S11
X11.4 Y0.6 S11
X11.55 Y0.45 S11
X11.7 Y0.3 S11
X11.85 Y0.15 S11
X12 Y0 S251
X12.15 Y0 S251
X12 Y0.15 S11
X11.85 Y0.3 S11
X11.7 Y0.45 S11
X11.55 Y0.6 S11
X11.4 Y0.75 S11
X11.25 Y0.9 S11
X11.1 Y1.05 S11
X10.95 Y1.2 S11
X10.8 Y1.35 S11
X10.65 Y1.5 S11
X10.5 Y1.65 S11
X10.35 Y1.8 S11
X10.2 Y1.95 S11
X10.05 Y2.1 S11
X9.9 Y2.25 S11
X9.75 Y2.4 S11
X9.6 Y2.55 S11
X9.45 Y2.7 S11
X9.3 Y2.85 S251
X9.15 Y3 S5
X9 Y3.15 S5
X8.85 Y3.3 S5
X8.7 Y3.45 S5
X8.55 Y3.6 S5
X8.4 Y3.75 S5
X8.25 Y3.9 S5
X8.1 Y4.05 S5
X7.95 Y4.2 S5
X7.8 Y4.35 S5
X7.65 Y4.5 S251
X7.5 Y4.65 S55
X7.35 Y4.8 S55
X7.2 Y4.95 S55
X7.05 Y5.1 S55
X6.9 Y5.25 S55
X6.75 Y5.4 S55
X6.6 Y5.55 S55
X6.45 Y5.7 S55
X6.3 Y5.85 S55
X6.15 Y6 S55
X6 Y6.15 S55
X5.85 Y6.3 S55
X5.7 Y6.45 S55
X5.55 Y6.6 S55
X5.4 Y6.75 S55
X5.25 Y6.9 S55
X5.1 Y7.05 S55
X4.95 Y7.2 S55
X4.8 Y7.35 S251
X4.65 Y7.5 S50
X4.5 Y7.65 S50
X4.35 Y7.8 S50
X4.2 Y7.95 S50
X4.05 Y8.1 S50
X3.9 Y8.25 S50
X3.75 Y8.4 S50
X3.6 Y8.55 S50
X3.45 Y8.7 S50
X3.3 Y8.85 S50
X3.15 Y9 S251
X3 Y9.15 S100
X2.85 Y9.3 S100
X2.7 Y9.45 S100
X2.55 Y9.6 S100
X2.4 Y9.75 S100
X2.25 Y9.9 S100
X2.1 Y10.05 S100
X1.95 Y10.2 S100
X1.8 Y10.35 S100
X1.65 Y10.5 S100
X1.5 Y10.65 S100
X1.35 Y10.8 S100
X1.2 Y10.95 S100
X1.05 Y11.1 S100
X0.9 Y11.25 S100
X0.75 Y11.4 S100
X0.6 Y11.55 S100
X0.45 Y11.7 S100
X0.3 Y11.85 S100
X0.15 Y12 S100
X0 Y12.15 S251
X0 Y12.3 S251
X0.15 Y12.15 S100
X0.3 Y12 S100
X0.45 Y11.85 S100
X0.6 Y11.7 S100
X0.75 Y11.55 S100
X0.9 Y11.4 S100
X1.05 Y11.25 S100
X1.2 Y11.1 S100
X1.35 Y10.95 S100
X1.5 Y10.8 S100
X1.65 Y10.65 S100
X1.8 Y10.5 S100
X1.95 Y10.35 S100
X2.1 Y10.2 S100
X2.25 Y10.05 S100
X2.4 Y9.9 S100
X2.55 Y9.75 S100
X2.7 Y9.6 S100
X2.85 Y9.45 S100
X3 Y9.3 S100
X3.15 Y9.15 S100
X3.3 Y9 S251
X3.45 Y8.85 S50
X3.6 Y8.7 S50
X3.75 Y8.55 S50
X3.9 Y8.4 S50
X4.05 Y8.25 S50
X4.2 Y8.1 S50
X4.35 Y7.95 S50
X4.5 Y7.8 S50
X4.65 Y7.65 S50
X4.8 Y7.5 S251
X4.95 Y7.35 S55
X5.1 Y7.2 S55
X5.25 Y7.05 S55
X5.4 Y6.9 S55
X5.55 Y6.75 S55
X5.7 Y6.6 S55
X5.85 Y6.45 S55
X6 Y6.3 S55
X6.15 Y6.15 S55
X6.3 Y6 S55
X6.45 Y5.85 S55
X6.6 Y5.7 S55
X6.75 Y5.55 S55
X6.9 Y5.4 S55
X7.05 Y5.25 S55
X7.2 Y5.1 S55
X7.35 Y4.95 S55
X7.5 Y4.8 S55
X7.65 Y4.65 S55
X7.8 Y4.5 S251
X7.95 Y4.35 S5
X8.1 Y4.2 S5
X8.25 Y4.05 S5
X8.4 Y3.9 S5
X8.55 Y3.75 S5
X8.7 Y3.6 S5
X8.85 Y3.45 S5
X9 Y3.3 S5
X9.15 Y3.15 S5
X9.3 Y3 S251
X9.45 Y2.85 S11
X9.6 Y2.7 S11
X9.75 Y2.55 S11
X9.9 Y2.4 S11
X10.05 Y2.25 S11
X10.2 Y2.1 S11
X10.35 Y1.95 S11
X10.5 Y1.8 S11
X10.65 Y1.65 S11
X10.8 Y1.5 S11
X10.95 Y1.35 S11
X11.1 Y1.2 S11
X11.25 Y1.05 S11
X11.4 Y0.9 S11
X11.55 Y0.75 S11
X11.7 Y0.6 S11
X11.85 Y0.45 S11
X12 Y0.3 S11
X12.15 Y0.15 S11
X12.3 Y0 S251
X12.45 Y0 S251
X12.3 Y0.15 S11
X12.15 Y0.3 S11
X12 Y0.45 S11
X11.85 Y0.6 S11
X11.7 Y0.75 S11
X11.55 Y0.9 S11
X11.4 Y1.05 S11
X11.25 Y1.2 S11
X11.1 Y1.35 S11
X10.95 Y1.5 S11
X10.8 Y1.65 S11
X10.65 Y1.8 S11
X10.5 Y1.95 S11
X10.35 Y2.1 S11
X10.2 Y2.25 S11
X10.05 Y2.4 S11
X9.9 Y2.55 S11
X9.75 Y2.7 S11
X9.6 Y2.85 S11
X9.45 Y3 S11
X9.3 Y3.15 S251
X9.15 Y3.3 S5
X9 Y3.45 S5
X8.85 Y3.6 S5
X8.7 Y3.75 S5
X8.55 Y3.9 S5
X8.4 Y4.05 S5
X8.25 Y4.2 S5
X8.1 Y4.35 S5
X7.95 Y4.5 S251
X7.8 Y4.65 S55
X7.65 Y4.8 S55
X7.5 Y4.95 S55
X7.35 Y5.1 S55
X7.2 Y5.25 S55
X7.05 Y5.4 S55
X6.9 Y5.55 S55
X6.75 Y5.7 S55
X6.6 Y5.85 S55
X6.45 Y6 S55
X6.3 Y6.15 S55
X6.15 Y6.3 S55
X6 Y6.45 S55
X5.85 Y6.6 S55
X5.7 Y6.75 S55
X5.55 Y6.9 S55
X5.4 Y7.05 S55
X5.25 Y7.2 S55
X5.1 Y7.35 S55
X4.95 Y7.5 S55
X4.8 Y7.65 S251
X4.65 Y7.8 S50
X4.5 Y7.95 S50
X4.35 Y8.1 S50
X4.2 Y8.25 S50
X4.05 Y8.4 S50
X3.9 Y8.55 S50
X3.75 Y8.7 S50
X3.6 Y8.85 S50
X3.45 Y9 S251
X3.3 Y9.15 S100
X3.15 Y9.3 S100
X3 Y9.45 S100
X2.85 Y9.6 S100
X2.7 Y9.75 S100
X2.55 Y9.9 S100
X2.4 Y10.05 S100
X2.25 Y10.2 S100
X2.1 Y10.35 S100
X1.95 Y10.5 S100
X1.8 Y10.65 S100
X1.65 Y10.8 S100
X1.5 Y10.95 S100
X1.35 Y11.1 S100
X1.2 Y11.25 S100
X1.05 Y11.4 S100
X0.9 Y11.55 S100
X0.75 Y11.7 S100
X0.6 Y11.85 S100
X0.45 Y12 S100
X0.3 Y12.15 S100
X0.15 Y12.3 S100
X0 Y12.45 S251
X0 Y12.6 S251
X0.15 Y12.45 S100
X0.3 Y12.3 S100
X0.45 Y12.15 S100
X0.6 Y12 S100
X0.75 Y11.85 S100
X0.9 Y11.7 S100
X1.05 Y11.55 S100
X1.2 Y11.4 S100
X1.35 Y11.25 S100
X1.5 Y11.1 S100
X1.65 Y10.95 S100
X1.8 Y10.8 S100
X1.95 Y10.65 S100
X2.1 Y10.5 S100
X2.25 Y10.35 S100
X2.4 Y10.2 S100
X2.55 Y10.05 S100
X2.7 Y9.9 S100
X2.85 Y9.75 S100
X3 Y9.6 S100
X3.15 Y9.45 S100
X3.3 Y9.3 S100
X3.45 Y9.15 S100
X3.6 Y9 S251
X3.75 Y8.85 S50
X3.9 Y8.7 S50
X4.05 Y8.55 S50
X4.2 Y8.4 S50
X4.35 Y8.25 S50
X4.5 Y8.1 S50
X4.65 Y7.95 S50
X4.8 Y7.8 S251
X4.95 Y7.65 S55
X5.1 Y7.5 S55
X5.25 Y7.35 S55
X5.4 Y7.2 S55
X5.55 Y7.05 S55
X5.7 Y6.9 S55
X5.85 Y6.75 S55
X6 Y6.6 S55
X6.15 Y6.45 S55
X6.3 Y6.3 S55
X6.45 Y6.15 S55
X6.6 Y6 S55
X6.75 Y5.85 S55
X6.9 Y5.7 S55
X7.05 Y5.55 S55
X7.2 Y5.4 S55
X7.35 Y5.25 S55
X7.5 Y5.1 S55
X7.65 Y4.95 S55
X7.8 Y4.8 S55
X7.95 Y4.65 S55
X8.1 Y4.5 S251
X8.25 Y4.35 S5
X8.4 Y4.2 S5
X8.55 Y4.05 S5
X8.7 Y3.9 S5
X8.85 Y3.75 S5
X9 Y3.6 S5
X9.15 Y3.45 S5
X9.3 Y3.3 S251
X9.45 Y3.15 S11
X9.6 Y3 S11
X9.75 Y2.85 S11
X9.9 Y2.7 S11
X10.05 Y2.55 S11
X10.2 Y2.4 S11
X10.35 Y2.25 S11
X10.5 Y2.1 S11
X10.65 Y1.95 S11
X10.8 Y1.8 S11
X10.95 Y1.65 S11
X11.1 Y1.5 S11
X11.25 Y1.35 S11
X11.4 Y1.2 S11
X11.55 Y1.05 S11
X11.7 Y0.9 S11
X11.85 Y0.75 S11
X12 Y0.6 S11
X12.15 Y0.45 S11
X12.3 Y0.3 S11
X12.45 Y0.15 S11
X12.6 Y0 S251
X12.75 Y0 S251
X12.6 Y0.15 S11
X12.45 Y0.3 S11
X12.3 Y0.45 S11
X12.15 Y0.6 S11
X12 Y0.75 S11
X11.85 Y0.9 S11
X11.7 Y1.05 S11
X11.55 Y1.2 S11
X11.4 Y1.35 S11
X11.25 Y1.5 S11
X11.1 Y1.65 S11
X10.95 Y1.8 S11
X10.8 Y1.95 S11
X10.65 Y2.1 S11
X10.5 Y2.25 S11
X10.35 Y2.4 S11
X10.2 Y2.55 S11
X10.05 Y2.7 S11
X9.9 Y2.85 S11
X9.75 Y3 S11
X9.6 Y3.15 S11
X9.45 Y3.3 S11
X9.3 Y3.45 S251
X9.15 Y3.6 S5
X9 Y3.75 S5
X8.85 Y3.9 S5
X8.7 Y4.05 S5
X8.55 Y4.2 S5
X8.4 Y4.35 S5
X8.25 Y4.5 S251
X8.1 Y4.65 S55
X7.95 Y4.8 S55
X7.8 Y4.95 S55
X7.65 Y5.1 S55
X7.5 Y5.25 S55
X7.35 Y5.4 S55
X7.2 Y5.55 S55
X7.05 Y5.7 S55
X6.9 Y5.85 S55
X6.75 Y6 S55
X6.6 Y6.15 S55
X6.45 Y6.3 S55
X6.3 Y6.45 S55
X6.15 Y6.6 S55
X6 Y6.75 S55
X5.85 Y6.9 S55
X5.7 Y7.05 S55
X5.55 Y7.2 S55
X5.4 Y7.35 S55
X5.25 Y7.5 S55
X5.1 Y7.65 S55
X4.95 Y7.8 S55
X4.8 Y7.95 S251
X4.65 Y8.1 S50
X4.5 Y8.25 S50
X4.35 Y8.4 S50
X4.2 Y8.55 S50
X4.05 Y8.7 S50
X3.9 Y8.85 S50
X3.75 Y9 S251
X3.6 Y9.15 S100
X3.45 Y9.3 S100
X3.3 Y9.45 S100
X3.15 Y9.6 S100
X3 Y9.75 S100
X2.85 Y9.9 S100
X2.7 Y10.05 S100
X2.55 Y10.2 S100
X2.4 Y10.35 S100
X2.25 Y10.5 S100
X2.1 Y10.65 S100
X1.95 Y10.8 S100
X1.8 Y10.95 S100
X1.65 Y11.1 S100
X1.5 Y11.25 S100
X1.35 Y11.4 S100
X1.2 Y11.55 S100
X1.05 Y11.7 S100
X0.9 Y11.85 S100
X0.75 Y12 S100
X0.6 Y12.15 S100
X0.45 Y12.3 S100
X0.3 Y12.45 S100
X0.15 Y12.6 S100
X0 Y12.75 S251
X0 Y12.9 S251
X0.15 Y12.75 S100
X0.3 Y12.6 S100
X0.45 Y12.45 S100
X0.6 Y12.3 S100
X0.75 Y12.15 S100
X0.9 Y12 S100
X1.05 Y11.85 S100
X1.2 Y11.7 S100
X1.35 Y11.55 S100
X1.5 Y11.4 S100
X1.65 Y11.25 S100
X1.8 Y11.1 S100
X1.95 Y10.95 S100
X2.1 Y10.8 S100
X2.25 Y10.65 S100
X2.4 Y10.5 S100
X2.55 Y10.35 S100
X2.7 Y10.2 S100
X2.85 Y10.05 S100
X3 Y9.9 S100
X3.15 Y9.75 S100
X3.3 Y9.6 S100
X3.45 Y9.45 S100
X3.6 Y9.3 S100
X3.75 Y9.15 S100
X3.9 Y9 S251
X4.05 Y8.85 S50
X4.2 Y8.7 S50
X4.35 Y8.55 S50
X4.5 Y8.4 S50
X4.65 Y8.25 S50
X4.8 Y8.1 S251
X4.95 Y7.95 S55
X5.1 Y7.8 S55
X5.25 Y7.65 S55
X5.4 Y7.5 S55
X5.55 Y7.35 S55
X5.7 Y7.2 S55
X5.85 Y7.05 S55
X6 Y6.9 S55
X6.15 Y6.75 S55
X6.3 Y6.6 S55
X6.45 Y6.45 S55
X6.6 Y6.3 S55
X6.75 Y6.15 S55
X6.9 Y6 S55
X7.05 Y5.85 S55
X7.2 Y5.7 S55
X7.35 Y5.55 S55
X7.5 Y5.4 S55
X7.65 Y5.25 S55
X7.8 Y5.1 S55
X7.95 Y4.95 S55
X8.1 Y4.8 S55
X8.25 Y4.65 S55
X8.4 Y4.5 S251
X8.55 Y4.35 S5
X8.7 Y4.2 S5
X8.85 Y4.05 S5
X9 Y3.9 S5
X9.15 Y3.75 S5
X9.3 Y3.6 S251
X9.45 Y3.45 S11
X9.6 Y3.3 S11
X9.75 Y3.15 S11
X9.9 Y3 S11
X10.05 Y2.85 S11
X10.2 Y2.7 S11
X10.35 Y2.55 S11
X10.5 Y2.4 S11
X10.65 Y2.25 S11
X10.8 Y2.1 S11
X10.95 Y1.95 S11
X11.1 Y1.8 S11
X11.25 Y1.65 S11
X11.4 Y1.5 S11
X11.55 Y1.35 S11
X11.7 Y1.2 S11
X11.85 Y1.05 S11
X12 Y0.9 S11
X12.15 Y0.75 S11
X12.3 Y0.6 S11
X12.45 Y0.45 S11
X12.6 Y0.3 S11
X12.75 Y0.15 S11
X12.9 Y0 S251
X13.05 Y0 S251
X12.9 Y0.15 S11
X12.75 Y0.3 S11
X12.6 Y0.45 S11
X12.45 Y0.6 S11
X12.3 Y0.75 S11
X12.15 Y0.9 S11
X12 Y1.05 S11
X11.85 Y1.2 S11
X11.7 Y1.35 S11
X11.55 Y1.5 S11
X11.4 Y1.65 S11
X11.25 Y1.8 S11
X11.1 Y1.95 S11
X10.95 Y2.1 S11
X10.8 Y2.25 S11
X10.65 Y2.4 S11
X10.5 Y2.55 S11
X10.35 Y2.7 S11
X10.2 Y2.85 S11
X10.05 Y3 S11
X9.9 Y3.15 S11
X9.75 Y3.3 S11
X9.6 Y3.45 S11
X9.45 Y3.6 S11
X9.3 Y3.75 S251
X9.15 Y3.9 S5
X9 Y4.05 S5
X8.85 Y4.2 S5
X8.7 Y4.35 S5
X8.55 Y4.5 S251
X8.4 Y4.65 S55
X8.25 Y4.8 S55
X8.1 Y4.95 S55
X7.95 Y5.1 S55
X7.8 Y5.25 S55
X7.65 Y5.4 S55
X7.5 Y5.55 S55
X7.35 Y5.7 S55
X7.2 Y5.85 S55
X7.05 Y6 S55
X6.9 Y6.15 S55
X6.75 Y6.3 S55
X6.6 Y6.45 S55
X6.45 Y6.6 S55
X6.3 Y6.75 S55
X6.15 Y6.9 S55
X6 Y7.05 S55
X5.85 Y7.2 S55
X5.7 Y7.35 S55
X5.55 Y7.5 S55
X5.4 Y7.65 S55
X5.25 Y7.8 S55
X5.1 Y7.95 S55
X4.95 Y8.1 S55
X4.8 Y8.25 S251
X4.65 Y8.4 S50
X4.5 Y8.55 S50
X4.35 Y8.7 S50
X4.2 Y8.85 S50
X4.05 Y9 S251
X3.9 Y9.15 S100
X3.75 Y9.3 S100
X3.6 Y9.45 S100
X3.45 Y9.6 S100
X3.3 Y9.75 S100
X3.15 Y9.9 S100
X3 Y10.05 S100
X2.85 Y10.2 S100
X2.7 Y10.35 S100
X2.55 Y10.5 S100
X2.4 Y10.65 S100
X2.25 Y10.8 S100
X2.1 Y10.95 S100
X1.95 Y11.1 S100
X1.8 Y11.25 S100
X1.65 Y11.4 S100
X1.5 Y11.55 S100
X1.35 Y11.7 S100
X1.2 Y11.85 S100
X1.05 Y12 S100
X0.9 Y12.15 S100
X0.75 Y12.3 S100
X0.6 Y12.45 S100
X0.45 Y12.6 S100
X0.3 Y12.75 S100
X0.15 Y12.9 S100
X0 Y13.05 S251
X0 Y13.2 S251
X0.15 Y13.05 S100
X0.3 Y12.9 S100
X0.45 Y12.75 S100
X0.6 Y12.6 S100
X0.75 Y12.45 S100
X0.9 Y12.3 S100
X1.05 Y12.15 S100
X1.2 Y12 S100
X1.35 Y11.85 S100
X1.5 Y11.7 S100
X1.65 Y11.55 S100
X1.8 Y11.4 S100
X1.95 Y11.25 S100
X2.1 Y11.1 S100
X2.25 Y10.95 S100
X2.4 Y10.8 S100
X2.55 Y10.65 S100
X2.7 Y10.5 S100
X2.85 Y10.35 S100
X3 Y10.2 S100
X3.15 Y10.05 S100
X3.3 Y9.9 S100
X3.45 Y9.75 S100
X3.6 Y9.6 S100
X3.75 Y9.45 S100
X3.9 Y9.3 S100
X4.05 Y9.15 S100
X4.2 Y9 S251
X4.35 Y8.85 S50
X4.5 Y8.7 S50
X4.65 Y8.55 S50
X4.8 Y8.4 S251
X4.95 Y8.25 S55
X5.1 Y8.1 S55
X5.25 Y7.95 S55
X5.4 Y7.8 S55
X5.55 Y7.65 S55
X5.7 Y7.5 S55
X5.85 Y7.35 S55
X6 Y7.2 S55
X6.15 Y7.05 S55
X6.3 Y6.9 S55
X6.45 Y6.75 S55
X6.6 Y6.6 S55
X6.75 Y6.45 S55
X6.9 Y6.3 S55
X7.05 Y6.15 S55
X7.2 Y6 S55
X7.35 Y5.85 S55
X7.5 Y5.7 S55
X7.65 Y5.55 S55
X7.8 Y5.4 S55
X7.95 Y5.25 S55
X8.1 Y5.1 S55
X8.25 Y4.95 S55
X8.4 Y4.8 S55
X8.55 Y4.65 S55
X8.7 Y4.5 S251
X8.85 Y4.35 S5
X9 Y4.2 S5
X9.15 Y4.05 S5
X9.3 Y3.9 S251
X9.45 Y3.75 S11
X9.6 Y3.6 S11
X9.75 Y3.45 S11
X9.9 Y3.3 S11
X10.05 Y3.15 S11
X10.2 Y3 S11
X10.35 Y2.85 S11
X10.5 Y2.7 S11
X10.65 Y2.55 S11
X10.8 Y2.4 S11
X10.95 Y2.25 S11
X11.1 Y2.1 S11
X11.25 Y1.95 S11
X11.4 Y1.8 S11
X11.55 Y1.65 S11
X11.7 Y1.5 S11
X11.85 Y1.35 S11
X12 Y1.2 S11
X12.15 Y1.05 S11
X12.3 Y0.9 S11
X12.45 Y0.75 S11
X12.6 Y0.6 S11
X12.75 Y0.45 S11
X12.9 Y0.3 S11
X13.05 Y0.15 S11
X13.2 Y0 S251
X13.35 Y0 S251
X13.2 Y0.15 S11
X13.05 Y0.3 S11
X12.9 Y0.45 S11
X12.75 Y0.6 S11
X12.6 Y0.75 S11
X12.45 Y0.9 S11
X12.3 Y1.05 S11
X12.15 Y1.2 S11
X12 Y1.35 S11
X11.85 Y1.5 S11
X11.7 Y1.65 S11
X11.55 Y1.8 S11
X11.4 Y1.95 S11
X11.25 Y2.1 S11
X11.1 Y2.25 S11
X10.95 Y2.4 S11
X10.8 Y2.55 S11
X10.65 Y2.7 S11
X10.5 Y2.85 S11
X10.35 Y3 S11
X10.2 Y3.15 S11
X10.05 Y3.3 S11
X9.9 Y3.45 S11
X9.75 Y3.6 S11
X9.6 Y3.75 S11
X9.45 Y3.9 S11
X9.3 Y4.05 S251
X9.15 Y4.2 S5
X9 Y4.35 S5
X8.85 Y4.5 S251
X8.7 Y4.65 S55
X8.55 Y4.8 S55
X8.4 Y4.95 S55
X8.25 Y5.1 S55
X8.1 Y5.25 S55
X7.95 Y5.4 S55
X7.8 Y5.55 S55
X7.65 Y5.7 S55
X7.5 Y5.85 S55
X7.35 Y6 S55
X7.2 Y6.15 S55
X7.05 Y6.3 S55
X6.9 Y6.45 S55
X6.75 Y6.6 S55
X6.6 Y6.75 S55
X6.45 Y6.9 S55
X6.3 Y7.05 S55
X6.15 Y7.2 S55
X6 Y7.35 S55
X5.85 Y7.5 S55
X5.7 Y7.65 S55
X5.55 Y7.8 S55
X5.4 Y7.95 S55
X5.25 Y8.1 S55
X5.1 Y8.25 S55
X4.95 Y8.4 S55
X4.8 Y8.55 S251
X4.65 Y8.7 S50
X4.5 Y8.85 S50
X4.35 Y9 S251
X4.2 Y9.15 S100
X4.05 Y9.3 S100
X3.9 Y9.45 S100
X3.75 Y9.6 S100
X3.6 Y9.75 S100
X3.45 Y9.9 S100
X3.3 Y10.05 S100
X3.15 Y10.2 S100
X3 Y10.35 S100
X2.85 Y10.5 S100
X2.7 Y10.65 S100
X2.55 Y10.8 S100
X2.4 Y10.95 S100
X2.25 Y11.1 S100
X2.1 Y11.25 S100
X1.95 Y11.4 S100
X1.8 Y11.55 S100
X1.65 Y11.7 S100
X1.5 Y11.85 S100
X1.35 Y12 S100
X1.2 Y12.15 S100
X1.05 Y12.3 S100
X0.9 Y12.45 S100
X0.75 Y12.6 S100
X0.6 Y12.75 S100
X0.45 Y12.9 S100
X0.3 Y13.05 S100
X0.15 Y13.2 S100
X0 Y13.35 S251
X0 Y13.5 S251
X0.15 Y13.35 S100
X0.3 Y13.2 S100
X0.45 Y13.05 S100
X0.6 Y12.9 S100
X0.75 Y12.75 S100
X0.9 Y12.6 S100
X1.05 Y12.45 S100
X1.2 Y12.3 S100
X1.35 Y12.15 S100
X1.5 Y12 S100
X1.65 Y11.85 S100
X1.8 Y11.7 S100
X1.95 Y11.55 S100
X2.1 Y11.4 S100
X2.25 Y11.25 S100
X2.4 Y11.1 S100
X2.55 Y10.95 S100
X2.7 Y10.8 S100
X2.85 Y10.65 S100
X3 Y10.5 S100
X3.15 Y10.35 S100
X3.3 Y10.2 S100
X3.45 Y10.05 S100
X3.6 Y9.9 S100
X3.75 Y9.75 S100
X3.9 Y9.6 S100
X4.05 Y9.45 S100
X4.2 Y9.3 S100
X4.35 Y9.15 S100
X4.5 Y9 S251
X4.65 Y8.85 S50
X4.8 Y8.7 S251
X4.95 Y8.55 S55
X5.1 Y8.4 S55
X5.25 Y8.25 S55
X5.4 Y8.1 S55
X5.55 Y7.95 S55
X5.7 Y7.8 S55
X5.85 Y7.65 S55
X6 Y7.5 S55
X6.15 Y7.35 S55
X6.3 Y7.2 S55
X6.45 Y7.05 S55
X6.6 Y6.9 S55
X6.75 Y6.75 S55
X6.9 Y6.6 S55
X7.05 Y6.45 S55
X7.2 Y6.3 S55
X7.35 Y6.15 S55
X7.5 Y6 S55
X7.65 Y5.85 S55
X7.8 Y5.7 S55
X7.95 Y5.55 S55
X8.1 Y5.4 S55
X8.25 Y5.25 S55
X8.4 Y5.1 S55
X8.55 Y4.95 S55
X8.7 Y4.8 S55
X8.85 Y4.65 S55
X9 Y4.5 S251
X9.15 Y4.35 S5
X9.3 Y4.2 S251
X9.45 Y4.05 S11
X9.6 Y3.9 S11
X9.75 Y3.75 S11
X9.9 Y3.6 S11
X10.05 Y3.45 S11
X10.2 Y3.3 S11
X10.35 Y3.15 S11
X10.5 Y3 S11
X10.65 Y2.85 S11
X10.8 Y2.7 S11
X10.95 Y2.55 S11
X11.1 Y2.4 S11
X11.25 Y2.25 S11
X11.4 Y2.1 S11
X11.55 Y1.95 S11
X11.7 Y1.8 S11
X11.85 Y1.65 S11
X12 Y1.5 S11
X12.15 Y1.35 S11
X12.3 Y1.2 S11
X12.45 Y1.05 S11
X12.6 Y0.9 S11
X12.75 Y0.75 S11
X12.9 Y0.6 S11
X13.05 Y0.45 S11
X13.2 Y0.3 S11
X13.35 Y0.15 S11
X13.5 Y0 S251
X13.65 Y0 S251
X13.5 Y0.15 S11
X13.35 Y0.3 S11
X13.2 Y0.45 S11
X13.05 Y0.6 S11
X12.9 Y0.75 S11
X12.75 Y0.9 S11
X12.6 Y1.05 S11
X12.45 Y1.2 S11
X12.3 Y1.35 S11
X12.15 Y1.5 S11
X12 Y1.65 S11
X11.85 Y1.8 S11
X11.7 Y1.95 S11
X11.55 Y2.1 S11
X11.4 Y2.25 S11
X11.25 Y2.4 S11
X11.1 Y2.55 S11
X10.95 Y2.7 S11
X10.8 Y2.85 S11
X10.65 Y3 S11
X10.5 Y3.15 S11
X10.35 Y3.3 S11
X10.2 Y3.45 S11
X10.05 Y3.6 S11
X9.9 Y3.75 S11
X9.75 Y3.9 S11
X9.6 Y4.05 S11
X9.45 Y4.2 S11
X9.3 Y4.35 S251
X9.15 Y4.5 S251
X9 Y4.65 S55
X8.85 Y4.8 S55
X8.7 Y4.95 S55
X8.55 Y5.1 S55
X8.4 Y5.25 S55
X8.25 Y5.4 S55
X8.1 Y5.55 S55
X7.95 Y5.7 S55
X7.8 Y5.85 S55
X7.65 Y6 S55
X7.5 Y6.15 S55
X7.35 Y6.3 S55
X7.2 Y6.45 S55
X7.05 Y6.6 S55
X6.9 Y6.75 S55
X6.75 Y6.9 S55
X6.6 Y7.05 S55
X6.45 Y7.2 S55
X6.3 Y7.35 S55
X6.15 Y7.5 S55
X6 Y7.65 S55
X5.85 Y7.8 S55
X5.7 Y7.95 S55
X5.55 Y8.1 S55
X5.4 Y8.25 S55
X5.25 Y8.4 S55
X5.1 Y8.55 S55
X4.95 Y8.7 S55
X4.8 Y8.85 S251
X4.65 Y9 S251
X4.5 Y9.15 S100
X4.35 Y9.3 S100
X4.2 Y9.45 S100
X4.05 Y9.6 S100
X3.9 Y9.75 S100
X3.75 Y9.9 S100
X3.6 Y10.05 S100
X3.45 Y10.2 S100
X3.3 Y10.35 S100
X3.15 Y10.5 S100
X3 Y10.65 S100
X2.85 Y10.8 S100
X2.7 Y10.95 S100
X2.55 Y11.1 S100
X2.4 Y11.25 S100
X2.25 Y11.4 S100
X2.1 Y11.55 S100
X1.95 Y11.7 S100
X1.8 Y11.85 S100
X1.65 Y12 S100
X1.5 Y12.15 S100
X1.35 Y12.3 S100
X1.2 Y12.45 S100
X1.05 Y12.6 S100
X0.9 Y12.75 S100
X0.75 Y12.9 S100
X0.6 Y13.05 S100
X0.45 Y13.2 S100
X0.3 Y13.35 S100
X0.15 Y13.5 S251
X0 Y13.65 S251
X0 Y13.8 S251
X0.15 Y13.65 S105
X0.3 Y13.5 S251
X0.45 Y13.35 S100
X0.6 Y13.2 S100
X0.75 Y13.05 S100
X0.9 Y12.9 S100
X1.05 Y12.75 S100
X1.2 Y12.6 S100
X1.35 Y12.45 S100
X1.5 Y12.3 S100
X1.65 Y12.15 S100
X1.8 Y12 S100
X1.95 Y11.85 S100
X2.1 Y11.7 S100
X2.25 Y11.55 S100
X2.4 Y11.4 S100
X2.55 Y11.25 S100
X2.7 Y11.1 S100
X2.85 Y10.95 S100
X3 Y10.8 S100
X3.15 Y10.65 S100
X3.3 Y10.5 S100
X3.45 Y10.35 S100
X3.6 Y10.2 S100
X3.75 Y10.05 S100
X3.9 Y9.9 S100
X4.05 Y9.75 S100
X4.2 Y9.6 S100
X4.35 Y9.45 S100
X4.5 Y9.3 S100
X4.65 Y9.15 S100
X4.8 Y9 S251
X4.95 Y8.85 S55
X5.1 Y8.7 S55
X5.25 Y8.55 S55
X5.4 Y8.4 S55
X5.55 Y8.25 S55
X5.7 Y8.1 S55
X5.85 Y7.95 S55
X6 Y7.8 S55
X6.15 Y7.65 S55
X6.3 Y7.5 S55
X6.45 Y7.35 S55
X6.6 Y7.2 S55
X6.75 Y7.05 S55
X6.9 Y6.9 S55
X7.05 Y6.75 S55
X7.2 Y6.6 S55
X7.35 Y6.45 S55
X7.5 Y6.3 S55
X7.65 Y6.15 S55
X7.8 Y6 S55
X7.95 Y5.85 S55
X8.1 Y5.7 S55
X8.25 Y5.55 S55
X8.4 Y5.4 S55
X8.55 Y5.25 S55
X8.7 Y5.1 S55
X8.85 Y4.95 S55
X9 Y4.8 S55
X9.15 Y4.65 S55
X9.3 Y4.5 S251
X9.45 Y4.35 S11
X9.6 Y4.2 S11
X9.75 Y4.05 S11
X9.9 Y3.9 S11
X10.05 Y3.75 S11
X10.2 Y3.6 S11
X10.35 Y3.45 S11
X10.5 Y3.3 S11
X10.65 Y3.15 S11
X10.8 Y3 S11
X10.95 Y2.85 S11
X11.1 Y2.7 S11
X11.25 Y2.55 S11
X11.4 Y2.4 S11
X11.55 Y2.25 S11
X11.7 Y2.1 S11
X11.85 Y1.95 S11
X12 Y1.8 S11
X12.15 Y1.65 S11
X12.3 Y1.5 S11
X12.45 Y1.35 S11
X12.6 Y1.2 S11
X12.75 Y1.05 S11
X12.9 Y0.9 S11
X13.05 Y0.75 S11
X13.2 Y0.6 S11
X13.35 Y0.45 S11
X13.5 Y0.3 S11
X13.65 Y0.15 S11
X13.8 Y0 S251
X13.95 Y0 S251
X13.8 Y0.15 S11
X13.65 Y0.3 S11
X13.5 Y0.45 S11
X13.35 Y0.6 S11
X13.2 Y0.75 S11
X13.05 Y0.9 S11
X12.9 Y1.05 S11
X12.75 Y1.2 S11
X12.6 Y1.35 S11
X12.45 Y1.5 S11
X12.3 Y1.65 S11
X12.15 Y1.8 S11
X12 Y1.95 S11
X11.85 Y2.1 S11
X11.7 Y2.25 S11
X11.55 Y2.4 S11
X11.4 Y2.55 S11
X11.25 Y2.7 S11
X11.1 Y2.85 S11
X10.95 Y3 S11
X10.8 Y3.15 S11
X10.65 Y3.3 S11
X10.5 Y3.45 S11
X10.35 Y3.6 S11
X10.2 Y3.75 S11
X10.05 Y3.9 S11
X9.9 Y4.05 S11
X9.75 Y4.2 S11
X9.6 Y4.35 S11
X9.45 Y4.5 S251
X9.3 Y4.65 S251
X9.15 Y4.8 S55
X9 Y4.95 S55
X8.85 Y5.1 S55
X8.7 Y5.25 S55
X8.55 Y5.4 S55
X8.4 Y5.55 S55
X8.25 Y5.7 S55
X8.1 Y5.85 S55
X7.95 Y6 S55
X7.8 Y6.15 S55
X7.65 Y6.3 S55
X7.5 Y6.45 S55
X7.35 Y6.6 S55
X7.2 Y6.75 S55
X7.05 Y6.9 S55
X6.9 Y7.05 S55
X6.75 Y7.2 S55
X6.6 Y7.35 S55
X6.45 Y7.5 S55
X6.3 Y7.65 S55
X6.15 Y7.8 S55
X6 Y7.95 S55
X5.85 Y8.1 S55
X5.7 Y8.25 S55
X5.55 Y8.4 S55
X5.4 Y8.55 S55
X5.25 Y8.7 S55
X5.1 Y8.85 S55
X4.95 Y9 S251
X4.8 Y9.15 S251
X4.65 Y9.3 S100
X4.5 Y9.45 S100
X4.35 Y9.6 S100
X4.2 Y9.75 S100
X4.05 Y9.9 S100
X3.9 Y10.05 S100
X3.75 Y10.2 S100
X3.6 Y10.35 S100
X3.45 Y10.5 S100
X3.3 Y10.65 S100
X3.15 Y10.8 S100
X3 Y10.95 S100
X2.85 Y11.1 S100
X2.7 Y11.25 S100
X2.55 Y11.4 S100
X2.4 Y11.55 S100
X2.25 Y11.7 S100
X2.1 Y11.85 S100
X1.95 Y12 S100
X1.8 Y12.15 S100
X1.65 Y12.3 S100
X1.5 Y12.45 S100
X1.35 Y12.6 S100
X1.2 Y12.75 S100
X1.05 Y12.9 S100
X0.9 Y13.05 S100
X0.75 Y13.2 S100
X0.6 Y13.35 S100
X0.45 Y13.5 S251
X0.3 Y13.65 S105
X0.15 Y13.8 S105
X0 Y13.95 S251
X0 Y14.1 S251
X0.15 Y13.95 S105
X0.3 Y13.8 S105
X0.45 Y13.65 S105
X0.6 Y13.5 S251
X0.75 Y13.35 S100
X0.9 Y13.2 S100
X1.05 Y13.05 S100
X1.2 Y12.9 S100
X1.35 Y12.75 S100
X1.5 Y12.6 S100
X1.65 Y12.45 S100
X1.8 Y12.3 S100
X1.95 Y12.15 S100
X2.1 Y12 S100
X2.25 Y11.85 S100
X2.4 Y11.7 S100
X2.55 Y11.55 S100
X2.7 Y11.4 S100
X2.85 Y11.25 S100
X3 Y11.1 S100
X3.15 Y10.95 S100
X3.3 Y10.8 S100
X3.45 Y10.65 S100
X3.6 Y10.5 S100
X3.75 Y10.35 S100
X3.9 Y10.2 S100
X4.05 Y10.05 S100
X4.2 Y9.9 S100
X4.35 Y9.75 S100
X4.5 Y9.6 S100
X4.65 Y9.45 S100
X4.8 Y9.3 S251
X4.95 Y9.15 S105
X5.1 Y9 S251
X5.25 Y8.85 S55
X5.4 Y8.7 S55
X5.55 Y8.55 S55
X5.7 Y8.4 S55
X5.85 Y8.25 S55
X6 Y8.1 S55
X6.15 Y7.95 S55
X6.3 Y7.8 S55
X6.45 Y7.65 S55
X6.6 Y7.5 S55
X6.75 Y7.35 S55
X6.9 Y7.2 S55
X7.05 Y7.05 S55
X7.2 Y6.9 S55
X7.35 Y6.75 S55
X7.5 Y6.6 S55
X7.65 Y6.45 S55
X7.8 Y6.3 S55
X7.95 Y6.15 S55
X8.1 Y6 S55
X8.25 Y5.85 S55
X8.4 Y5.7 S55
X8.55 Y5.55 S55
X8.7 Y5.4 S55
X8.85 Y5.25 S55
X9 Y5.1 S55
X9.15 Y4.95 S55
X9.3 Y4.8 S251
X9.45 Y4.65 S60
X9.6 Y4.5 S251
X9.75 Y4.35 S11
X9.9 Y4.2 S11
X10.05 Y4.05 S11
X10.2 Y3.9 S11
X10.35 Y3.75 S11
X10.5 Y3.6 S11
X10.65 Y3.45 S11
X10.8 Y3.3 S11
X10.95 Y3.15 S11
X11.1 Y3 S11
X11.25 Y2.85 S11
X11.4 Y2.7 S11
X11.55 Y2.55 S11
X11.7 Y2.4 S11
X11.85 Y2.25 S11
X12 Y2.1 S11
X12.15 Y1.95 S11
X12.3 Y1.8 S11
X12.45 Y1.65 S11
X12.6 Y1.5 S11
X12.75 Y1.35 S11
X12.9 Y1.2 S11
X13.05 Y1.05 S11
X13.2 Y0.9 S11
X13.35 Y0.75 S11
X13.5 Y0.6 S11
X13.65 Y0.45 S11
X13.8 Y0.3 S11
X13.95 Y0.15 S251
X14.1 Y0 S251
X14.25 Y0 S251
X14.1 Y0.15 S15
X13.95 Y0.3 S251
X13.8 Y0.45 S11
X13.65 Y0.6 S11
X13.5 Y0.75 S11
X13.35 Y0.9 S11
X13.2 Y1.05 S11
X13.05 Y1.2 S11
X12.9 Y1.35 S11
X12.75 Y1.5 S11
X12.6 Y1.65 S11
X12.45 Y1.8 S11
X12.3 Y1.95 S11
X12.15 Y2.1 S11
X12 Y2.25 S11
X11.85 Y2.4 S11
X11.7 Y2.55 S11
X11.55 Y2.7 S11
X11.4 Y2.85 S11
X11.25 Y3 S11
X11.1 Y3.15 S11
X10.95 Y3.3 S11
X10.8 Y3.45 S11
X10.65 Y3.6 S11
X10.5 Y3.75 S11
X10.35 Y3.9 S11
X10.2 Y4.05 S11
X10.05 Y4.2 S11
X9.9 Y4.35 S11
X9.75 Y4.5 S251
X9.6 Y4.65 S60
X9.45 Y4.8 S60
X9.3 Y4.95 S251
X9.15 Y5.1 S55
X9 Y5.25 S55
X8.85 Y5.4 S55
X8.7 Y5.55 S55
X8.55 Y5.7 S55
X8.4 Y5.85 S55
X8.25 Y6 S55
X8.1 Y6.15 S55
X7.95 Y6.3 S55
X7.8 Y6.45 S55
X7.65 Y6.6 S55
X7.5 Y6.75 S55
X7.35 Y6.9 S55
X7.2 Y7.05 S55
X7.05 Y7.2 S55
X6.9 Y7.35 S55
X6.75 Y7.5 S55
X6.6 Y7.65 S55
X6.45 Y7.8 S55
X6.3 Y7.95 S55
X6.15 Y8.1 S55
X6 Y8.25 S55
X5.85 Y8.4 S55
X5.7 Y8.55 S55
X5.55 Y8.7 S55
X5.4 Y8.85 S55
X5.25 Y9 S251
X5.1 Y9.15 S105
X4.95 Y9.3 S105
X4.8 Y9.45 S251
X4.65 Y9.6 S100
X4.5 Y9.75 S100
X4.35 Y9.9 S100
X4.2 Y10.05 S100
X4.05 Y10.2 S100
X3.9 Y10.35 S100
X3.75 Y10.5 S100
X3.6 Y10.65 S100
X3.45 Y10.8 S100
X3.3 Y10.95 S100
X3.15 Y11.1 S100
X3 Y11.25 S100
X2.85 Y11.4 S100
X2.7 Y11.55 S100
X2.55 Y11.7 S100
X2.4 Y11.85 S100
X2.25 Y12 S100
X2.1 Y12.15 S100
X1.95 Y12.3 S100
X1.8 Y12.45 S100
X1.65 Y12.6 S100
X1.5 Y12.75 S100
X1.35 Y12.9 S100
X1.2 Y13.05 S100
X1.05 Y13.2 S100
X0.9 Y13.35 S100
X0.75 Y13.5 S251
X0.6 Y13.65 S105
X0.45 Y13.8 S105
X0.3 Y13.95 S105
X0.15 Y14.1 S105
X0 Y14.25 S251
X0 Y14.4 S251
X0.15 Y14.25 S105
X0.3 Y14.1 S105
X0.45 Y13.95 S105
X0.6 Y13.8 S105
X0.75 Y13.65 S105
X0.9 Y13.5 S251
X1.05 Y13.35 S100
X1.2 Y13.2 S100
X1.35 Y13.05 S100
X1.5 Y12.9 S100
X1.65 Y12.75 S100
X1.8 Y12.6 S100
X1.95 Y12.45 S100
X2.1 Y12.3 S100
X2.25 Y12.15 S100
X2.4 Y12 S100
X2.55 Y11.85 S100
X2.7 Y11.7 S100
X2.85 Y11.55 S100
X3 Y11.4 S100
X3.15 Y11.25 S100
X3.3 Y11.1 S100
X3.45 Y10.95 S100
X3.6 Y10.8 S100
X3.75 Y10.65 S100
X3.9 Y10.5 S100
X4.05 Y10.35 S100
X4.2 Y10.2 S100
X4.35 Y10.05 S100
X4.5 Y9.9 S100
X4.65 Y9.75 S100
X4.8 Y9.6 S251
X4.95 Y9.45 S105
X5.1 Y9.3 S105
X5.25 Y9.15 S105
X5.4 Y9 S251
X5.55 Y8.85 S55
X5.7 Y8.7 S55
X5.85 Y8.55 S55
X6 Y8.4 S55
X6.15 Y8.25 S55
X6.3 Y8.1 S55
X6.45 Y7.95 S55
X6.6 Y7.8 S55
X6.75 Y7.65 S55
X6.9 Y7.5 S55
X7.05 Y7.35 S55
X7.2 Y7.2 S55
X7.35 Y7.05 S55
X7.5 Y6.9 S55
X7.65 Y6.75 S55
X7.8 Y6.6 S55
X7.95 Y6.45 S55
X8.1 Y6.3 S55
X8.25 Y6.15 S55
X8.4 Y6 S55
X8.55 Y5.85 S55
X8.7 Y5.7 S55
X8.85 Y5.55 S55
X9 Y5.4 S55
X9.15 Y5.25 S55
X9.3 Y5.1 S251
X9.45 Y4.95 S60
X9.6 Y4.8 S60
X9.75 Y4.65 S60
X9.9 Y4.5 S251
X10.05 Y4.35 S11
X10.2 Y4.2 S11
X10.35 Y4.05 S11
X10.5 Y3.9 S11
X10.65 Y3.75 S11
X10.8 Y3.6 S11
X10.95 Y3.45 S11
X11.1 Y3.3 S11
X11.25 Y3.15 S11
X11.4 Y3 S11
X11.55 Y2.85 S11
X11.7 Y2.7 S11
X11.85 Y2.55 S11
X12 Y2.4 S11
X12.15 Y2.25 S11
X12.3 Y2.1 S11
X12.45 Y1.95 S11
X12.6 Y1.8 S11
X12.75 Y1.65 S11
X12.9 Y1.5 S11
X13.05 Y1.35 S11
X13.2 Y1.2 S11
X13.35 Y1.05 S11
X13.5 Y0.9 S11
X13.65 Y0.75 S11
X13.8 Y0.6 S11
X13.95 Y0.45 S251
X14.1 Y0.3 S15
X14.25 Y0.15 S15
X14.4 Y0 S251
X14.55 Y0 S251
X14.4 Y0.15 S15
X14.25 Y0.3 S15
X14.1 Y0.45 S15
X13.95 Y0.6 S251
X13.8 Y0.75 S11
X13.65 Y0.9 S11
X13.5 Y1.05 S11
X13.35 Y1.2 S11
X13.2 Y1.35 S11
X13.05 Y1.5 S11
X12.9 Y1.65 S11
X12.75 Y1.8 S11
X12.6 Y1.95 S11
X12.45 Y2.1 S11
X12.3 Y2.25 S11
X12.15 Y2.4 S11
X12 Y2.55 S11
X11.85 Y2.7 S11
X11.7 Y2.85 S11
X11.55 Y3 S11
X11.4 Y3.15 S11
X11.25 Y3.3 S11
X11.1 Y3.45 S11
X10.95 Y3.6 S11
X10.8 Y3.75 S11
X10.65 Y3.9 S11
X10.5 Y4.05 S11
X10.35 Y4.2 S11
X10.2 Y4.35 S11
X10.05 Y4.5 S251
X9.9 Y4.65 S60
X9.75 Y4.8 S60
X9.6 Y4.95 S60
X9.45 Y5.1 S60
X9.3 Y5.25 S251
X9.15 Y5.4 S55
X9 Y5.55 S55
X8.85 Y5.7 S55
X8.7 Y5.85 S55
X8.55 Y6 S55
X8.4 Y6.15 S55
X8.25 Y6.3 S55
X8.1 Y6.45 S55
X7.95 Y6.6 S55
X7.8 Y6.75 S55
X7.65 Y6.9 S55
X7.5 Y7.05 S55
X7.35 Y7.2 S55
X7.2 Y7.35 S55
X7.05 Y7.5 S55
X6.9 Y7.65 S55
X6.75 Y7.8 S55
X6.6 Y7.95 S55
X6.45 Y8.1 S55
X6.3 Y8.25 S55
X6.15 Y8.4 S55
X6 Y8.55 S55
X5.85 Y8.7 S55
X5.7 Y8.85 S55
X5.55 Y9 S251
X5.4 Y9.15 S105
X5.25 Y9.3 S105
X5.1 Y9.45 S105
X4.95 Y9.6 S105
X4.8 Y9.75 S251
X4.65 Y9.9 S100
X4.5 Y10.05 S100
X4.35 Y10.2 S100
X4.2 Y10.35 S100
X4.05 Y10.5 S100
X3.9 Y10.65 S100
X3.75 Y10.8 S100
X3.6 Y10.95 S100
X3.45 Y11.1 S100
X3.3 Y11.25 S100
X3.15 Y11.4 S100
X3 Y11.55 S100
X2.85 Y11.7 S100
X2.7 Y11.85 S100
X2.55 Y12 S100
X2.4 Y12.15 S100
X2.25 Y12.3 S100
X2.1 Y12.45 S100
X1.95 Y12.6 S100
X1.8 Y12.75 S100
X1.65 Y12.9 S100
X1.5 Y13.05 S100
X1.35 Y13.2 S100
X1.2 Y13.35 S100
X1.05 Y13.5 S251
X0.9 Y13.65 S105
X0.75 Y13.8 S105
X0.6 Y13.95 S105
X0.45 Y14.1 S105
X0.3 Y14.25 S105
X0.15 Y14.4 S105
X0 Y14.55 S251
X0 Y14.7 S251
X0.15 Y14.55 S105
X0.3 Y14.4 S105
X0.45 Y14.25 S105
X0.6 Y14.1 S105
X0.75 Y13.95 S105
X0.9 Y13.8 S105
X1.05 Y13.65 S105
X1.2 Y13.5 S251
X1.35 Y13.35 S100
X1.5 Y13.2 S100
X1.65 Y13.05 S100
X1.8 Y12.9 S100
X1.95 Y12.75 S100
X2.1 Y12.6 S100
X2.25 Y12.45 S100
X2.4 Y12.3 S100
X2.55 Y12.15 S100
X2.7 Y12 S100
X2.85 Y11.85 S100
X3 Y11.7 S100
X3.15 Y11.55 S100
X3.3 Y11.4 S100
X3.45 Y11.25 S100
X3.6 Y11.1 S100
X3.75 Y10.95 S100
X3.9 Y10.8 S100
X4.05 Y10.65 S100
X4.2 Y10.5 S100
X4.35 Y10.35 S100
X4.5 Y10.2 S100
X4.65 Y10.05 S100
X4.8 Y9.9 S251
X4.95 Y9.75 S105
X5.1 Y9.6 S105
X5.25 Y9.45 S105
X5.4 Y9.3 S105
X5.55 Y9.15 S105
X5.7 Y9 S251
X5.85 Y8.85 S55
X6 Y8.7 S55
X6.15 Y8.55 S55
X6.3 Y8.4 S55
X6.45 Y8.25 S55
X6.6 Y8.1 S55
X6.75 Y7.95 S55
X6.9 Y7.8 S55
X7.05 Y7.65 S55
X7.2 Y7.5 S55
X7.35 Y7.35 S55
X7.5 Y7.2 S55
X7.65 Y7.05 S55
X7.8 Y6.9 S55
X7.95 Y6.75 S55
X8.1 Y6.6 S55
X8.25 Y6.45 S55
X8.4 Y6.3 S55
X8.55 Y6.15 S55
X8.7 Y6 S55
X8.85 Y5.85 S55
X9 Y5.7 S55
X9.15 Y5.55 S55
X9.3 Y5.4 S251
X9.45 Y5.25 S60
X9.6 Y5.1 S60
X9.75 Y4.95 S60
X9.9 Y4.8 S60
X10.05 Y4.65 S60
X10.2 Y4.5 S251
X10.35 Y4.35 S11
X10.5 Y4.2 S11
X10.65 Y4.05 S11
X10.8 Y3.9 S11
X10.95 Y3.75 S11
X11.1 Y3.6 S11
X11.25 Y3.45 S11
X11.4 Y3.3 S11
X11.55 Y3.15 S11
X11.7 Y3 S11
X11.85 Y2.85 S11
X12 Y2.7 S11
X12.15 Y2.55 S11
X12.3 Y2.4 S11
X12.45 Y2.25 S11
X12.6 Y2.1 S11
X12.75 Y1.95 S11
X12.9 Y1.8 S11
X13.05 Y1.65 S11
X13.2 Y1.5 S11
X13.35 Y1.35 S11
X13.5 Y1.2 S11
X13.65 Y1.05 S11
X13.8 Y0.9 S11
X13.95 Y0.75 S251
X14.1 Y0.6 S15
X14.25 Y0.45 S15
X14.4 Y0.3 S15
X14.55 Y0.15 S15
X14.7 Y0 S251
X14.85 Y0 S251
X14.7 Y0.15 S15
X14.55 Y0.3 S15
X14.4 Y0.45 S15
X14.25 Y0.6 S15
X14.1 Y0.75 S15
X13.95 Y0.9 S251
X13.8 Y1.05 S11
X13.65 Y1.2 S11
X13.5 Y1.35 S11
X13.35 Y1.5 S11
X13.2 Y1.65 S11
X13.05 Y1.8 S11
X12.9 Y1.95 S11
X12.75 Y2.1 S11
X12.6 Y2.25 S11
X12.45 Y2.4 S11
X12.3 Y2.55 S11
X12.15 Y2.7 S11
X12 Y2.85 S11
X11.85 Y3 S11
X11.7 Y3.15 S11
X11.55 Y3.3 S11
X11.4 Y3.45 S11
X11.25 Y3.6 S11
X11.1 Y3.75 S11
X10.95 Y3.9 S11
X10.8 Y4.05 S11
X10.65 Y4.2 S11
X10.5 Y4.35 S11
X10.35 Y4.5 S251
X10.2 Y4.65 S60
X10.05 Y4.8 S60
X9.9 Y4.95 S60
X9.75 Y5.1 S60
X9.6 Y5.25 S60
X9.45 Y5.4 S60
X9.3 Y5.55 S251
X9.15 Y5.7 S55
X9 Y5.85 S55
X8.85 Y6 S55
X8.7 Y6.15 S55
X8.55 Y6.3 S55
X8.4 Y6.45 S55
X8.25 Y6.6 S55
X8.1 Y6.75 S55
X7.95 Y6.9 S55
X7.8 Y7.05 S55
X7.65 Y7.2 S55
X7.5 Y7.35 S55
X7.35 Y7.5 S55
X7.2 Y7.65 S55
X7.05 Y7.8 S55
X6.9 Y7.95 S55
X6.75 Y8.1 S55
X6.6 Y8.25 S55
X6.45 Y8.4 S55
X6.3 Y8.55 S55
X6.15 Y8.7 S55
X6 Y8.85 S55
X5.85 Y9 S251
X5.7 Y9.15 S105
X5.55 Y9.3 S105
X5.4 Y9.45 S105
X5.25 Y9.6 S105
X5.1 Y9.75 S105
X4.95 Y9.9 S105
X4.8 Y10.05 S251
X4.65 Y10.2 S100
X4.5 Y10.35 S100
X4.35 Y10.5 S100
X4.2 Y10.65 S100
X4.05 Y10.8 S100
X3.9 Y10.95 S100
X3.75 Y11.1 S100
X3.6 Y11.25 S100
X3.45 Y11.4 S100
X3.3 Y11.55 S100
X3.15 Y11.7 S100
X3 Y11.85 S100
X2.85 Y12 S100
X2.7 Y12.15 S100
X2.55 Y12.3 S100
X2.4 Y12.45 S100
X2.25 Y12.6 S100
X2.1 Y12.75 S100
X1.95 Y12.9 S100
X1.8 Y13.05 S100
X1.65 Y13.2 S100
X1.5 Y13.35 S100
X1.35 Y13.5 S251
X1.2 Y13.65 S105
X1.05 Y13.8 S105
X0.9 Y13.95 S105
X0.75 Y14.1 S105
X0.6 Y14.25 S105
X0.45 Y14.4 S105
X0.3 Y14.55 S105
X0.15 Y14.7 S105
X0 Y14.85 S251
X0 Y15 S251
X0.15 Y14.85 S105
X0.3 Y14.7 S105
X0.45 Y14.55 S105
X0.6 Y14.4 S105
X0.75 Y14.25 S105
X0.9 Y14.1 S105
X1.05 Y13.95 S105
X1.2 Y13.8 S105
X1.35 Y13.65 S105
X1.5 Y13.5 S251
X1.65 Y13.35 S100
X1.8 Y13.2 S100
X1.95 Y13.05 S100
X2.1 Y12.9 S100
X2.25 Y12.75 S100
X2.4 Y12.6 S100
X2.55 Y12.45 S100
X2.7 Y12.3 S100
X2.85 Y12.15 S100
X3 Y12 S100
X3.15 Y11.85 S100
X3.3 Y11.7 S100
X3.45 Y11.55 S100
X3.6 Y11.4 S100
X3.75 Y11.25 S100
X3.9 Y11.1 S100
X4.05 Y10.95 S100
X4.2 Y10.8 S100
X4.35 Y10.65 S100
X4.5 Y10.5 S100
X4.65 Y10.35 S100
X4.8 Y10.2 S251
X4.95 Y10.05 S105
X5.1 Y9.9 S105
X5.25 Y9.75 S105
X5.4 Y9.6 S105
X5.55 Y9.45 S105
X5.7 Y9.3 S105
X5.85 Y9.15 S105
X6 Y9 S251
X6.15 Y8.85 S55
X6.3 Y8.7 S55
X6.45 Y8.55 S55
X6.6 Y8.4 S55
X6.75 Y8.25 S55
X6.9 Y8.1 S55
X7.05 Y7.95 S55
X7.2 Y7.8 S55
X7.35 Y7.65 S55
X7.5 Y7.5 S55
X7.65 Y7.35 S55
X7.8 Y7.2 S55
X7.95 Y7.05 S55
X8.1 Y6.9 S55
X8.25 Y6.75 S55
X8.4 Y6.6 S55
X8.55 Y6.45 S55
X8.7 Y6.3 S55
X8.85 Y6.15 S55
X9 Y6 S55
X9.15 Y5.85 S55
X9.3 Y5.7 S251
X9.45 Y5.55 S60
X9.6 Y5.4 S60
X9.75 Y5.25 S60
X9.9 Y5.1 S60
X10.05 Y4.95 S60
X10.2 Y4.8 S60
X10.35 Y4.65 S60
X10.5 Y4.5 S251
X10.65 Y4.35 S11
X10.8 Y4.2 S11
X10.95 Y4.05 S11
X11.1 Y3.9 S11
X11.25 Y3.75 S11
X11.4 Y3.6 S11
X11.55 Y3.45 S11
X11.7 Y3.3 S11
X11.85 Y3.15 S11
X12 Y3 S11
X12.15 Y2.85 S11
X12.3 Y2.7 S11
X12.45 Y2.55 S11
X12.6 Y2.4 S11
X12.75 Y2.25 S11
X12.9 Y2.1 S11
X13.05 Y1.95 S11
X13.2 Y1.8 S11
X13.35 Y1.65 S11
X13.5 Y1.5 S11
X13.65 Y1.35 S11
X13.8 Y1.2 S11
X13.95 Y1.05 S251
X14.1 Y0.9 S15
X14.25 Y0.75 S15
X14.4 Y0.6 S15
X14.55 Y0.45 S15
X14.7 Y0.3 S15
X14.85 Y0.15 S15
X15 Y0 S251
X15.15 Y0 S251
X15 Y0.15 S15
X14.85 Y0.3 S15
X14.7 Y0.45 S15
X14.55 Y0.6 S15
X14.4 Y0.75 S15
X14.25 Y0.9 S15
X14.1 Y1.05 S15
X13.95 Y1.2 S251
X13.8 Y1.35 S11
X13.65 Y1.5 S11
X13.5 Y1.65 S11
X13.35 Y1.8 S11
X13.2 Y1.95 S11
X13.05 Y2.1 S11
X12.9 Y2.25 S11
X12.75 Y2.4 S11
X12.6 Y2.55 S11
X12.45 Y2.7 S11
X12.3 Y2.85 S11
X12.15 Y3 S11
X12 Y3.15 S11
X11.85 Y3.3 S11
X11.7 Y3.45 S11
X11.55 Y3.6 S11
X11.4 Y3.75 S11
X11.25 Y3.9 S11
X11.1 Y4.05 S11
X10.95 Y4.2 S11
X10.8 Y4.35 S11
X10.65 Y4.5 S251
X10.5 Y4.65 S60
X10.35 Y4.8 S60
X10.2 Y4.95 S60
X10.05 Y5.1 S60
X9.9 Y5.25 S60
X9.75 Y5.4 S60
X9.6 Y5.55 S60
X9.45 Y5.7 S60
X9.3 Y5.85 S251
X9.15 Y6 S55
X9 Y6.15 S55
X8.85 Y6.3 S55
X8.7 Y6.45 S55
X8.55 Y6.6 S55
X8.4 Y6.75 S55
X8.25 Y6.9 S55
X8.1 Y7.05 S55
X7.95 Y7.2 S55
X7.8 Y7.35 S55
X7.65 Y7.5 S55
X7.5 Y7.65 S55
X7.35 Y7.8 S55
X7.2 Y7.95 S55
X7.05 Y8.1 S55
X6.9 Y8.25 S55
X6.75 Y8.4 S55
X6.6 Y8.55 S55
X6.45 Y8.7 S55
X6.3 Y8.85 S55
X6.15 Y9 S251
X6 Y9.15 S105
X5.85 Y9.3 S105
X5.7 Y9.45 S105
X5.55 Y9.6 S105
X5.4 Y9.75 S105
X5.25 Y9.9 S105
X5.1 Y10.05 S105
X4.95 Y10.2 S105
X4.8 Y10.35 S251
X4.65 Y10.5 S100
X4.5 Y10.65 S100
X4.35 Y10.8 S100
X4.2 Y10.95 S100
X4.05 Y11.1 S100
X3.9 Y11.25 S100
X3.75 Y11.4 S100
X3.6 Y11.55 S100
X3.45 Y11.7 S100
X3.3 Y11.85 S100
X3.15 Y12 S100
X3 Y12.15 S100
X2.85 Y12.3 S100
X2.7 Y12.45 S100
X2.55 Y12.6 S100
X2.4 Y12.75 S100
X2.25 Y12.9 S100
X2.1 Y13.05 S100
X1.95 Y13.2 S100
X1.8 Y13.35 S100
X1.65 Y13.5 S251
X1.5 Y13.65 S105
X1.35 Y13.8 S105
X1.2 Y13.95 S105
X1.05 Y14.1 S105
X0.9 Y14.25 S105
X0.75 Y14.4 S105
X0.6 Y14.55 S105
X0.45 Y14.7 S105
X0.3 Y14.85 S105
X0.15 Y15 S105
X0 Y15.15 S251
X0 Y15.3 S251
X0.15 Y15.15 S105
X0.3 Y15 S105
X0.45 Y14.85 S105
X0.6 Y14.7 S105
X0.75 Y14.55 S105
X0.9 Y14.4 S105
X1.05 Y14.25 S105
X1.2 Y14.1 S105
X1.35 Y13.95 S105
X1.5 Y13.8 S105
X1.65 Y13.65 S105
X1.8 Y13.5 S251
X1.95 Y13.35 S100
X2.1 Y13.2 S100
X2.25 Y13.05 S100
X2.4 Y12.9 S100
X2.55 Y12.75 S100
X2.7 Y12.6 S100
X2.85 Y12.45 S100
X3 Y12.3 S100
X3.15 Y12.15 S100
X3.3 Y12 S100
X3.45 Y11.85 S100
X3.6 Y11.7 S100
X3.75 Y11.55 S100
X3.9 Y11.4 S100
X4.05 Y11.25 S100
X4.2 Y11.1 S100
X4.35 Y10.95 S100
X4.5 Y10.8 S100
X4.65 Y10.65 S100
X4.8 Y10.5 S251
X4.95 Y10.35 S105
X5.1 Y10.2 S105
X5.25 Y10.05 S105
X5.4 Y9.9 S105
X5.55 Y9.75 S105
X5.7 Y9.6 S105
X5.85 Y9.45 S105
X6 Y9.3 S105
X6.15 Y9.15 S105
X6.3 Y9 S251
X6.45 Y8.85 S55
X6.6 Y8.7 S55
X6.75 Y8.55 S55
X6.9 Y8.4 S55
X7.05 Y8.25 S55
X7.2 Y8.1 S55
X7.35 Y7.95 S55
X7.5 Y7.8 S55
X7.65 Y7.65 S55
X7.8 Y7.5 S55
X7.95 Y7.35 S55
X8.1 Y7.2 S55
X8.25 Y7.05 S55
X8.4 Y6.9 S55
X8.55 Y6.75 S55
X8.7 Y6.6 S55
X8.85 Y6.45 S55
X9 Y6.3 S55
X9.15 Y6.15 S55
X9.3 Y6 S251
X9.45 Y5.85 S60
X9.6 Y5.7 S60
X9.75 Y5.55 S60
X9.9 Y5.4 S60
X10.05 Y5.25 S60
X10.2 Y5.1 S60
X10.35 Y4.95 S60
X10.5 Y4.8 S60
X10.65 Y4.65 S60
X10.8 Y4.5 S251
X10.95 Y4.35 S11
X11.1 Y4.2 S11
X11.25 Y4.05 S11
X11.4 Y3.9 S11
X11.55 Y3.75 S11
X11.7 Y3.6 S11
X11.85 Y3.45 S11
X12 Y3.3 S11
X12.15 Y3.15 S11
X12.3 Y3 S11
X12.45 Y2.85 S11
X12.6 Y2.7 S11
X12.75 Y2.55 S11
X12.9 Y2.4 S11
X13.05 Y2.25 S11
X13.2 Y2.1 S11
X13.35 Y1.95 S11
X13.5 Y1.8 S11
X13.65 Y1.65 S11
X13.8 Y1.5 S11
X13.95 Y1.35 S251
X14.1 Y1.2 S15
X14.25 Y1.05 S15
X14.4 Y0.9 S15
X14.55 Y0.75 S15
X14.7 Y0.6 S15
X14.85 Y0.45 S15
X15 Y0.3 S15
X15.15 Y0.15 S15
X15.3 Y0 S251
X15.45 Y0 S251
X15.3 Y0.15 S15
X15.15 Y0.3 S15
X15 Y0.45 S15
X14.85 Y0.6 S15
X14.7 Y0.75 S15
X14.55 Y0.9 S15
X14.4 Y1.05 S15
X14.25 Y1.2 S15
X14.1 Y1.35 S15
X13.95 Y1.5 S251
X13.8 Y1.65 S11
X13.65 Y1.8 S11
X13.5 Y1.95 S11
X13.35 Y2.1 S11
X13.2 Y2.25 S11
X13.05 Y2.4 S11
X12.9 Y2.55 S11
X12.75 Y2.7 S11
X12.6 Y2.85 S11
X12.45 Y3 S11
X12.3 Y3.15 S11
X12.15 Y3.3 S11
X12 Y3.45 S11
X11.85 Y3.6 S11
X11.7 Y3.75 S11
X11.55 Y3.9 S11
X11.4 Y4.05 S11
X11.25 Y4.2 S11
X11.1 Y4.35 S11
X10.95 Y4.5 S251
X10.8 Y4.65 S60
X10.65 Y4.8 S60
X10.5 Y4.95 S60
X10.35 Y5.1 S60
X10.2 Y5.25 S60
X10.05 Y5.4 S60
X9.9 Y5.55 S60
X9.75 Y5.7 S60
X9.6 Y5.85 S60
X9.45 Y6 S60
X9.3 Y6.15 S251
X9.15 Y6.3 S55
X9 Y6.45 S55
X8.85 Y6.6 S55
X8.7 Y6.75 S55
X8.55 Y6.9 S55
X8.4 Y7.05 S55
X8.25 Y7.2 S55
X8.1 Y7.35 S55
X7.95 Y7.5 S55
X7.8 Y7.65 S55
X7.65 Y7.8 S55
X7.5 Y7.95 S55
X7.35 Y8.1 S55
X7.2 Y8.25 S55
X7.05 Y8.4 S55
X6.9 Y8.55 S55
X6.75 Y8.7 S55
X6.6 Y8.85 S55
X6.45 Y9 S251
X6.3 Y9.15 S105
X6.15 Y9.3 S105
X6 Y9.45 S105
X5.85 Y9.6 S105
X5.7 Y9.75 S105
X5.55 Y9.9 S105
X5.4 Y10.05 S105
X5.25 Y10.2 S105
X5.1 Y10.35 S105
X4.95 Y10.5 S105
X4.8 Y10.65 S251
X4.65 Y10.8 S100
X4.5 Y10.95 S100
X4.35 Y11.1 S100
X4.2 Y11.25 S100
X4.05 Y11.4 S100
X3.9 Y11.55 S100
X3.75 Y11.7 S100
X3.6 Y11.85 S100
X3.45 Y12 S100
X3.3 Y12.15 S100
X3.15 Y12.3 S100
X3 Y12.45 S100
X2.85 Y12.6 S100
X2.7 Y12.75 S100
X2.55 Y12.9 S100
X2.4 Y13.05 S100
X2.25 Y13.2 S100
X2.1 Y13.35 S100
X1.95 Y13.5 S251
X1.8 Y13.65 S105
X1.65 Y13.8 S105
X1.5 Y13.95 S105
X1.35 Y14.1 S105
X1.2 Y14.25 S105
X1.05 Y14.4 S105
X0.9 Y14.55 S105
X0.75 Y14.7 S105
X0.6 Y14.85 S105
X0.45 Y15 S105
X0.3 Y15.15 S105
X0.15 Y15.3 S105
X0 Y15.45 S251
X0 Y15.6 S251
X0.15 Y15.45 S105
X0.3 Y15.3 S105
X0.45 Y15.15 S105
X0.6 Y15 S105
X0.75 Y14.85 S105
X0.9 Y14.7 S105
X1.05 Y14.55 S105
X1.2 Y14.4 S105
X1.35 Y14.25 S105
X1.5 Y14.1 S105
X1.65 Y13.95 S105
X1.8 Y13.8 S105
X1.95 Y13.65 S105
X2.1 Y13.5 S251
X2.25 Y13.35 S100
X2.4 Y13.2 S100
X2.55 Y13.05 S100
X2.7 Y12.9 S100
X2.85 Y12.75 S100
X3 Y12.6 S100
X3.15 Y12.45 S100
X3.3 Y12.3 S100
X3.45 Y12.15 S100
X3.6 Y12 S100
X3.75 Y11.85 S100
X3.9 Y11.7 S100
X4.05 Y11.55 S100
X4.2 Y11.4 S100
X4.35 Y11.25 S100
X4.5 Y11.1 S100
X4.65 Y10.95 S100
X4.8 Y10.8 S251
X4.95 Y10.65 S105
X5.1 Y10.5 S105
X5.25 Y10.35 S105
X5.4 Y10.2 S105
X5.55 Y10.05 S105
X5.7 Y9.9 S105
X5.85 Y9.75 S105
X6 Y9.6 S105
X6.15 Y9.45 S105
X6.3 Y9.3 S105
X6.45 Y9.15 S105
X6.6 Y9 S251
X6.75 Y8.85 S55
X6.9 Y8.7 S55
X7.05 Y8.55 S55
X7.2 Y8.4 S55
X7.35 Y8.25 S55
X7.5 Y8.1 S55
X7.65 Y7.95 S55
X7.8 Y7.8 S55
X7.95 Y7.65 S55
X8.1 Y7.5 S55
X8.25 Y7.35 S55
X8.4 Y7.2 S55
X8.55 Y7.05 S55
X8.7 Y6.9 S55
X8.85 Y6.75 S55
X9 Y6.6 S55
X9.15 Y6.45 S55
X9.3 Y6.3 S251
X9.45 Y6.15 S60
X9.6 Y6 S60
X9.75 Y5.85 S60
X9.9 Y5.7 S60
X10.05 Y5.55 S60
X10.2 Y5.4 S60
X10.35 Y5.25 S60
X10.5 Y5.1 S60
X10.65 Y4.95 S60
X10.8 Y4.8 S60
X10.95 Y4.65 S60
X11.1 Y4.5 S251
X11.25 Y4.35 S11
X11.4 Y4.2 S11
X11.55 Y4.05 S11
X11.7 Y3.9 S11
X11.85 Y3.75 S11
X12 Y3.6 S11
X12.15 Y3.45 S11
X12.3 Y3.3 S11
X12.45 Y3.15 S11
X12.6 Y3 S11
X12.75 Y2.85 S11
X12.9 Y2.7 S11
X13.05 Y2.55 S11
X13.2 Y2.4 S11
X13.35 Y2.25 S11
X13.5 Y2.1 S11
X13.65 Y1.95 S11
X13.8 Y1.8 S11
X13.95 Y1.65 S251
X14.1 Y1.5 S15
X14.25 Y1.35 S15
X14.4 Y1.2 S15
X14.55 Y1.05 S15
X14.7 Y0.9 S15
X14.85 Y0.75 S15
X15 Y0.6 S15
X15.15 Y0.45 S15
X15.3 Y0.3 S15
X15.45 Y0.15 S15
X15.6 Y0 S251
X15.75 Y0 S251
X15.6 Y0.15 S15
X15.45 Y0.3 S15
X15.3 Y0.45 S15
X15.15 Y0.6 S15
X15 Y0.75 S15
X14.85 Y0.9 S15
X14.7 Y1.05 S15
X14.55 Y1.2 S15
X14.4 Y1.35 S15
X14.25 Y1.5 S15
X14.1 Y1.65 S15
X13.95 Y1.8 S251
X13.8 Y1.95 S11
X13.65 Y2.1 S11
X13.5 Y2.25 S11
X13.35 Y2.4 S11
X13.2 Y2.55 S11
X13.05 Y2.7 S11
X12.9 Y2.85 S11
X12.75 Y3 S11
X12.6 Y3.15 S11
X12.45 Y3.3 S11
X12.3 Y3.45 S11
X12.15 Y3.6 S11
X12 Y3.75 S11
X11.85 Y3.9 S11
X11.7 Y4.05 S11
X11.55 Y4.2 S11
X11.4 Y4.35 S11
X11.25 Y4.5 S251
X11.1 Y4.65 S60
X10.95 Y4.8 S60
X10.8 Y4.95 S60
X10.65 Y5.1 S60
X10.5 Y5.25 S60
X10.35 Y5.4 S60
X10.2 Y5.55 S60
X10.05 Y5.7 S60
X9.9 Y5.85 S60
X9.75 Y6 S60
X9.6 Y6.15 S60
X9.45 Y6.3 S60
X9.3 Y6.45 S251
X9.15 Y6.6 S55
X9 Y6.75 S55
X8.85 Y6.9 S55
X8.7 Y7.05 S55
X8.55 Y7.2 S55
X8.4 Y7.35 S55
X8.25 Y7.5 S55
X8.1 Y7.65 S55
X7.95 Y7.8 S55
X7.8 Y7.95 S55
X7.65 Y8.1 S55
X7.5 Y8.25 S55
X7.35 Y8.4 S55
X7.2 Y8.55 S55
X7.05 Y8.7 S55
X6.9 Y8.85 S55
X6.75 Y9 S251
X6.6 Y9.15 S105
X6.45 Y9.3 S105
X6.3 Y9.45 S105
X6.15 Y9.6 S105
X6 Y9.75 S105
X5.85 Y9.9 S105
X5.7 Y10.05 S105
X5.55 Y10.2 S105
X5.4 Y10.35 S105
X5.25 Y10.5 S105
X5.1 Y10.65 S105
X4.95 Y10.8 S105
X4.8 Y10.95 S251
X4.65 Y11.1 S100
X4.5 Y11.25 S100
X4.35 Y11.4 S100
X4.2 Y11.55 S100
X4.05 Y11.7 S100
X3.9 Y11.85 S100
X3.75 Y12 S100
X3.6 Y12.15 S100
X3.45 Y12.3 S100
X3.3 Y12.45 S100
X3.15 Y12.6 S100
X3 Y12.75 S100
X2.85 Y12.9 S100
X2.7 Y13.05 S100
X2.55 Y13.2 S100
X2.4 Y13.35 S100
X2.25 Y13.5 S251
X2.1 Y13.65 S105
X1.95 Y13.8 S105
X1.8 Y13.95 S105
X1.65 Y14.1 S105
X1.5 Y14.25 S105
X1.35 Y14.4 S105
X1.2 Y14.55 S105
X1.05 Y14.7 S105
X0.9 Y14.85 S105
X0.75 Y15 S105
X0.6 Y15.15 S105
X0.45 Y15.3 S105
X0.3 Y15.45 S105
X0.15 Y15.6 S105
X0 Y15.75 S251
X0 Y15.9 S251
X0.15 Y15.75 S105
X0.3 Y15.6 S105
X0.45 Y15.45 S105
X0.6 Y15.3 S105
X0.75 Y15.15 S105
X0.9 Y15 S105
X1.05 Y14.85 S105
X1.2 Y14.7 S105
X1.35 Y14.55 S105
X1.5 Y14.4 S105
X1.65 Y14.25 S105
X1.8 Y14.1 S105
X1.95 Y13.95 S105
X2.1 Y13.8 S105
X2.25 Y13.65 S105
X2.4 Y13.5 S251
X2.55 Y13.35 S100
X2.7 Y13.2 S100
X2.85 Y13.05 S100
X3 Y12.9 S100
X3.15 Y12.75 S100
X3.3 Y12.6 S100
X3.45 Y12.45 S100
X3.6 Y12.3 S100
X3.75 Y12.15 S100
X3.9 Y12 S100
X4.05 Y11.85 S100
X4.2 Y11.7 S100
X4.35 Y11.55 S100
X4.5 Y11.4 S100
X4.65 Y11.25 S100
X4.8 Y11.1 S251
X4.95 Y10.95 S105
X5.1 Y10.8 S105
X5.25 Y10.65 S105
X5.4 Y10.5 S105
X5.55 Y10.35 S105
X5.7 Y10.2 S105
X5.85 Y10.05 S105
X6 Y9.9 S105
X6.15 Y9.75 S105
X6.3 Y9.6 S105
X6.45 Y9.45 S105
X6.6 Y9.3 S105
X6.75 Y9.15 S105
X6.9 Y9 S251
X7.05 Y8.85 S55
X7.2 Y8.7 S55
X7.35 Y8.55 S55
X7.5 Y8.4 S55
X7.65 Y8.25 S55
X7.8 Y8.1 S55
X7.95 Y7.95 S55
X8.1 Y7.8 S55
X8.25 Y7.65 S55
X8.4 Y7.5 S55
X8.55 Y7.35 S55
X8.7 Y7.2 S55
X8.85 Y7.05 S55
X9 Y6.9 S55
X9.15 Y6.75 S55
X9.3 Y6.6 S251
X9.45 Y6.45 S60
X9.6 Y6.3 S60
X9.75 Y6.15 S60
X9.9 Y6 S60
X10.05 Y5.85 S60
X10.2 Y5.7 S60
X10.35 Y5.55 S60
X10.5 Y5.4 S60
X10.65 Y5.25 S60
X10.8 Y5.1 S60
X10.95 Y4.95 S60
X11.1 Y4.8 S60
X11.25 Y4.65 S60
X11.4 Y4.5 S251
X11.55 Y4.35 S11
X11.7 Y4.2 S11
X11.85 Y4.05 S11
X12 Y3.9 S11
X12.15 Y3.75 S11
X12.3 Y3.6 S11
X12.45 Y3.45 S11
X12.6 Y3.3 S11
X12.75 Y3.15 S11
X12.9 Y3 S11
X13.05 Y2.85 S11
X13.2 Y2.7 S11
X13.35 Y2.55 S11
X13.5 Y2.4 S11
X13.65 Y2.25 S11
X13.8 Y2.1 S11
X13.95 Y1.95 S251
X14.1 Y1.8 S15
X14.25 Y1.65 S15
X14.4 Y1.5 S15
X14.55 Y1.35 S15
X14.7 Y1.2 S15
X14.85 Y1.05 S15
X15 Y0.9 S15
X15.15 Y0.75 S15
X15.3 Y0.6 S15
X15.45 Y0.45 S15
X15.6 Y0.3 S15
X15.75 Y0.15 S15
X15.9 Y0 S251
X16.05 Y0 S251
X15.9 Y0.15 S15
X15.75 Y0.3 S15
X15.6 Y0.45 S15
X15.45 Y0.6 S15
X15.3 Y0.75 S15
X15.15 Y0.9 S15
X15 Y1.05 S15
X14.85 Y1.2 S15
X14.7 Y1.35 S15
X14.55 Y1.5 S15
X14.4 Y1.65 S15
X14.25 Y1.8 S15
X14.1 Y1.95 S15
X13.95 Y2.1 S251
X13.8 Y2.25 S11
X13.65 Y2.4 S11
X13.5 Y2.55 S11
X13.35 Y2.7 S11
X13.2 Y2.85 S11
X13.05 Y3 S11
X12.9 Y3.15 S11
X12.75 Y3.3 S11
X12.6 Y3.45 S11
X12.45 Y3.6 S11
X12.3 Y3.75 S11
X12.15 Y3.9 S11
X12 Y4.05 S11
X11.85 Y4.2 S11
X11.7 Y4.35 S11
X11.55 Y4.5 S251
X11.4 Y4.65 S60
X11.25 Y4.8 S60
X11.1 Y4.95 S60
X10.95 Y5.1 S60
X10.8 Y5.25 S60
X10.65 Y5.4 S60
X10.5 Y5.55 S60
X10.35 Y5.7 S60
X10.2 Y5.85 S60
X10.05 Y6 S60
X9.9 Y6.15 S60
X9.75 Y6.3 S60
X9.6 Y6.45 S60
X9.45 Y6.6 S60
X9.3 Y6.75 S251
X9.15 Y6.9 S55
X9 Y7.05 S55
X8.85 Y7.2 S55
X8.7 Y7.35 S55
X8.55 Y7.5 S55
X8.4 Y7.65 S55
X8.25 Y7.8 S55
X8.1 Y7.95 S55
X7.95 Y8.1 S55
X7.8 Y8.25 S55
X7.65 Y8.4 S55
X7.5 Y8.55 S55
X7.35 Y8.7 S55
X7.2 Y8.85 S55
X7.05 Y9 S251
X6.9 Y9.15 S105
X6.75 Y9.3 S105
X6.6 Y9.45 S105
X6.45 Y9.6 S105
X6.3 Y9.75 S105
X6.15 Y9.9 S105
X6 Y10.05 S105
X5.85 Y10.2 S105
X5.7 Y10.35 S105
X5.55 Y10.5 S105
X5.4 Y10.65 S105
X5.25 Y10.8 S105
X5.1 Y10.95 S105
X4.95 Y11.1 S105
X4.8 Y11.25 S251
X4.65 Y11.4 S100
X4.5 Y11.55 S100
X4.35 Y11.7 S100
X4.2 Y11.85 S100
X4.05 Y12 S100
X3.9 Y12.15 S100
X3.75 Y12.3 S100
X3.6 Y12.45 S100
X3.45 Y12.6 S100
X3.3 Y12.75 S100
X3.15 Y12.9 S100
X3 Y13.05 S100
X2.85 Y13.2 S100
X2.7 Y13.35 S100
X2.55 Y13.5 S251
X2.4 Y13.65 S105
X2.25 Y13.8 S105
X2.1 Y13.95 S105
X1.95 Y14.1 S105
X1.8 Y14.25 S105
X1.65 Y14.4 S105
X1.5 Y14.55 S105
X1.35 Y14.7 S105
X1.2 Y14.85 S105
X1.05 Y15 S105
X0.9 Y15.15 S105
X0.75 Y15.3 S105
X0.6 Y15.45 S105
X0.45 Y15.6 S105
X0.3 Y15.75 S105
X0.15 Y15.9 S105
X0 Y16.05 S251
X0 Y16.2 S251
X0.15 Y16.05 S105
X0.3 Y15.9 S105
X0.45 Y15.75 S105
X0.6 Y15.6 S105
X0.75 Y15.45 S105
X0.9 Y15.3 S105
X1.05 Y15.15 S105
X1.2 Y15 S105
X1.35 Y14.85 S105
X1.5 Y14.7 S105
X1.65 Y14.55 S105
X1.8 Y14.4 S105
X1.95 Y14.25 S105
X2.1 Y14.1 S105
X2.25 Y13.95 S105
X2.4 Y13.8 S105
X2.55 Y13.65 S105
X2.7 Y13.5 S251
X2.85 Y13.35 S100
X3 Y13.2 S100
X3.15 Y13.05 S100
X3.3 Y12.9 S100
X3.45 Y12.75 S100
X3.6 Y12.6 S100
X3.75 Y12.45 S100
X3.9 Y12.3 S100
X4.05 Y12.15 S100
X4.2 Y12 S100
X4.35 Y11.85 S100
X4.5 Y11.7 S100
X4.65 Y11.55 S100
X4.8 Y11.4 S251
X4.95 Y11.25 S105
X5.1 Y11.1 S105
X5.25 Y10.95 S105
X5.4 Y10.8 S105
X5.55 Y10.65 S105
X5.7 Y10.5 S105
X5.85 Y10.35 S105
X6 Y10.2 S105
X6.15 Y10.05 S105
X6.3 Y9.9 S105
X6.45 Y9.75 S105
X6.6 Y9.6 S105
X6.75 Y9.45 S105
X6.9 Y9.3 S105
X7.05 Y9.15 S105
X7.2 Y9 S251
X7.35 Y8.85 S55
X7.5 Y8.7 S55
X7.65 Y8.55 S55
X7.8 Y8.4 S55
X7.95 Y8.25 S55
X8.1 Y8.1 S55
X8.25 Y7.95 S55
X8.4 Y7.8 S55
X8.55 Y7.65 S55
X8.7 Y7.5 S55
X8.85 Y7.35 S55
X9 Y7.2 S55
X9.15 Y7.05 S55
X9.3 Y6.9 S251
X9.45 Y6.75 S60
X9.6 Y6.6 S60
X9.75 Y6.45 S60
X9.9 Y6.3 S60
X10.05 Y6.15 S60
X10.2 Y6 S60
X10.35 Y5.85 S60
X10.5 Y5.7 S60
X10.65 Y5.55 S60
X10.8 Y5.4 S60
X10.95 Y5.25 S60
X11.1 Y5.1 S60
X11.25 Y4.95 S60
X11.4 Y4.8 S60
X11.55 Y4.65 S60
X11.7 Y4.5 S251
X11.85 Y4.35 S11
X12 Y4.2 S11
X12.15 Y4.05 S11
X12.3 Y3.9 S11
X12.45 Y3.75 S11
X12.6 Y3.6 S11
X12.75 Y3.45 S11
X12.9 Y3.3 S11
X13.05 Y3.15 S11
X13.2 Y3 S11
X13.35 Y2.85 S11
X13.5 Y2.7 S11
X13.65 Y2.55 S11
X13.8 Y2.4 S11
X13.95 Y2.25 S251
X14.1 Y2.1 S15
X14.25 Y1.95 S15
X14.4 Y1.8 S15
X14.55 Y1.65 S15
X14.7 Y1.5 S15
X14.85 Y1.35 S15
X15 Y1.2 S15
X15.15 Y1.05 S15
X15.3 Y0.9 S15
X15.45 Y0.75 S15
X15.6 Y0.6 S15
X15.75 Y0.45 S15
X15.9 Y0.3 S15
X16.05 Y0.15 S15
X16.2 Y0 S251
X16.35 Y0 S251
X16.2 Y0.15 S15
X16.05 Y0.3 S15
X15.9 Y0.45 S15
X15.75 Y0.6 S15
X15.6 Y0.75 S15
X15.45 Y0.9 S15
X15.3 Y1.05 S15
X15.15 Y1.2 S15
X15 Y1.35 S15
X14.85 Y1.5 S15
X14.7 Y1.65 S15
X14.55 Y1.8 S15
X14.4 Y1.95 S15
X14.25 Y2.1 S15
X14.1 Y2.25 S15
X13.95 Y2.4 S251
X13.8 Y2.55 S11
X13.65 Y2.7 S11
X13.5 Y2.85 S11
X13.35 Y3 S11
X13.2 Y3.15 S11
X13.05 Y3.3 S11
X12.9 Y3.45 S11
X12.75 Y3.6 S11
X12.6 Y3.75 S11
X12.45 Y3.9 S11
X12.3 Y4.05 S11
X12.15 Y4.2 S11
X12 Y4.35 S11
X11.85 Y4.5 S251
X11.7 Y4.65 S60
X11.55 Y4.8 S60
X11.4 Y4.95 S60
X11.25 Y5.1 S60
X11.1 Y5.25 S60
X10.95 Y5.4 S60
X10.8 Y5.55 S60
X10.65 Y5.7 S60
X10.5 Y5.85 S60
X10.35 Y6 S60
X10.2 Y6.15 S60
X10.05 Y6.3 S60
X9.9 Y6.45 S60
X9.75 Y6.6 S60
X9.6 Y6.75 S60
X9.45 Y6.9 S60
X9.3 Y7.05 S251
X9.15 Y7.2 S55
X9 Y7.35 S55
X8.85 Y7.5 S55
X8.7 Y7.65 S55
X8.55 Y7.8 S55
X8.4 Y7.95 S55
X8.25 Y8.1 S55
X8.1 Y8.25 S55
X7.95 Y8.4 S55
X7.8 Y8.55 S55
X7.65 Y8.7 S55
X7.5 Y8.85 S55
X7.35 Y9 S251
X7.2 Y9.15 S105
X7.05 Y9.3 S105
X6.9 Y9.45 S105
X6.75 Y9.6 S105
X6.6 Y9.75 S105
X6.45 Y9.9 S105
X6.3 Y10.05 S105
X6.15 Y10.2 S105
X6 Y10.35 S105
X5.85 Y10.5 S105
X5.7 Y10.65 S105
X5.55 Y10.8 S105
X5.4 Y10.95 S105
X5.25 Y11.1 S105
X5.1 Y11.25 S105
X4.95 Y11.4 S105
X4.8 Y11.55 S251
X4.65 Y11.7 S100
X4.5 Y11.85 S100
X4.35 Y12 S100
X4.2 Y12.15 S100
X4.05 Y12.3 S100
X3.9 Y12.45 S100
X3.75 Y12.6 S100
X3.6 Y12.75 S100
X3.45 Y12.9 S100
X3.3 Y13.05 S100
X3.15 Y13.2 S100
X3 Y13.35 S100
X2.85 Y13.5 S251
X2.7 Y13.65 S105
X2.55 Y13.8 S105
X2.4 Y13.95 S105
X2.25 Y14.1 S105
X2.1 Y14.25 S105
X1.95 Y14.4 S105
X1.8 Y14.55 S105
X1.65 Y14.7 S105
X1.5 Y14.85 S105
X1.35 Y15 S105
X1.2 Y15.15 S105
X1.05 Y15.3 S105
X0.9 Y15.45 S105
X0.75 Y15.6 S105
X0.6 Y15.75 S105
X0.45 Y15.9 S105
X0.3 Y16.05 S105
X0.15 Y16.2 S105
X0 Y16.35 S251
X0 Y16.5 S251
X0.15 Y16.35 S105
X0.3 Y16.2 S105
X0.45 Y16.05 S105
X0.6 Y15.9 S105
X0.75 Y15.75 S105
X0.9 Y15.6 S105
X1.05 Y15.45 S105
X1.2 Y15.3 S105
X1.35 Y15.15 S105
X1.5 Y15 S105
X1.65 Y14.85 S105
X1.8 Y14.7 S105
X1.95 Y14.55 S105
X2.1 Y14.4 S105
X2.25 Y14.25 S105
X2.4 Y14.1 S105
X2.55 Y13.95 S105
X2.7 Y13.8 S105
X2.85 Y13.65 S105
X3 Y13.5 S251
X3.15 Y13.35 S100
X3.3 Y13.2 S100
X3.45 Y13.05 S100
X3.6 Y12.9 S100
X3.75 Y12.75 S100
X3.9 Y12.6 S100
X4.05 Y12.45 S100
X4.2 Y12.3 S100
X4.35 Y12.15 S100
X4.5 Y12 S100
X4.65 Y11.85 S100
X4.8 Y11.7 S251
X4.95 Y11.55 S105
X5.1 Y11.4 S105
X5.25 Y11.25 S105
X5.4 Y11.1 S105
X5.55 Y10.95 S105
X5.7 Y10.8 S105
X5.85 Y10.65 S105
X6 Y10.5 S105
X6.15 Y10.35 S105
X6.3 Y10.2 S105
X6.45 Y10.05 S105
X6.6 Y9.9 S105
X6.75 Y9.75 S105
X6.9 Y9.6 S105
X7.05 Y9.45 S105
X7.2 Y9.3 S105
X7.35 Y9.15 S105
X7.5 Y9 S251
X7.65 Y8.85 S55
X7.8 Y8.7 S55
X7.95 Y8.55 S55
X8.1 Y8.4 S55
X8.25 Y8.25 S55
X8.4 Y8.1 S55
X8.55 Y7.95 S55
X8.7 Y7.8 S55
X8.85 Y7.65 S55
X9 Y7.5 S55
X9.15 Y7.35 S55
X9.3 Y7.2 S251
X9.45 Y7.05 S60
X9.6 Y6.9 S60
X9.75 Y6.75 S60
X9.9 Y6.6 S60
X10.05 Y6.45 S60
X10.2 Y6.3 S60
X10.35 Y6.15 S60
X10.5 Y6 S60
X10.65 Y5.85 S60
X10.8 Y5.7 S60
X10.95 Y5.55 S60
X11.1 Y5.4 S60
X11.25 Y5.25 S60
X11.4 Y5.1 S60
X11.55 Y4.95 S60
X11.7 Y4.8 S60
X11.85 Y4.65 S60
X12 Y4.5 S251
X12.15 Y4.35 S11
X12.3 Y4.2 S11
X12.45 Y4.05 S11
X12.6 Y3.9 S11
X12.75 Y3.75 S11
X12.9 Y3.6 S11
X13.05 Y3.45 S11
X13.2 Y3.3 S11
X13.35 Y3.15 S11
X13.5 Y3 S11
X13.65 Y2.85 S11
X13.8 Y2.7 S11
X13.95 Y2.55 S251
X14.1 Y2.4 S15
X14.25 Y2.25 S15
X14.4 Y2.1 S15
