( Generated with Darkly Labs PP v2.4)
( File name: Test Cut )
( File created: Sunday, July 19, 2015 - 12:26 AM)
( Material Size: X= 30.000, Y= 40.000)
{ XY Origin for Material = Bottom Left Corner}
{    XY Origin Position  = X:0.000, Y:0.000}
N60 G21
N70 M5
N80 G00 X9.710 Y17.976
N90 M3 S255
N100 G1   F1800.0
N110 M3 S255
N120 G1 X6.440 Y28.039 
N130 G1 X15.000 Y34.258
N140 G1 X23.560 Y28.039
N150 G1 X20.290 Y17.976
N160 G1 X9.710 
N170 M5
N180 G00  
N190 M5
N200 G00 X15.000 Y12.500
N210 M3 S255
N220 G1   F1800.0
N230 G3 X27.500 Y25.000 I0.000 J12.500 
N240 G3 X15.000 Y37.500 I-12.500 J0.000
N250 G3 X2.500 Y25.000 I0.000 J-12.500
N260 G3 X15.000 Y12.500 I12.500 J0.000
N270 M5
N280 G00  
N290 M5
N300 G00 X0.000 Y0.000
N310 M3 S255
N320 G1   F1800.0
N330 M3 S255
N340 G1  Y40.000 
N350 G1 X30.000 
N360 G1  Y0.000
N370 G1 X0.000 
N380 M5
N390 G00  
N400 M5
N410 G28
