( Generated with Darkly Labs PP v2.4)
( File name: corners holding pieces )
( File created: Thursday, February 12, 2015 - 09:26 AM)
( Material Size: X= 297.000, Y= 210.000)
( XY Origin for Material = Bottom Left Corner)
(    XY Origin Position  = X:0.000, Y:0.000)
N60 G21
N70 M5
N80 G00 X23.654 Y23.407
N90 M3 S255
N100 G1   F600.0
N110 M3 S255
N120 G1  Y33.285 
N130 G1 X33.884 Y43.515
N140 G1 X43.762 
N150 G1  Y23.407
N160 G1 X23.654 
N170 M5
N180 G00  
N190 M5
N200 G00 X52.229 
N210 M3 S255
N220 G1   F600.0
N230 M3 S255
N240 G1  Y33.285 
N250 G1 X62.459 Y43.515
N260 G1 X72.337 
N270 G1  Y23.407
N280 G1 X52.229 
N290 M5
N300 G00  
N310 M5
N320 G00 X80.804 
N330 M3 S255
N340 G1   F600.0
N350 M3 S255
N360 G1  Y33.285 
N370 G1 X91.034 Y43.515
N380 G1 X100.912 
N390 G1  Y23.407
N400 G1 X80.804 
N410 M5
N420 G00  
N430 M5
N440 G00 X109.379 
N450 M3 S255
N460 G1   F600.0
N470 M3 S255
N480 G1  Y33.285 
N490 G1 X119.609 Y43.515
N500 G1 X129.487 
N510 G1  Y23.407
N520 G1 X109.379 
N530 M5
N540 G00  
N550 M5
N560 G00 X149.243 Y23.760
N570 M3 S255
N580 G1   F600.0
N590 M3 S255
N600 G1  Y33.638 
N610 G1 X159.473 Y43.868
N620 G1 X169.351 
N630 G1  Y23.760
N640 G1 X149.243 
N650 M5
N660 G00  
N670 M5
N680 G00 X177.818 
N690 M3 S255
N700 G1   F600.0
N710 M3 S255
N720 G1  Y33.638 
N730 G1 X188.048 Y43.868
N740 G1 X197.926 
N750 G1  Y23.760
N760 G1 X177.818 
N770 M5
N780 G00  
N790 M5
N800 G00 X206.393 
N810 M3 S255
N820 G1   F600.0
N830 M3 S255
N840 G1  Y33.638 
N850 G1 X216.623 Y43.868
N860 G1 X226.501 
N870 G1  Y23.760
N880 G1 X206.393 
N890 M5
N900 G00  
N910 M5
N920 G00 X234.968 
N930 M3 S255
N940 G1   F600.0
N950 M3 S255
N960 G1  Y33.638 
N970 G1 X245.198 Y43.868
N980 G1 X255.076 
N990 G1  Y23.760
N1000 G1 X234.968 
N1010 M5
N1020 G00  
N1030 M5
N1040 G00  Y56.921
N1050 M3 S255
N1060 G1   F600.0
N1070 M3 S255
N1080 G1  Y66.799 
N1090 G1 X245.198 
N1100 G1  Y77.029
N1110 G1 X255.076 
N1120 G1  Y56.921
N1130 G1 X234.968 
N1140 M5
N1150 G00  
N1160 M5
N1170 G00 X226.501 
N1180 M3 S255
N1190 G1   F600.0
N1200 M3 S255
N1210 G1 X206.393  
N1220 G1  Y66.799
N1230 G1 X216.623 
N1240 G1  Y77.029
N1250 G1 X226.501 
N1260 G1  Y56.921
N1270 M5
N1280 G00  
N1290 M5
N1300 G00 X197.926 
N1310 M3 S255
N1320 G1   F600.0
N1330 M3 S255
N1340 G1 X177.818  
N1350 G1  Y66.799
N1360 G1 X188.048 
N1370 G1  Y77.029
N1380 G1 X197.926 
N1390 G1  Y56.921
N1400 M5
N1410 G00  
N1420 M5
N1430 G00 X169.351 
N1440 M3 S255
N1450 G1   F600.0
N1460 M3 S255
N1470 G1 X149.243  
N1480 G1  Y66.799
N1490 G1 X159.473 
N1500 G1  Y77.029
N1510 G1 X169.351 
N1520 G1  Y56.921
N1530 M5
N1540 G00  
N1550 M5
N1560 G00 X129.487 Y56.568
N1570 M3 S255
N1580 G1   F600.0
N1590 M3 S255
N1600 G1 X109.379  
N1610 G1  Y66.446
N1620 G1 X119.609 
N1630 G1  Y76.677
N1640 G1 X129.487 
N1650 G1  Y56.568
N1660 M5
N1670 G00  
N1680 M5
N1690 G00 X100.912 
N1700 M3 S255
N1710 G1   F600.0
N1720 M3 S255
N1730 G1 X80.804  
N1740 G1  Y66.446
N1750 G1 X91.034 
N1760 G1  Y76.677
N1770 G1 X100.912 
N1780 G1  Y56.568
N1790 M5
N1800 G00  
N1810 M5
N1820 G00 X72.337 
N1830 M3 S255
N1840 G1   F600.0
N1850 M3 S255
N1860 G1 X52.229  
N1870 G1  Y66.446
N1880 G1 X62.459 
N1890 G1  Y76.677
N1900 G1 X72.337 
N1910 G1  Y56.568
N1920 M5
N1930 G00  
N1940 M5
N1950 G00 X43.762 
N1960 M3 S255
N1970 G1   F600.0
N1980 M3 S255
N1990 G1 X23.654  
N2000 G1  Y66.446
N2010 G1 X33.884 
N2020 G1  Y76.677
N2030 G1 X43.762 
N2040 G1  Y56.568
N2050 M5
N2060 G00  
N2070 M5
N2080 G00  Y91.493
N2090 M3 S255
N2100 G1   F600.0
N2110 M3 S255
N2120 G1 X23.654  
N2130 G1  Y101.371
N2140 G1 X33.884 Y111.602
N2150 G1 X43.762 
N2160 G1  Y91.493
N2170 M5
N2180 G00  
N2190 M5
N2200 G00 X52.229 
N2210 M3 S255
N2220 G1   F600.0
N2230 M3 S255
N2240 G1  Y101.371 
N2250 G1 X62.459 Y111.602
N2260 G1 X72.337 
N2270 G1  Y91.493
N2280 G1 X52.229 
N2290 M5
N2300 G00  
N2310 M5
N2320 G00 X80.804 
N2330 M3 S255
N2340 G1   F600.0
N2350 M3 S255
N2360 G1  Y101.371 
N2370 G1 X91.034 Y111.602
N2380 G1 X100.912 
N2390 G1  Y91.493
N2400 G1 X80.804 
N2410 M5
N2420 G00  
N2430 M5
N2440 G00 X109.379 
N2450 M3 S255
N2460 G1   F600.0
N2470 M3 S255
N2480 G1  Y101.371 
N2490 G1 X119.609 Y111.602
N2500 G1 X129.487 
N2510 G1  Y91.493
N2520 G1 X109.379 
N2530 M5
N2540 G00  
N2550 M5
N2560 G00 X149.243 Y91.846
N2570 M3 S255
N2580 G1   F600.0
N2590 M3 S255
N2600 G1  Y101.724 
N2610 G1 X159.473 Y111.954
N2620 G1 X169.351 
N2630 G1  Y91.846
N2640 G1 X149.243 
N2650 M5
N2660 G00  
N2670 M5
N2680 G00 X177.818 
N2690 M3 S255
N2700 G1   F600.0
N2710 M3 S255
N2720 G1  Y101.724 
N2730 G1 X188.048 Y111.954
N2740 G1 X197.926 
N2750 G1  Y91.846
N2760 G1 X177.818 
N2770 M5
N2780 G00  
N2790 M5
N2800 G00 X206.393 
N2810 M3 S255
N2820 G1   F600.0
N2830 M3 S255
N2840 G1  Y101.724 
N2850 G1 X216.623 Y111.954
N2860 G1 X226.501 
N2870 G1  Y91.846
N2880 G1 X206.393 
N2890 M5
N2900 G00  
N2910 M5
N2920 G00 X234.968 
N2930 M3 S255
N2940 G1   F600.0
N2950 M3 S255
N2960 G1  Y101.724 
N2970 G1 X245.198 Y111.954
N2980 G1 X255.076 
N2990 G1  Y91.846
N3000 G1 X234.968 
N3010 M5
N3020 G00  
N3030 M5
N3040 G00  Y125.007
N3050 M3 S255
N3060 G1   F600.0
N3070 M3 S255
N3080 G1  Y134.885 
N3090 G1 X245.198 
N3100 G1  Y145.115
N3110 G1 X255.076 
N3120 G1  Y125.007
N3130 G1 X234.968 
N3140 M5
N3150 G00  
N3160 M5
N3170 G00 X226.501 
N3180 M3 S255
N3190 G1   F600.0
N3200 M3 S255
N3210 G1 X206.393  
N3220 G1  Y134.885
N3230 G1 X216.623 
N3240 G1  Y145.115
N3250 G1 X226.501 
N3260 G1  Y125.007
N3270 M5
N3280 G00  
N3290 M5
N3300 G00 X197.926 
N3310 M3 S255
N3320 G1   F600.0
N3330 M3 S255
N3340 G1 X177.818  
N3350 G1  Y134.885
N3360 G1 X188.048 
N3370 G1  Y145.115
N3380 G1 X197.926 
N3390 G1  Y125.007
N3400 M5
N3410 G00  
N3420 M5
N3430 G00 X169.351 
N3440 M3 S255
N3450 G1   F600.0
N3460 M3 S255
N3470 G1 X149.243  
N3480 G1  Y134.885
N3490 G1 X159.473 
N3500 G1  Y145.115
N3510 G1 X169.351 
N3520 G1  Y125.007
N3530 M5
N3540 G00  
N3550 M5
N3560 G00 X129.487 Y124.654
N3570 M3 S255
N3580 G1   F600.0
N3590 M3 S255
N3600 G1 X109.379  
N3610 G1  Y134.532
N3620 G1 X119.609 
N3630 G1  Y144.763
N3640 G1 X129.487 
N3650 G1  Y124.654
N3660 M5
N3670 G00  
N3680 M5
N3690 G00 X100.912 
N3700 M3 S255
N3710 G1   F600.0
N3720 M3 S255
N3730 G1 X80.804  
N3740 G1  Y134.532
N3750 G1 X91.034 
N3760 G1  Y144.763
N3770 G1 X100.912 
N3780 G1  Y124.654
N3790 M5
N3800 G00  
N3810 M5
N3820 G00 X72.337 
N3830 M3 S255
N3840 G1   F600.0
N3850 M3 S255
N3860 G1 X52.229  
N3870 G1  Y134.532
N3880 G1 X62.459 
N3890 G1  Y144.763
N3900 G1 X72.337 
N3910 G1  Y124.654
N3920 M5
N3930 G00  
N3940 M5
N3950 G00 X43.762 
N3960 M3 S255
N3970 G1   F600.0
N3980 M3 S255
N3990 G1 X23.654  
N4000 G1  Y134.532
N4010 G1 X33.884 
N4020 G1  Y144.763
N4030 G1 X43.762 
N4040 G1  Y124.654
N4050 M5
N4060 G00  
N4070 M5
N4080 G28
