( Generated with Darkly Labs PP v2.4)
( File name: Emblaser_CalibrationTest2 )
( File created: Friday, November 27, 2015 - 01:02 PM)
( Material Size: X= 200.000, Y= 200.000)
( XY Origin for Material = Bottom Left Corner)
(    XY Origin Position  = X:0.000, Y:0.000)
N60 G21
N70 M5
N80 G00 X0.000 Y0.000
N90 M3 S255
N100 G1   F500.0
N110 M3 S255
N120 G1  Y100.000 
N130 G1 X100.000 
N140 G1  Y0.000
N150 G1 X0.000 
N160 M5
N170 G00  
N180 M5
N190 G00 X100.000 Y100.000
N200 M3 S255
N210 G1   F500.0
N220 M3 S255
N230 G1  Y200.000 
N240 G1 X200.000 
N250 G1  Y100.000
N260 G1 X100.000 
N270 M5
N280 G00  
N290 M5
N300 G00 X46.967 Y100.000
N310 M3 S255
N320 G1   F500.0
N330 G3 X100.000 Y46.967 I53.033 J0.000 
N340 G3 X153.033 Y100.000 I0.000 J53.033
N350 G3 X100.000 Y153.033 I-53.033 J0.000
N360 G3 X46.967 Y100.000 I0.000 J-53.033
N370 M5
N380 G00  
N390 M5
N400 G00 X25.000 
N410 M3 S255
N420 G1   F500.0
N430 M3 S255
N440 G1 X100.000 Y175.000 
N450 G1 X175.000 Y100.000
N460 G1 X100.000 Y25.000
N470 G1 X25.000 Y100.000
N480 M5
N490 G00  
N500 M3 S255
N510 G1   F500.0
N520 G2 X100.000 Y175.000 I75.000 J0.000 
N530 G2 X175.000 Y100.000 I0.000 J-75.000
N540 G2 X100.000 Y25.000 I-75.000 J0.000
N550 G2 X25.000 Y100.000 I0.000 J75.000
N560 M5
N570 G00  
N580 M5
N590 G00 X18.914 Y163.577
N600 M3 S255
N610 G1   F500.0
N620 M3 S255
N630 G1 X23.769  
N640 G1 X24.530 Y163.589
N650 G1 X25.246 Y163.625
N660 G1 X25.916 Y163.685
N670 G1 X26.539 Y163.768
N680 G1 X26.840 Y163.826
N690 G1 X27.141 Y163.904
N700 G1 X27.443 Y164.001
N710 G1 X27.744 Y164.119
N720 G1 X28.047 Y164.257
N730 G1 X28.349 Y164.414
N740 G1 X28.652 Y164.592
N750 G1 X28.955 Y164.789
N760 G1 X29.252 Y165.014
N770 G1 X29.537 Y165.273
N780 G1 X29.809 Y165.566
N790 G1 X30.069 Y165.894
N800 G1 X30.316 Y166.256
N810 G1 X30.550 Y166.652
N820 G1 X30.772 Y167.083
N830 G1 X30.982 Y167.548
N840 G1 X31.172 Y168.051
N850 G1 X31.338 Y168.594
N860 G1 X31.477 Y169.179
N870 G1 X31.592 Y169.804
N880 G1 X31.680 Y170.470
N890 G1 X31.744 Y171.178
N900 G1 X31.782 Y171.926
N910 G1 X31.795 Y172.715
N920 G1 X31.775 Y173.591
N930 G1 X31.716 Y174.436
N940 G1 X31.618 Y175.250
N950 G1 X31.481 Y176.033
N960 G1 X31.395 Y176.413
N970 G1 X31.292 Y176.783
N980 G1 X31.173 Y177.144
N990 G1 X31.038 Y177.496
N1000 G1 X30.887 Y177.838
N1010 G1 X30.720 Y178.172
N1020 G1 X30.536 Y178.496
N1030 G1 X30.337 Y178.811
N1040 G1 X30.125 Y179.111
N1050 G1 X29.907 Y179.391
N1060 G1 X29.681 Y179.649
N1070 G1 X29.447 Y179.886
N1080 G1 X29.207 Y180.102
N1090 G1 X28.959 Y180.298
N1100 G1 X28.703 Y180.472
N1110 G1 X28.441 Y180.625
N1120 G1 X27.910 Y180.884
N1130 G1 X27.383 Y181.086
N1140 G1 X26.859 Y181.234
N1150 G1 X26.339 Y181.326
N1160 G1 X25.784 Y181.382
N1170 G1 X25.154 Y181.422
N1180 G1 X24.449 Y181.446
N1190 G1 X23.670 Y181.454
N1200 G1 X18.914 
N1210 G1  Y163.577
N1220 M5
N1230 G00  
N1240 M5
N1250 G00 X15.000 Y160.013
N1260 M3 S255
N1270 G1   F500.0
N1280 M3 S255
N1290 G1  Y185.019 
N1300 G1 X23.736 
N1310 G1 X24.808 Y185.005
N1320 G1 X25.808 Y184.961
N1330 G1 X26.738 Y184.889
N1340 G1 X27.597 Y184.787
N1350 G1 X28.007 Y184.719
N1360 G1 X28.413 Y184.629
N1370 G1 X28.815 Y184.517
N1380 G1 X29.214 Y184.385
N1390 G1 X29.608 Y184.231
N1400 G1 X29.999 Y184.055
N1410 G1 X30.386 Y183.859
N1420 G1 X30.769 Y183.641
N1430 G1 X31.144 Y183.402
N1440 G1 X31.506 Y183.142
N1450 G1 X31.856 Y182.862
N1460 G1 X32.192 Y182.562
N1470 G1 X32.517 Y182.241
N1480 G1 X32.828 Y181.899
N1490 G1 X33.127 Y181.537
N1500 G1 X33.413 Y181.154
N1510 G1 X33.686 Y180.753
N1520 G1 X33.943 Y180.339
N1530 G1 X34.185 Y179.910
N1540 G1 X34.412 Y179.466
N1550 G1 X34.624 Y179.008
N1560 G1 X34.821 Y178.536
N1570 G1 X35.003 Y178.050
N1580 G1 X35.170 Y177.549
N1590 G1 X35.320 Y177.028
N1600 G1 X35.449 Y176.481
N1610 G1 X35.559 Y175.907
N1620 G1 X35.648 Y175.308
N1630 G1 X35.718 Y174.682
N1640 G1 X35.768 Y174.030
N1650 G1 X35.798 Y173.353
N1660 G1 X35.808 Y172.649
N1670 G1 X35.798 Y171.970
N1680 G1 X35.767 Y171.307
N1690 G1 X35.715 Y170.659
N1700 G1 X35.643 Y170.025
N1710 G1 X35.550 Y169.407
N1720 G1 X35.437 Y168.803
N1730 G1 X35.302 Y168.214
N1740 G1 X35.148 Y167.641
N1750 G1 X34.972 Y167.082
N1760 G1 X34.776 Y166.538
N1770 G1 X34.560 Y166.009
N1780 G1 X34.323 Y165.495
N1790 G1 X34.065 Y164.996
N1800 G1 X33.786 Y164.512
N1810 G1 X33.487 Y164.042
N1820 G1 X33.167 Y163.588
N1830 G1 X32.822 Y163.155
N1840 G1 X32.448 Y162.750
N1850 G1 X32.044 Y162.373
N1860 G1 X31.610 Y162.024
N1870 G1 X31.147 Y161.703
N1880 G1 X30.655 Y161.409
N1890 G1 X30.132 Y161.144
N1900 G1 X29.580 Y160.906
N1910 G1 X28.999 Y160.697
N1920 G1 X28.388 Y160.515
N1930 G1 X27.747 Y160.362
N1940 G1 X27.077 Y160.236
N1950 G1 X26.378 Y160.138
N1960 G1 X25.648 Y160.069
N1970 G1 X24.889 Y160.027
N1980 G1 X24.101 Y160.013
N1990 G1 X15.000 
N2000 M5
N2010 G00  
N2020 M5
N2030 G00 X169.124 Y40.006
N2550 M3 S255
N2050 G1   F500.0
N2060 M3 S255
N2070 G1 X173.037  
N2080 G1  Y18.565
N2090 G1 X185.036 
N2100 G1  Y15.000
N2110 G1 X169.124 
N2120 G1  Y40.006
N2130 M5
N2140 G00  
N2150 M5
N2160 G00 X47.179 Y104.642
N2170 M3 S255
N2180 G1   F500.0
N2190 M3 S255
N2200 G1 X100.000  
N2210 G1  Y109.642
N2220 G1 X47.855 
N2230 G1 X48.192 Y111.335
N2240 G1 X48.653 Y113.265
N2250 G1 X49.036 Y114.642
N2260 G1 X100.000 
N2270 G1  Y119.642
N2280 G1 X50.748 
N2290 G1 X51.280 Y120.950
N2300 G1 X52.137 Y122.839
N2310 G1 X53.041 Y124.642
N2320 G1 X100.000 
N2330 G1  Y129.642
N2340 G1 X56.034 
N2350 G1 X56.352 Y130.122
N2360 G1 X57.596 Y131.849
N2370 G1 X58.912 Y133.530
N2380 G1 X59.857 Y134.642
N2390 G1 X100.000 
N2400 G1  Y139.642
N2410 G1 X64.774 
N2420 G1 X64.840 Y139.702
N2430 G1 X66.470 Y141.088
N2440 G1 X68.151 Y142.404
N2450 G1 X69.878 Y143.648
N2460 G1 X71.381 Y144.642
N2470 G1 X100.000 
N2480 G1  Y149.642
N2490 G1 X81.358 
N2500 M5
N2510 G00  
N2520 M5
N2530 G00 X47.499 Y107.495
N2540 M3 S255
N2550 G1   F500.0
N2560 M3 S255
N2570 G1 X47.263 Y105.592 
N2580 G1 X47.097 Y103.707
N2590 G1 X46.999 Y101.842
N2600 G1 X46.967 Y100.000
N2610 G1 X100.000 
N2620 G1  Y153.033
N2630 G1 X98.158 Y153.001
N2640 G1 X96.293 Y152.903
N2650 G1 X94.408 Y152.737
N2660 G1 X92.505 Y152.501
N2670 G1 X90.590 Y152.192
N2680 G1 X88.665 Y151.808
N2690 G1 X86.735 Y151.347
N2700 G1 X84.804 Y150.809
N2710 G1 X82.877 Y150.193
N2720 G1 X80.957 Y149.496
N2730 G1 X79.050 Y148.720
N2740 G1 X77.161 Y147.863
N2750 G1 X75.294 Y146.927
N2760 G1 X73.455 Y145.911
N2770 G1 X71.648 Y144.818
N2780 G1 X69.878 Y143.648
N2790 G1 X68.151 Y142.404
N2800 G1 X66.470 Y141.088
N2810 G1 X64.840 Y139.702
N2820 G1 X63.265 Y138.250
N2830 G1 X61.750 Y136.735
N2840 G1 X60.298 Y135.160
N2850 G1 X58.912 Y133.530
N2860 G1 X57.596 Y131.849
N2870 G1 X56.352 Y130.122
N2880 G1 X55.182 Y128.352
N2890 G1 X54.089 Y126.545
N2900 G1 X53.073 Y124.706
N2910 G1 X52.137 Y122.839
N2920 G1 X51.280 Y120.950
N2930 G1 X50.504 Y119.043
N2940 G1 X49.807 Y117.123
N2950 G1 X49.191 Y115.196
N2960 G1 X48.653 Y113.265
N2970 G1 X48.192 Y111.335
N2980 G1 X47.808 Y109.410
N2990 G1 X47.499 Y107.495
N3000 M5
N3010 G00  
N3020 M5
N3030 G00 X104.642 Y100.000
N3040 M3 S255
N3050 G1   F500.0
N3060 M3 S255
N3070 G1  Y47.179 
N3080 G1 X105.592 Y47.263
N3090 G1 X107.495 Y47.499
N3100 G1 X109.410 Y47.808
N3110 G1 X109.642 Y47.855
N3120 G1  Y100.000
N3130 G1 X114.642 
N3140 G1  Y49.036
N3150 G1 X115.196 Y49.191
N3160 G1 X117.123 Y49.807
N3170 G1 X119.043 Y50.504
N3180 G1 X119.642 Y50.748
N3190 G1  Y100.000
N3200 G1 X124.642 
N3210 G1  Y53.041
N3220 G1 X124.706 Y53.073
N3230 G1 X126.545 Y54.089
N3240 G1 X128.352 Y55.182
N3250 G1 X129.642 Y56.034
N3260 G1  Y100.000
N3270 G1 X134.642 
N3280 G1  Y59.857
N3290 G1 X135.160 Y60.298
N3300 G1 X136.735 Y61.750
N3310 G1 X138.250 Y63.265
N3320 G1 X139.642 Y64.774
N3330 G1  Y100.000
N3340 G1 X144.642 
N3350 G1  Y71.381
N3360 G1 X144.818 Y71.648
N3370 G1 X145.911 Y73.455
N3380 G1 X146.927 Y75.294
N3390 G1 X147.863 Y77.161
N3400 G1 X148.720 Y79.050
N3410 G1 X149.496 Y80.957


N3420 G1 X149.642 Y81.358
N3430 G1  Y100.000
N3440 M5
N3450 G00  
N3460 M5
N3470 G00 X111.335 Y48.192
N3480 M3 S255
N3490 G1   F500.0
N3500 M3 S255
N3510 G1 X113.265 Y48.653 
N3520 G1 X115.196 Y49.191
N3530 G1 X117.123 Y49.807
N3540 G1 X119.043 Y50.504
N3550 G1 X120.950 Y51.280
N3560 G1 X122.839 Y52.137
N3570 G1 X124.706 Y53.073
N3580 G1 X126.545 Y54.089
N3590 G1 X128.352 Y55.182
N3600 G1 X130.122 Y56.352
N3610 G1 X131.849 Y57.596
N3620 G1 X133.530 Y58.912
N3630 G1 X135.160 Y60.298
N3640 G1 X136.735 Y61.750
N3650 G1 X138.250 Y63.265
N3660 G1 X139.702 Y64.840
N3670 G1 X141.088 Y66.470
N3680 G1 X142.404 Y68.151
N3690 G1 X143.648 Y69.878
N3700 G1 X144.818 Y71.648
N3710 G1 X145.911 Y73.455
N3720 G1 X146.927 Y75.294
N3730 G1 X147.863 Y77.161
N3740 G1 X148.720 Y79.050
N3750 G1 X149.496 Y80.957
N3760 G1 X150.193 Y82.877
N3770 G1 X150.809 Y84.804
N3780 G1 X151.347 Y86.735
N3790 G1 X151.808 Y88.665
N3800 G1 X152.192 Y90.590
N3810 G1 X152.501 Y92.505
N3820 G1 X152.737 Y94.408
N3830 G1 X152.903 Y96.293
N3840 G1 X153.001 Y98.158
N3850 G1 X153.033 Y100.000
N3860 G1 X100.000 
N3870 G1  Y46.967
N3880 G1 X101.842 Y46.999
N3890 G1 X103.707 Y47.097
N3900 G1 X105.592 Y47.263
N3910 G1 X107.495 Y47.499
N3920 G1 X109.410 Y47.808
N3930 G1 X111.335 Y48.192
N3940 M5
N3950 G00  
N3960 M5
N3970 G28
