%
(Header)
(Generated by gcodetools from Inkscape.)
(Using default header. To add your own header create file "header" in the output dir.)
M3
(Header end.)
G21 (All units in mm)

(Start cutting path id: path4385)
(Change tool to Plasma cutter)
 
G00 Z5.000000
G00 X57.255989 Y14.581267
M03 S255 (turn on laser)
G01 Z-1.000000 F100.0(Penetrate)
G02 X56.512971 Y15.070260 Z-1.000000 I1.206198 J2.641798 F400.000000
G02 X55.992000 Y15.725720 Z-1.000000 I1.727123 J1.907515
G02 X55.731786 Y16.529044 Z-1.000000 I1.904580 J1.060742
G02 X55.566212 Y19.306445 Z-1.000000 I23.502826 J2.794753
G01 X55.564236 Y22.126373 Z-1.000000
G01 X53.772661 Y22.624035 Z-1.000000
G02 X52.007016 Y23.194046 Z-1.000000 I6.009598 J21.634713
G02 X49.772917 Y24.100388 Z-1.000000 I13.129211 J35.569684
G01 X47.564751 Y25.079078 Z-1.000000
G01 X45.386473 Y23.138168 Z-1.000000
G02 X41.900125 Y20.983586 Z-1.000000 I-7.861725 J8.823190
G02 X40.031927 Y21.004023 Z-1.000000 I-0.909254 J2.281309
G02 X34.941403 Y24.269935 Z-1.000000 I7.009112 J16.525207
G02 X31.941149 Y28.387168 Z-1.000000 I8.584738 J9.407520
G02 X31.978115 Y29.986062 Z-1.000000 I1.667207 J0.761328
G02 X34.374946 Y33.124319 Z-1.000000 I9.938515 J-5.106085
G01 X36.518512 Y35.085194 Z-1.000000
G01 X35.435089 Y37.084532 Z-1.000000
G02 X34.427768 Y39.117100 Z-1.000000 I27.342544 J14.816591
G02 X33.802027 Y40.706016 Z-1.000000 I16.065291 J7.244446
G01 X33.252385 Y42.328159 Z-1.000000
G01 X30.137919 Y42.330135 Z-1.000000
G02 X27.055891 Y42.480929 Z-1.000000 I0.018969 J31.959240
G02 X26.183188 Y42.715656 Z-1.000000 I0.266028 J2.728778
G02 X25.440173 Y43.204643 Z-1.000000 I1.206155 J2.641744
G02 X24.919202 Y43.860104 Z-1.000000 I1.727118 J1.907513
G02 X24.675749 Y44.667717 Z-1.000000 I1.724100 J0.960226
G02 X24.495479 Y49.322946 Z-1.000000 I60.017418 J4.655229
G02 X24.675753 Y53.978177 Z-1.000000 I60.196493 J-0.000000
G02 X24.919202 Y54.785789 Z-1.000000 I1.967593 J-0.152619
G02 X25.440173 Y55.441250 Z-1.000000 I2.248095 J-1.252056
G02 X26.183188 Y55.930240 Z-1.000000 I1.949194 J-2.152780
G02 X27.055891 Y56.164964 Z-1.000000 I1.138709 J-2.494004
G02 X30.137919 Y56.315761 Z-1.000000 I3.101252 J-31.813070
G01 X33.252385 Y56.317737 Z-1.000000
G01 X33.802027 Y57.939880 Z-1.000000
G02 X34.427332 Y59.529026 Z-1.000000 I16.791132 J-5.689465
G02 X35.432585 Y61.561361 Z-1.000000 I28.497074 J-12.830715
G01 X36.513502 Y63.560696 Z-1.000000
G01 X34.369863 Y65.532973 Z-1.000000
G02 X31.992203 Y68.727966 Z-1.000000 I7.243014 J7.872332
G02 X32.012808 Y70.381130 Z-1.000000 I1.657930 J0.806046
G02 X35.478965 Y74.864166 Z-1.000000 I14.001442 J-7.244034
G02 X40.167117 Y77.706750 Z-1.000000 I9.861849 J-10.977453
G02 X41.978211 Y77.670136 Z-1.000000 I0.859502 J-2.295919
G02 X45.399063 Y75.503119 Z-1.000000 I-4.755396 J-11.290450
G01 X47.564751 Y73.562274 Z-1.000000
G01 X49.772920 Y74.543236 Z-1.000000
G02 X52.007205 Y75.451417 Z-1.000000 I15.312615 J-34.469264
G02 X53.772667 Y76.021857 Z-1.000000 I7.739034 J-20.934418
G01 X55.564242 Y76.519517 Z-1.000000
G01 X55.566217 Y79.339445 Z-1.000000
G02 X55.731831 Y82.116801 Z-1.000000 I23.674715 J-0.018104
G02 X55.992006 Y82.919467 Z-1.000000 I2.160997 J-0.256964
G02 X56.504487 Y83.587210 Z-1.000000 I2.525969 J-1.408109
G02 X57.169008 Y84.061113 Z-1.000000 I1.893181 J-1.951817
G02 X57.961911 Y84.276763 Z-1.000000 I0.919518 J-1.815390
G02 X63.289429 Y84.442660 Z-1.000000 I5.327518 J-85.459059
G02 X68.616947 Y84.276761 Z-1.000000 I-0.000000 J-85.624284
G02 X69.409847 Y84.061113 Z-1.000000 I-0.126616 J-2.031040
G02 X70.074370 Y83.587209 Z-1.000000 I-1.228652 J-2.425718
G02 X70.586852 Y82.919467 Z-1.000000 I-2.013481 J-2.075846
G02 X70.847036 Y82.116802 Z-1.000000 I-1.900965 J-1.059702
G02 X71.012640 Y79.339445 Z-1.000000 I-23.497746 J-2.794704
G01 X71.014616 Y76.519517 Z-1.000000
G01 X72.806191 Y76.021857 Z-1.000000
G02 X74.571651 Y75.451417 Z-1.000000 I-5.973661 J-21.505120
G02 X76.805934 Y74.543236 Z-1.000000 I-13.078060 J-35.376754
G01 X79.014098 Y73.562274 Z-1.000000
G01 X81.179786 Y75.503119 Z-1.000000
G02 X84.600638 Y77.670137 Z-1.000000 I8.176252 J-9.123438
G02 X86.411729 Y77.706750 Z-1.000000 I0.951589 J-2.259300
G02 X91.099884 Y74.864164 Z-1.000000 I-5.173658 J-13.819973
G02 X94.566043 Y70.381130 Z-1.000000 I-10.535402 J-11.727172
G02 X94.586880 Y68.714384 Z-1.000000 I-1.650907 J-0.854142
G02 X92.203903 Y65.521571 Z-1.000000 I-9.550224 J4.642190
G01 X90.060337 Y63.560696 Z-1.000000
G01 X91.143760 Y61.561358 Z-1.000000
G02 X92.151081 Y59.528790 Z-1.000000 I-27.342544 J-14.816591
G02 X92.776822 Y57.939874 Z-1.000000 I-16.065291 J-7.244446
G01 X93.326464 Y56.317731 Z-1.000000
G01 X96.440930 Y56.315756 Z-1.000000
G02 X99.522962 Y56.164961 Z-1.000000 I-0.018969 J-31.959308
G02 X100.395662 Y55.930234 Z-1.000000 I-0.266026 J-2.728759
G02 X101.138679 Y55.441244 Z-1.000000 I-1.206186 J-2.641786
G02 X101.659648 Y54.785784 Z-1.000000 I-1.727091 J-1.907485
G02 X101.903101 Y53.978170 Z-1.000000 I-1.724101 J-0.960227
G02 X102.083371 Y49.322941 Z-1.000000 I-60.017445 J-4.655229
G02 X101.903097 Y44.667710 Z-1.000000 I-60.196493 J-0.000000
G02 X101.659648 Y43.860098 Z-1.000000 I-1.967593 J0.152619
G02 X101.138679 Y43.204638 Z-1.000000 I-2.248061 J1.252025
G02 X100.395662 Y42.715647 Z-1.000000 I-1.949202 J2.152796
G02 X99.522962 Y42.480923 Z-1.000000 I-1.138705 J2.493985
G02 X96.440930 Y42.330126 Z-1.000000 I-3.101256 J31.813138
G01 X93.326464 Y42.328150 Z-1.000000
G01 X92.776822 Y40.706008 Z-1.000000
G02 X92.151516 Y39.116857 Z-1.000000 I-16.791016 J5.689408
G02 X91.146264 Y37.084526 Z-1.000000 I-28.496594 J12.830499
G01 X90.065347 Y35.085185 Z-1.000000
G01 X92.208986 Y33.112912 Z-1.000000
G02 X94.600953 Y29.972107 Z-1.000000 I-7.627321 J-8.290035
G02 X94.637700 Y28.387160 Z-1.000000 I-1.615700 J-0.830360
G02 X91.637446 Y24.269926 Z-1.000000 I-11.584992 J5.290287
G02 X86.546922 Y21.004015 Z-1.000000 I-12.099636 J13.259296
G02 X84.663057 Y20.983344 Z-1.000000 I-0.967063 J2.280019
G02 X81.179786 Y23.142763 Z-1.000000 I4.338478 J10.887294
G01 X79.014098 Y25.083608 Z-1.000000
G01 X76.805929 Y24.102648 Z-1.000000
G02 X74.571641 Y23.194466 Z-1.000000 I-15.311871 J34.467409
G02 X72.806182 Y22.624027 Z-1.000000 I-7.739199 J20.934963
G01 X71.014607 Y22.126365 Z-1.000000
G01 X71.012632 Y19.306440 Z-1.000000
G02 X70.847047 Y16.529038 Z-1.000000 I-23.679610 J0.018110
G02 X70.586843 Y15.725714 Z-1.000000 I-2.164661 J0.257350
G02 X70.065872 Y15.070254 Z-1.000000 I-2.248090 J1.252053
G02 X69.322857 Y14.581267 Z-1.000000 I-1.949169 J2.152756
G02 X68.446963 Y14.361428 Z-1.000000 I-1.033861 J2.264357
G02 X63.289420 Y14.197614 Z-1.000000 I-5.157542 J81.108258
G02 X58.131862 Y14.361466 Z-1.000000 I-0.000000 J81.254023
G02 X57.255983 Y14.581267 Z-1.000000 I0.158040 J2.484806
G01 X57.255989 Y14.581267 Z-1.000000
G00 Z5.000000
M05 (turn off plasma)
(End cutting path id: path4385)


(Start cutting path id: path4385)
(Change tool to Plasma cutter)
 
G00 Z5.000000
G00 X67.714958 Y35.850854
M03 S255 (turn on laser)
G01 Z-1.000000 F100.0(Penetrate)
G03 X74.346443 Y39.565412 Z-1.000000 I-4.664054 J16.103360 F400.000000
G03 X78.196127 Y45.407105 Z-1.000000 I-9.569341 J10.495531
G03 X78.490446 Y46.704711 Z-1.000000 I-5.685261 J1.971695
G03 X78.637554 Y49.322845 Z-1.000000 I-23.224461 J2.618134
G03 X78.490446 Y51.940978 Z-1.000000 I-23.371568 J-0.000000
G03 X78.196127 Y53.238585 Z-1.000000 I-5.979581 J-0.674088
G03 X74.046045 Y59.366971 Z-1.000000 I-13.527999 J-4.691636
G03 X66.978632 Y62.960997 Z-1.000000 I-10.761999 J-12.416946
G03 X61.810329 Y63.310950 Z-1.000000 I-3.674116 J-15.922240
G03 X56.714918 Y62.018535 Z-1.000000 I1.538716 J-16.757140
G03 X50.164369 Y56.687000 Z-1.000000 I6.068241 J-14.145604
G03 X47.847135 Y49.322845 Z-1.000000 I10.543000 J-7.364155
G03 X50.084746 Y42.066975 Z-1.000000 I12.883057 J-0.000000
G03 X56.415723 Y36.751448 Z-1.000000 I12.617697 J8.600145
G03 X59.657700 Y35.740540 Z-1.000000 I5.741289 J12.708329
G03 X63.760226 Y35.413458 Z-1.000000 I3.670770 J20.149613
G03 X66.378930 Y35.585537 Z-1.000000 I-0.621312 J29.466920
G03 X67.714958 Y35.850854 Z-1.000000 I-0.872820 J7.891662
G01 X67.714958 Y35.850854 Z-1.000000
G00 Z5.000000
M05 (turn off plasma)
(End cutting path id: path4385)


(Start cutting path id: path4490)
(Change tool to Plasma cutter)
 
G00 Z5.000000
G00 X62.037931 Y14.924652
M03 S255(turn on laser)
G01 Z-1.000000 F100.0(Penetrate)
G02 X59.690800 Y14.142444 Z-1.000000 I-2.705253 J4.204950 F400.000000
G02 X57.255989 Y14.581267 Z-1.000000 I-0.358122 J4.987158
G02 X56.512971 Y15.070260 Z-1.000000 I1.206198 J2.641798
G02 X55.992000 Y15.725720 Z-1.000000 I1.727123 J1.907515
G02 X55.731786 Y16.529044 Z-1.000000 I1.904580 J1.060742
G02 X55.566212 Y19.306445 Z-1.000000 I23.502826 J2.794753
G01 X55.564236 Y22.126373 Z-1.000000
G01 X53.772661 Y22.624035 Z-1.000000
G02 X52.007016 Y23.194046 Z-1.000000 I6.009598 J21.634713
G02 X49.772917 Y24.100388 Z-1.000000 I13.129211 J35.569684
G01 X47.564751 Y25.079078 Z-1.000000
G01 X45.386473 Y23.138168 Z-1.000000
G02 X41.900125 Y20.983586 Z-1.000000 I-7.861725 J8.823190
G02 X40.031927 Y21.004023 Z-1.000000 I-0.909254 J2.281309
G02 X34.941403 Y24.269935 Z-1.000000 I7.009112 J16.525207
G02 X31.941149 Y28.387168 Z-1.000000 I8.584738 J9.407520
G02 X31.978115 Y29.986062 Z-1.000000 I1.667207 J0.761328
G02 X34.374946 Y33.124319 Z-1.000000 I9.938515 J-5.106085
G01 X36.518512 Y35.085194 Z-1.000000
G01 X35.435089 Y37.084532 Z-1.000000
G02 X34.427768 Y39.117100 Z-1.000000 I27.342544 J14.816591
G02 X33.802027 Y40.706016 Z-1.000000 I16.065291 J7.244446
G01 X33.252385 Y42.328159 Z-1.000000
G01 X30.137919 Y42.330135 Z-1.000000
G02 X27.055891 Y42.480929 Z-1.000000 I0.018969 J31.959240
G02 X26.183188 Y42.715656 Z-1.000000 I0.266028 J2.728778
G02 X25.440173 Y43.204643 Z-1.000000 I1.206155 J2.641744
G02 X24.919202 Y43.860104 Z-1.000000 I1.727118 J1.907513
G02 X24.675749 Y44.667717 Z-1.000000 I1.724100 J0.960226
G02 X24.495479 Y49.322946 Z-1.000000 I60.017418 J4.655229
G02 X24.675753 Y53.978177 Z-1.000000 I60.196493 J-0.000000
G02 X24.919202 Y54.785789 Z-1.000000 I1.967593 J-0.152619
G02 X25.440173 Y55.441250 Z-1.000000 I2.248095 J-1.252056
G02 X26.183188 Y55.930240 Z-1.000000 I1.949194 J-2.152780
G02 X27.055891 Y56.164964 Z-1.000000 I1.138709 J-2.494004
G02 X30.137919 Y56.315761 Z-1.000000 I3.101252 J-31.813070
G01 X33.252385 Y56.317737 Z-1.000000
G01 X33.802027 Y57.939880 Z-1.000000
G02 X34.427332 Y59.529026 Z-1.000000 I16.791132 J-5.689465
G02 X35.432585 Y61.561361 Z-1.000000 I28.497074 J-12.830715
G01 X36.513502 Y63.560696 Z-1.000000
G01 X34.369863 Y65.532973 Z-1.000000
G02 X31.992203 Y68.727966 Z-1.000000 I7.243014 J7.872332
G02 X32.012808 Y70.381130 Z-1.000000 I1.657930 J0.806046
G02 X35.478965 Y74.864166 Z-1.000000 I14.001442 J-7.244034
G02 X40.167117 Y77.706750 Z-1.000000 I9.861849 J-10.977453
G02 X41.978211 Y77.670136 Z-1.000000 I0.859502 J-2.295919
G02 X45.399063 Y75.503119 Z-1.000000 I-4.755396 J-11.290450
G01 X47.564751 Y73.562274 Z-1.000000
G01 X49.772920 Y74.543236 Z-1.000000
G02 X52.007205 Y75.451417 Z-1.000000 I15.312615 J-34.469264
G02 X53.772667 Y76.021857 Z-1.000000 I7.739034 J-20.934418
G01 X55.564242 Y76.519517 Z-1.000000
G01 X55.566217 Y79.339445 Z-1.000000
G02 X55.731831 Y82.116801 Z-1.000000 I23.674715 J-0.018104
G02 X55.992006 Y82.919467 Z-1.000000 I2.160997 J-0.256964
G02 X56.504487 Y83.587210 Z-1.000000 I2.525969 J-1.408109
G02 X57.169008 Y84.061113 Z-1.000000 I1.893181 J-1.951817
G02 X57.961911 Y84.276763 Z-1.000000 I0.919518 J-1.815390
G02 X63.289429 Y84.442660 Z-1.000000 I5.327518 J-85.459059
G02 X68.616947 Y84.276761 Z-1.000000 I-0.000000 J-85.624284
G02 X69.409847 Y84.061113 Z-1.000000 I-0.126616 J-2.031040
G02 X70.074370 Y83.587209 Z-1.000000 I-1.228652 J-2.425718
G02 X70.586852 Y82.919467 Z-1.000000 I-2.013481 J-2.075846
G02 X70.847036 Y82.116802 Z-1.000000 I-1.900965 J-1.059702
G02 X71.012640 Y79.339445 Z-1.000000 I-23.497746 J-2.794704
G01 X71.014616 Y76.519517 Z-1.000000
G01 X72.806191 Y76.021857 Z-1.000000
G02 X74.571651 Y75.451417 Z-1.000000 I-5.973661 J-21.505120
G02 X76.805934 Y74.543236 Z-1.000000 I-13.078060 J-35.376754
G01 X79.014098 Y73.562274 Z-1.000000
G01 X81.179786 Y75.503119 Z-1.000000
G02 X84.600638 Y77.670137 Z-1.000000 I8.176252 J-9.123438
G02 X86.411729 Y77.706750 Z-1.000000 I0.951589 J-2.259300
G02 X91.099884 Y74.864164 Z-1.000000 I-5.173658 J-13.819973
G02 X94.566043 Y70.381130 Z-1.000000 I-10.535402 J-11.727172
G02 X94.586880 Y68.714384 Z-1.000000 I-1.650907 J-0.854142
G02 X92.203903 Y65.521571 Z-1.000000 I-9.550224 J4.642190
G01 X90.060337 Y63.560696 Z-1.000000
G01 X91.143760 Y61.561358 Z-1.000000
G02 X92.151081 Y59.528790 Z-1.000000 I-27.342544 J-14.816591
G02 X92.776822 Y57.939874 Z-1.000000 I-16.065291 J-7.244446
G01 X93.326464 Y56.317731 Z-1.000000
G01 X96.440930 Y56.315756 Z-1.000000
G02 X99.522962 Y56.164961 Z-1.000000 I-0.018969 J-31.959308
G02 X100.395662 Y55.930234 Z-1.000000 I-0.266026 J-2.728759
G02 X101.138679 Y55.441244 Z-1.000000 I-1.206186 J-2.641786
G02 X101.659648 Y54.785784 Z-1.000000 I-1.727091 J-1.907485
G02 X101.903101 Y53.978170 Z-1.000000 I-1.724101 J-0.960227
G02 X102.083371 Y49.322941 Z-1.000000 I-60.017445 J-4.655229
G02 X101.903097 Y44.667710 Z-1.000000 I-60.196493 J0.000000
G02 X101.659648 Y43.860098 Z-1.000000 I-1.967593 J0.152619
G02 X101.138679 Y43.204638 Z-1.000000 I-2.248061 J1.252025
G02 X100.395662 Y42.715647 Z-1.000000 I-1.949202 J2.152796
G02 X99.522962 Y42.480923 Z-1.000000 I-1.138705 J2.493985
G02 X96.440930 Y42.330126 Z-1.000000 I-3.101256 J31.813138
G01 X93.326464 Y42.328150 Z-1.000000
G01 X92.776822 Y40.706008 Z-1.000000
G02 X92.151516 Y39.116857 Z-1.000000 I-16.791016 J5.689408
G02 X91.146264 Y37.084526 Z-1.000000 I-28.496594 J12.830499
G01 X90.065347 Y35.085185 Z-1.000000
G01 X92.208986 Y33.112912 Z-1.000000
G02 X94.600953 Y29.972107 Z-1.000000 I-7.627321 J-8.290035
G02 X94.637700 Y28.387160 Z-1.000000 I-1.615700 J-0.830360
G02 X91.637446 Y24.269926 Z-1.000000 I-11.584992 J5.290287
G02 X86.546922 Y21.004015 Z-1.000000 I-12.099636 J13.259296
G02 X84.663057 Y20.983344 Z-1.000000 I-0.967063 J2.280019
G02 X81.179786 Y23.142763 Z-1.000000 I4.338478 J10.887294
G01 X79.014098 Y25.083608 Z-1.000000
G01 X76.805929 Y24.102648 Z-1.000000
G02 X74.571641 Y23.194466 Z-1.000000 I-15.311871 J34.467409
G02 X72.806182 Y22.624027 Z-1.000000 I-7.739199 J20.934963
G01 X71.014607 Y22.126365 Z-1.000000
G01 X71.012632 Y19.306440 Z-1.000000
G02 X70.847047 Y16.529038 Z-1.000000 I-23.679610 J0.018110
G02 X70.586843 Y15.725714 Z-1.000000 I-2.164661 J0.257350
G02 X70.065872 Y15.070254 Z-1.000000 I-2.248090 J1.252053
G02 X69.322857 Y14.581267 Z-1.000000 I-1.949169 J2.152756
G02 X68.446963 Y14.361428 Z-1.000000 I-1.033861 J2.264357
G02 X63.289420 Y14.197614 Z-1.000000 I-5.157542 J81.108258
G02 X58.131862 Y14.361466 Z-1.000000 I-0.000000 J81.254023
G02 X57.255983 Y14.581267 Z-1.000000 I0.158040 J2.484806
G02 X55.329481 Y16.133510 Z-1.000000 I2.076289 J4.548519
G02 X54.383001 Y18.419347 Z-1.000000 I4.002791 J2.996275
G00 Z5.000000
M05 (turn off plasma)
(End cutting path id: path4490)


(Start cutting path id: path4490)
(Change tool to Plasma cutter)
 
G00 Z5.000000
G00 X64.313131 Y32.472621
M03 S255(turn on laser)
G01 Z-1.000000 F100.0(Penetrate)
G02 X65.582742 Y34.596052 Z-1.000000 I4.792820 J-1.424385 F400.000000
G02 X67.714958 Y35.850854 Z-1.000000 I3.523209 J-3.547816
G03 X74.346443 Y39.565412 Z-1.000000 I-4.664054 J16.103360
G03 X78.196127 Y45.407105 Z-1.000000 I-9.569341 J10.495531
G03 X78.490446 Y46.704711 Z-1.000000 I-5.685261 J1.971695
G03 X78.637554 Y49.322845 Z-1.000000 I-23.224461 J2.618134
G03 X78.490446 Y51.940978 Z-1.000000 I-23.371568 J-0.000000
G03 X78.196127 Y53.238585 Z-1.000000 I-5.979581 J-0.674088
G03 X74.046045 Y59.366971 Z-1.000000 I-13.527999 J-4.691636
G03 X66.978632 Y62.960997 Z-1.000000 I-10.761999 J-12.416946
G03 X61.810329 Y63.310950 Z-1.000000 I-3.674116 J-15.922240
G03 X56.714918 Y62.018535 Z-1.000000 I1.538716 J-16.757140
G03 X50.164369 Y56.687000 Z-1.000000 I6.068241 J-14.145604
G03 X47.847135 Y49.322845 Z-1.000000 I10.543000 J-7.364155
G03 X50.084746 Y42.066975 Z-1.000000 I12.883057 J-0.000000
G03 X56.415723 Y36.751448 Z-1.000000 I12.617697 J8.600145
G03 X59.657700 Y35.740540 Z-1.000000 I5.741289 J12.708329
G03 X63.760226 Y35.413458 Z-1.000000 I3.670770 J20.149613
G03 X66.378930 Y35.585537 Z-1.000000 I-0.621312 J29.466920
G03 X67.714958 Y35.850854 Z-1.000000 I-0.872820 J7.891662
G02 X70.187738 Y35.929811 Z-1.000000 I1.391000 J-4.802616
G02 X72.395660 Y34.813589 Z-1.000000 I-1.081779 J-4.881573
G00 Z5.000000
M05 (turn off plasma)
(End cutting path id: path4490)


(Footer)
M5
G00 X0.0000 Y0.0000
M2
(Using default footer. To add your own footer create file "footer" in the output dir.)
(end)
%
